/* XPM */
static char *_129d3b3bbcc46dc940259278cd9dba5cjRkn7OxsPWSpO00[] = {
/* columns rows colors chars-per-pixel */
"284 402 251 2 ",
"   c #3D0D04",
".  c #3C140D",
"X  c #3E1106",
"o  c #2C151B",
"O  c #2B161C",
"+  c #341415",
"@  c #3C1514",
"#  c #3D1914",
"$  c #34151C",
"%  c #3B161A",
"&  c #33181D",
"*  c #3D1A1B",
"=  c #1E1529",
"-  c #1E1632",
";  c #241524",
":  c #2C1A24",
">  c #22152A",
",  c #2C152B",
"<  c #251B2C",
"1  c #2C1A2C",
"2  c #291723",
"3  c #331625",
"4  c #331924",
"5  c #311A2A",
"6  c #3B1C23",
"7  c #241532",
"8  c #261B33",
"9  c #2A1B32",
"0  c #2A1B3A",
"q  c #2A1834",
"w  c #341E37",
"e  c #392337",
"r  c #3C222B",
"t  c #3E201F",
"y  c #450E03",
"u  c #4A0E04",
"i  c #440E09",
"p  c #4B0E08",
"a  c #451104",
"s  c #4B1205",
"d  c #45130A",
"f  c #4B140B",
"g  c #44190E",
"h  c #4D190C",
"j  c #4D1806",
"k  c #521305",
"l  c #531A06",
"z  c #53140A",
"x  c #541B0D",
"c  c #5B1D0D",
"v  c #5A1707",
"b  c #421614",
"n  c #441A12",
"m  c #4C1C13",
"M  c #421B1B",
"N  c #4A1914",
"B  c #531C11",
"V  c #5B1D12",
"C  c #571E18",
"Z  c #510E07",
"A  c #621D0E",
"S  c #621E11",
"D  c #651F16",
"F  c #5C210D",
"G  c #57210C",
"H  c #4E2114",
"J  c #49231D",
"K  c #522214",
"L  c #5B2314",
"P  c #5E2915",
"I  c #54241A",
"U  c #5B2419",
"Y  c #53291C",
"T  c #5D291A",
"R  c #5A2C18",
"E  c #62220D",
"W  c #65280D",
"Q  c #622515",
"!  c #642915",
"~  c #6C2C16",
"^  c #63261A",
"/  c #642A1C",
"(  c #6B2C1C",
")  c #6A2518",
"_  c #712A16",
"`  c #732D1B",
"'  c #752818",
"]  c #6D3215",
"[  c #64311D",
"{  c #6D321D",
"}  c #6E391E",
"|  c #763516",
" . c #7C3516",
".. c #7E3916",
"X. c #75331D",
"o. c #7D351B",
"O. c #74391D",
"+. c #7E391B",
"@. c #421E22",
"#. c #452224",
"$. c #45242A",
"%. c #4A262B",
"&. c #4C2A2C",
"*. c #4C2824",
"=. c #522A22",
"-. c #5B2B23",
";. c #552A27",
":. c #5E3125",
">. c #5A322B",
",. c #4C2B32",
"<. c #4D2D3A",
"1. c #432837",
"2. c #532D36",
"3. c #4D303D",
"4. c #4F3235",
"5. c #51313D",
"6. c #553333",
"7. c #632C22",
"8. c #6B2E22",
"9. c #642924",
"0. c #722F22",
"q. c #722F29",
"w. c #643325",
"e. c #6D3323",
"r. c #6F3822",
"t. c #643329",
"y. c #6C342A",
"u. c #6B392C",
"i. c #743422",
"p. c #7B3421",
"a. c #743922",
"s. c #7B3A23",
"d. c #74342A",
"f. c #79362A",
"g. c #743A2B",
"h. c #7B3B2B",
"j. c #683B32",
"k. c #7A3E31",
"l. c #753D33",
"z. c #7B412D",
"x. c #7A422A",
"c. c #754133",
"v. c #7B4131",
"b. c #7A483D",
"n. c #6E443C",
"m. c #7F431E",
"M. c #392745",
"N. c #301D41",
"B. c #4D2F42",
"V. c #472E4A",
"C. c #502F44",
"Z. c #4D3144",
"A. c #4D324C",
"S. c #473049",
"D. c #503145",
"F. c #50324D",
"G. c #452E53",
"H. c #4A2F53",
"J. c #443254",
"K. c #4B3354",
"L. c #453359",
"P. c #49335A",
"I. c #503253",
"U. c #7A4A41",
"Y. c #813716",
"T. c #813A16",
"R. c #80351B",
"E. c #833C1C",
"W. c #893E1D",
"Q. c #813421",
"!. c #843C22",
"~. c #883D21",
"^. c #833D2C",
"/. c #893D2A",
"(. c #833627",
"). c #823E32",
"_. c #903F29",
"`. c #8E4C17",
"'. c #86411D",
"]. c #8B441D",
"[. c #8E4B1B",
"{. c #874117",
"}. c #904B17",
"|. c #91471C",
" X c #914B1B",
".X c #864221",
"XX c #8C4522",
"oX c #8E4921",
"OX c #84422C",
"+X c #8D452D",
"@X c #854928",
"#X c #914622",
"$X c #914A21",
"%X c #92442D",
"&X c #98492E",
"*X c #854433",
"=X c #8C4533",
"-X c #854A35",
";X c #8C4935",
":X c #85443A",
">X c #8B453A",
",X c #8B4A3A",
"<X c #854D3C",
"1X c #924332",
"2X c #924B35",
"3X c #9A4C35",
"4X c #934D3A",
"5X c #9A4D3A",
"6X c #964636",
"7X c #8C523C",
"8X c #9A5237",
"9X c #94523D",
"0X c #9B533C",
"qX c #9D593E",
"wX c #955337",
"eX c #A44E3C",
"rX c #A14C36",
"tX c #A45335",
"yX c #AD5636",
"uX c #AC5837",
"iX c #A4543C",
"pX c #AB563B",
"aX c #A6593D",
"sX c #AA593C",
"dX c #A65836",
"fX c #B05536",
"gX c #B1563A",
"hX c #B15839",
"jX c #B25937",
"kX c #884D42",
"lX c #934F40",
"zX c #984E41",
"xX c #8C5344",
"cX c #8C544A",
"vX c #875246",
"bX c #945343",
"nX c #9C5541",
"mX c #9D5943",
"MX c #93544A",
"NX c #945A4C",
"BX c #9B5A4A",
"VX c #9A5749",
"CX c #965C52",
"ZX c #8F5C54",
"AX c #A45641",
"SX c #AA5640",
"DX c #A35941",
"FX c #A95941",
"GX c #A25949",
"HX c #B15640",
"JX c #98604E",
/* pixels */
"N.N.N.N.e 0 w 0 0 0 0 0 w 0 0 0 9 9 9 9 8 8 8 8 8 8 8 8 8 8 8 8 8 8 8 8 8 8 8 8 8 8 8 8 8 8 8 8 8 8 0 0 8 8 8 0 0 0 0 0 0 0 0 0 0 0 0 0 0 0 0 0 0 0 0 0 0 8 8 8 8 8 8 8 8 8 8 8 8 8 8 8 8 7 7 > > > > > > > > > > > > > > = = = = = = = = = = > > = = = = = = = = = = = = = = = = = = = = = = = = = > > > > > > > > > > > > > > > > > > > > > > > > > > > > > < < < > > > < < < < < < < < < < 8 8 8 8 8 8 8 8 8 8 8 8 8 8 8 8 8 8 8 8 8 8 8 8 8 8 8 8 8 8 8 8 8 8 8 8 8 8 8 8 8 8 8 8 8 8 8 8 8 0 0 0 0 0 0 0 8 8 8 8 8 8 8 7 7 7 7 7 7 7 7 7 7 7 7 > > > > > > , , 9 9 w w 0 0 0 0 0 0 ",
"M.M.M.M.M.M.e e e e e w w w 1 1 1 1 1 1 1 1 1 1 1 1 1 1 1 1 1 1 1 1 1 1 1 1 1 1 1 1 1 1 1 9 9 9 9 9 9 9 9 9 9 9 9 9 q q q q q q q q q q q q 9 9 9 9 9 9 9 9 1 1 1 1 9 9 9 9 9 9 9 9 1 1 1 1 , , , ; ; ; ; ; ; ; ; ; ; ; ; ; ; ; ; ; ; ; ; ; ; ; ; ; ; ; ; ; ; ; ; ; ; ; ; ; ; ; ; ; ; ; ; ; ; ; ; ; ; ; ; ; ; ; ; ; ; ; ; ; ; ; ; ; ; ; ; ; ; ; ; ; 2 2 2 2 2 2 2 2 2 2 2 2 2 2 2 2 < < < < 1 1 1 1 1 1 1 1 1 1 1 < < < < < < < < < < < < < < < < < < < < < 1 9 9 9 9 9 9 9 9 9 9 1 9 9 9 9 9 9 9 9 9 9 9 9 9 9 9 9 1 1 1 1 1 1 , , , , , , > , , , , , , , , , 5 5 e w e e e w w w w w ",
"M.V.V.V.V.S.S.1.e e e e 5 5 5 5 1 5 1 1 1 5 5 5 4 5 5 5 5 5 5 5 4 5 5 5 5 5 4 5 5 5 5 5 5 5 5 5 5 5 5 5 5 5 5 5 5 5 , , , , , , , , , , , , , , , , 1 1 1 1 1 1 1 1 1 1 1 1 1 1 1 1 1 1 1 , , : : 2 2 2 O O O O O O o o o O O O O O O O O O O O O O O O o o o o O O O O O O O O O O o o o o o o o o o o O O o o O O O O O O 2 2 2 2 2 2 2 2 2 2 O 2 2 2 2 O O O O O 2 2 2 2 2 2 2 2 2 2 2 2 : : : 2 2 2 : : : : 2 : 2 : : : : : : : : : : : : 1 1 1 1 1 1 1 1 1 1 1 1 1 1 1 1 1 1 1 1 1 1 1 5 5 5 5 5 5 5 5 1 5 1 1 1 1 , , , , , , , , , , , , , , , , , , 5 5 5 r r 1.1.r 1.1.1.e 1.e ",
"V.S.S.S.S.S.S.B.1.e e e r r 5 5 4 4 4 4 4 4 4 4 4 4 4 4 4 4 4 4 4 4 4 4 4 4 4 4 4 4 4 4 4 4 4 4 4 4 4 4 4 4 4 3 3 3 3 3 3 3 3 3 3 3 3 3 3 3 4 4 4 4 4 4 4 4 4 4 4 4 4 4 4 4 4 4 4 4 4 4 4 4 3 & & & $ o o o $ $ $ $ o o o o o o o o o o o o o o o o o o o o o o o o o o o o o o o o o o o o o o o o o o o o o o o o o o o o o o o o o o o o o o o o o o o o o o o o o O o O & & & & o o O O & & & & & & & & O O O O O O O O : : : : 4 4 4 4 : : : : : : : : : : : : : : : : : 4 4 4 4 4 4 4 4 4 4 4 4 4 4 4 4 4 4 4 3 3 3 4 3 4 4 4 3 4 4 4 4 4 3 3 3 3 3 3 4 6 r $.$.$.$.1.1.<.<.B.B.B.",
"S.S.S.Z.Z.Z.Z.3.<.1.1.1.r r 6 6 4 4 4 4 $ $ $ % % % % % % % % % % % % % % % % % % % % % % % % % % % % % % % 4 4 % % % % % % % % % % % % % $ $ $ $ $ % % % & $ $ & & & & & & & & & & & & $ $ $ $ $ $ $ + + + + + + + + + + + + + + + + + + + + + + + + + + + + + + + + + + + + + + + + + + + + + + + + + + + + + + + + + + + + + + + $ $ $ $ $ $ $ $ + + + + + + + + + + $ $ $ $ + $ $ $ $ $ $ $ $ $ $ $ $ & & & & & & & & & & & & & & & & & & & & & & & & & & & & & & & & & & & & & & & & & & & & & & & & & % % % % $ $ $ $ $ $ $ $ $ $ $ $ 4 $ $ $ $ $ $ $ 6 @.$.$.&.&.,.<.<.<.C.B.B.B.",
"S.Z.Z.Z.5.5.5.3.<.,.,.%.$.#.6 6 * % % % % % % @ @ @ @ @ @ @ % % @ @ @ % @ @ @ @ % % @ @ @ @ @ @ @ @ @ @ @ % % % % % % % % % % % % % % % % % @ @ @ @ % % % % % % % % % % % % % % % % % % % % @ @ @ @ @ @ @ @ @ @ @ @ @ @ @ @ @ @ @ @ @ @ @ @ @ % @ @ @ @ @ @ @ @ @ @ @ @ @ @ @ @ @ @ @ @ @ @ @ @ + + @ @ @ @ @ @ @ @ @ @ @ @ % % @ @ @ @ % % % % % % @ @ . . @ @ . . @ @ + @ @ @ @ @ @ @ @ @ % % % % % % % % % % % % + + + + + + + + % % % % + + + + + + + + + + + + + + + + + % % % % * % % * % * % % % % % % % @ @ @ @ @ @ @ % % % @ % % % % % % % % % % % M #.%.%.;.&.,.2.2.2.5.D.D.Z.",
"Z.Z.3.5.5.5.5.6.,.,.&.%.%.#.M M M b b b b b b b b b b b b b b b b b b b b b b b b b b b b b b b b b b b b b b b b b b b b b b b b b b b b b b b b b b b b b b b b b b b b b b b b b b b b b b b b b b b b b b b b b b b b b b b b b b b b b b b b b b b b b b @ @ b b b b b b b b b b b @ . @ @ . @ @ b b b @ @ b b b b b b b b b b b b b b b @ @ @ @ @ . . . . . . . . @ @ @ @ @ @ @ @ @ @ @ @ @ @ @ @ b b # # # # # # # # # # # # # # # # # # # # # # # # # # # # # # # # @ @ # # b b b b n n n n n n n n b b b b b b b b b b b b b b b b b b b b @ @ @ b N J *.*.;.;.>.2.2.2.2.5.5.3.",
"3.3.5.5.6.6.6.6.&.&.*.*.*.J n n n n N N N N N N N N N N N N N N N N N N N N N N N N N N N N N N N m N N N N N N N N N N N N N m m m m m m m N N N h h h h h g n n g g g g g g m m g g g g g h h h h f f f f f f f f N N N N N h N N N h N n N n N n g g g g g g g g N N N N N N g g g g g g g g g g f f h h g g h h N N N N N N N N N N N N b b n n n g g g g g g g g g g n n n g g g g g g n g n n n n n n n n n n n n n n n n n n n n n n n n n n g g g g g g g g g g g g g g g g g g g g m m m m m m m m m m N N N N N N N N N N N N n n n n n n n n n n m I =.;.:.:.>.>.2.2.6.6.5.3.",
"3.4.5.6.6.6.>.>.>.;.=.=.J H N N N N m m B B B B B x B B B B B B B B B B B B B B B B B B B B B B B B B B B B B B B B x x x x x x x x x x x x x x x x x x x h h h x h x x x x x x x x h h h h h x x x h x z z z x x x B x x B B B x x B B B B x x x x f f h h h h h h x x x x x x h h h h f f f f f f h f h h x x h h x x x x x x x x h h h h h m h h h h h h h h h h h h h h f f f f f f f f f h h h h h m m m m m m h h h h m m m m m m m m h h h h j j j j j j j j j j j j h h h h h h x x x x B B x x x x x x x x x x x x x B x x h h h h h h h h h h h h K I Y T :.:.:.>.>.>.6.6.6.5.",
"4.6.6.6.&.*.;.>.:.:.=.Y Y I K B B B B B B c c c A A A A A A A S S S S S S S S S S A A A A S A S S S S S S A A A A A A A A A A A F F F F E F F F F F F F F F c c F F A E E E E A A E E E E E Q Q Q L L c c c V V V V V V V V C D S S D D D D S S S S S S Q Q Q Q Q Q S S S S S S S S S S S S S L L L Q L L L L L L L L L L L L L L c c c c c c c c c c c c c c c c c c c c c c c c c c c c c c V V V V V V V V V c c V V V V V V V V V L L L c c c F F F c c c c c c F F c c c c F F F F c c F F F F L L L L V V V V V V V V V V c c L L L L L L L L K K x K L T T T / w.:.:.:.>.>.>.6.6.",
",.&.&.&.*.J J Y -.-.T T -.7.7./ / / ( ( ( ~ _ ' ' ' ' ' ' ' ' ' ' ' ' ' ' ' ' ' ' ' ' ' ` ` ' ' ` ` ' ' ' ' ' ' ' ' ` ` ` ` ` ` _ _ _ _ ` ` ` ` ` ` ` ` ` ` ` ' ' ' ` ` ' ` ` ` ` ` ` ` ` ` ` ` ` ` ` ` ( ( ` ` ` ` ` ` ` ` ` ` ` ` ` ` ` ` ` ` ` ` ` ` ` ` ` ` ` ` ` ` ` ` ` ` ` ` ` ` ` ` ` ` ` ` ` ` X.X.X.X.X.X.( ` ( ` ` ` X.( ~ ~ ~ ~ ~ ~ ~ _ ~ ~ ~ _ _ _ _ ' ' ' ' ' ' ' ' _ _ _ _ ` ` ` ` ` ` ` ` ` ` ` ` ` ` ` ` ` ` ` ` ` ` ` ` ` ' ' ' ' ` ` ' ` ' ' ` ` ` ` ' ' ' ' ' ` ` ` ' ` ` ( ` ` ` ` ` ` ` ` 0.0.( ( ( ( 8.( ( ( ` ` ` ` ( ( ( ( ( ( ( ( / / / / T T T T -.-.>.>.>.6.",
"&.&.&.*.J J H H K U T w.y.g.g.h.h.h.h.h.h.(.(.(././././././././././././././././././././././././././././././././././././././././.OXOXOXOXOXOXOXOXOXOXOXOXOXOX^.^././././././././././.+X+X+X+X+X+X+XOX/./././././././././././././././././././././././././././.+X+X/.+X/././././././././././././.OXOXOXOXOXOXOXOXOXOXOXOXOXOXOXOXOXOXOX!.!.!.!.!.^.!.!.(.(.(.(.(.(.(.(.(.(.(.(.(.(.(.(.(.(.(.(.^.^././.(.(.^.^././.^.^././././././.^.^./././././././././././././././.^./././././././././././.^.OXOXOXOXOXOXOXOX/.^.^.^././././././././.OXOXOXOXOXOXOXOXz.z.z.h.g.i.{ / P P P U U T =.>.>.6.",
"&.&.*.J J m g h x G / e.g.v.<X,X,X,X,X;X2X3X3X6X6X6X6X6X3X3X3X3X3X3X3X3X3X3X3X3X3X3X3X3X3X3X3X3X3X3X3X3X3X3X3X3X3X3X3X3X3X3X3X3X3X3X3X3X3X3X3X3X3X3X3X3X3X5X5X5X5X3X3X3X3X3X3X3X3X3X3X3X3X3X3X3X3X3X3X3X3X5X5X5X5X5X5X5X5X5X5X5X5X5X5X5X5X5X5X3X5X3X5X5X5X5X5X3X3X3X3X3X3X3X3X3X3X3X3X3X3X3X3X3X3X3X8X8X8X8X8X8X8X8XwXwX3XwXwXwXwX3X2X2X2X2X2X2X2X2X2X2X2X2X2X2X2X2X2X2X6X2X&X3X2X2X2X2X2X2X3X3X3X3X3X3X3X3X3X3X3X3X3X3X3X3X4X4X4X3X3X3X3X3X3X3X3X3X3X3X3X3X3X3X3X3X3X3X3X3X3X3X3X3X3X3X3X3X3X3X3X5X5X5X5X5X4X4X5X5X5X5X4X4X4X4X5X4X5X5X4X4X4X4X4X4X4X4X,X,X*Xs.X.~ F G G G L U -.;.>.6.",
"&.*.*.J H g a j x G [ r.v.<XbXbXnXbX0X0X0X0XiXeXeXeXtXtXtXtXiXiXtXtXiXtXiXiXiXiXiXiXiXiXiXiXiXiXiXiXiXiXiXiXiXiXiXiXiXiXaXaXiXiXiXaXaXaXiXaXaXaXaXaXaXaXaXaXiXiXiXiXiXiXtXtXtXtXtXtXtXtXtXtXiXiXiXiXiXiXaXiXaXaXaXaXiXiXiXiXiXiXiXiXiXiXiXiXiXiXiXiXiXiXiXiXiXiXiXiXiXiX8X8XiXtXiXiXiXiXtXtXiX8XiX8X8X8X8X8X8X8X8X8X8X8X8X8X8X8X8X8X8X8X8X8X8X8X8XtXiXiXiXiXiXiXiXiXiXiXiXiXtXiXiXiXiXiXiXiXaXaXaXiXaXiXiXiXiX0X0X0X0X0X0X0X0X0X8XiXaXaXiXiXiXiXiXiXiXiXiXiXiXiXiXiXtXtXtXtX8X8XtXtXiXtXtXiXiX8X8X8X0X0X0X0X0X0X0X0X0X0X0X0X0X0X0X0X0X0X8X8XqXqXqXqXqX0XwX9X=Xh.o.~ v l l x P T T -.>.>.",
"&.;.Y I H h j l F W } s.-X9XmXmXnXqXqXqXaXiXtXtXtXtXtXpXpXpXpXpXpXpXpXpXpXpXpXpXpXpXtXtXtXtXtXtXtXtXtXtXtXtXtXtXiXiXiXpXpXpXpXpXpXpXpXiXiXiXiXiXiXiXiXiXiXaXpXpXpXpXiXpXiXtXtXtXtXtXpXpXpXpXpXpXpXpXpXpXpXpXpXpXpXpXaXpXaXpXpXpXaXaXaXaXaXaXpXpXpXpXpXpXpXpXpXpXpXpXiXiXiXiXiXiXiXiXiXiXiXiXiXiXiXiXiXiXiXiXiXiXiXiXiXiXiXiXiXiXiXiXiXiXtXtXtXdXiXiXiXiXpXpXpXpXpXpXpXpXpXpXpXpXpXpXpXpXpXpXsXsXpXpXpXpXpXaXaXaXaXaXaXaXaXaXaXaXaXiXaXpXpXpXiXpXiXiXiXiXiXiXiXiXiXiXiXiXiXiXiXiXiXiXiXiXiXiXiXaXaXaXaXaXaXFXiXiXiXiXaXaXaXaXaXaXaXaXaXaXaXaXaXaXaXDXDXDXqX0X+XOX+.| E v v G F P Y -.;.>.",
"&.;.-.Y K x x F ! ~ s.OX7XmXmXDXDXDXaXaXaXsXpXpXpXpXpXgXgXgXgXgXgXpXpXpXpXpXpXpXpXpXpXpXpXpXpXpXpXpXpXpXpXpXpXpXpXpXpXpXpXpXpXpXsXsXtXtXtXtXdXiXiXpXpXpXpXpXpXpXpXpXpXtXtXtXtXtXtXtXyXyXpXpXpXpXpXpXsXpXpXpXpXpXpXpXpXpXpXpXpXpXpXpXpXpXpXpXpXpXpXpXpXpXpXpXpXpXpXpXpXpXpXpXpXpXpXpXpXpXpXpXpXpXpXpXpXaXaXsXaXaXaXaXaXaXaXaXaXaXsXsXiXiXiXiXiXpXpXpXpXpXsXsXsXpXpXpXpXpXpXpXpXpXpXsXsXsXsXsXsXsXpXpXpXpXpXsXpXsXsXpXpXpXpXiXpXpXpXpXsXsXsXsXpXpXpXpXpXpXpXpXpXpXpXpXpXpXpXpXpXpXpXpXpXpXpXpXpXpXpXpXpXpXpXpXpXpXpXpXpXpXpXpXpXpXpXpXpXaXaXaXaXaXaXaXDXDXDXaX2X+X!.o.~ E F F F P U Y ;.&.",
"&.;.-.T L L F ! ~ X.!.+XwXaXDXDXDXsXsXsXsXsXhXhXhXjXgXgXgXgXgXgXgXgXgXgXgXgXgXgXgXgXgXgXgXgXgXgXgXpXpXpXsXsXsXsXsXpXpXpXpXpXyXyXyXyXtXtXtXtXtXtXtXtXtXyXtXyXyXyXyXyXyXyXtXtXtXyXyXyXyXyXyXyXpXpXpXpXpXpXpXpXpXpXpXpXyXpXpXpXpXpXpXpXpXpXpXpXpXpXpXpXpXpXpXpXpXpXpXpXyXyXtXtXtXtXtXtXtXtXtXtXtXtXtXtXsXsXsXsXsXsXsXsXuXuXuXsXsXsXsXsXtXtXtXtXtXtXpXpXpXpXpXpXpXpXpXpXpXpXpXpXpXpXpXpXpXpXpXpXpXpXpXpXpXpXpXsXsXsXsXsXtXpXpXpXpXtXtXtXsXsXpXpXyXyXpXpXtXyXyXyXtXtXtXtXtXtXtXtXtXtXtXtXtXtXtXtXpXpXpXpXpXpXpXpXpXpXpXpXpXpXpXpXpXpXpXpXpXpXsXsXuXpXsXsXsXaXDXaX8X%X~.o._ ~ W E F P T Y =.=.",
"&.>.7.7.e.X.X.o.p.!.+X2X3XiXaXaXsXsXsXsXsXsXhXhXjXjXgXgXgXgXgXgXgXgXgXgXgXgXgXgXhXhXhXhXhXhXhXhXhXhXpXpXsXsXsXuXuXuXjXfXfXyXyXyXyXyXyXyXyXyXyXyXyXyXyXyXyXyXyXyXyXyXyXyXyXyXyXfXyXyXyXyXfXfXyXyXyXyXyXpXpXyXyXyXyXyXyXyXyXyXpXpXpXpXfXfXfXfXpXyXhXhXhXyXyXyXfXyXyXyXyXyXyXyXyXyXyXyXyXyXyXyXtXtXtXtXyXyXtXtXtXyXuXuXtXtXtXtXyXyXtXtXtXtXuXyXyXyXuXuXyXyXyXyXfXfXfXfXfXfXyXyXyXyXyXyXjXhXhXhXhXhXpXpXhXpXhXuXuXuXuXuXyXpXyXpXyXyXyXyXyXyXyXyXyXyXyXyXyXyXyXyXyXyXyXyXyXyXyXtXyXyXyXyXyXyXyXyXuXpXpXpXpXsXsXsXpXpXpXpXyXyXyXyXpXyXyXyXpXuXuXuXsXsXsXsXsXaXsXaXtX&X%X~.E.o._ ~ ~ / P U =.*.",
"&.>.t.d.h.h.(.!./.+X&X3X3XiXiXpXsXsXsXsXsXsXjXjXjXjXhXhXgXgXgXgXgXgXfXfXfXfXfXfXfXfXfXfXfXfXfXfXyXhXsXsXuXuXuXuXuXuXfXyXyXyXyXyXyXyXyXyXyXyXyXyXyXyXyXyXyXyXyXyXyXyXfXfXyXyXfXfXyXyXfXyXfXfXyXyXyXyXyXyXyXyXfXfXyXyXyXyXyXfXfXyXyXyXfXfXfXfXyXyXfXfXyXyXyXyXyXfXyXyXyXyXyXyXyXyXyXyXyXyXyXyXyXtXuXuXtXtXtXtXtXtXuXuXuXtXtXyXyXyXyXyXyXyXyXyXfXyXjXfXyXyXyXyXyXyXfXfXfXfXyXyXyXyXyXyXhXhXhXhXhXhXsXhXhXyXfXyXyXfXyXyXyXyXyXyXyXyXyXyXyXyXyXyXyXyXyXyXyXyXyXyXyXyXyXyXyXyXyXyXyXyXyXyXyXyXyXyXyXyXyXuXuXuXuXuXyXyXyXyXyXyXtXyXyXyXyXyXyXfXuXuXpXsXsXsXsXsXiXiXiXtXtX3X%X.X!.s.i.( P I I *.",
">.>.g.k.:X,X;X1X3X3X3X3XiXaXpXpXsXsXsXsXsXsXjXjXjXjXhXgXgXgXgXgXgXgXfXfXfXfXfXfXfXfXfXfXfXfXfXfXyXhXpXpXuXuXuXuXuXuXfXfXyXyXyXyXyXyXyXyXyXyXfXfXfXfXfXfXyXyXfXfXyXyXyXyXyXyXfXfXyXyXfXyXfXfXfXfXyXyXyXyXyXyXfXfXyXyXyXyXfXfXfXfXfXfXfXfXfXfXfXfXfXfXfXfXfXfXfXfXyXyXfXfXyXyXyXfXyXyXyXyXyXyXyXyXyXyXyXyXyXyXyXyXyXyXuXuXuXuXjXjXfXyXyXfXjXjXfXfXfXfXhXhXhXhXhXhXhXhXhXhXhXhXhXhXfXfXhXhXhXhXhXhXhXhXhXhXhXhXfXfXfXfXfXfXyXyXyXyXfXfXfXfXfXfXfXyXyXyXyXyXfXfXfXfXyXyXyXyXyXyXyXyXyXyXyXyXyXyXfXfXyXyXyXyXuXuXyXyXyXyXyXyXyXyXyXyXyXyXfXfXyXyXpXpXpXsXsXsXpXpXtXtXtXiXiX3X%XOXh.a./ Y I J ",
";.t.l.*XlXmX4X5XaXiXiXtXaXpXpXpXsXsXsXsXsXsXhXjXjXhXhXhXhXgXgXgXgXgXfXfXfXfXfXfXfXhXhXhXfXfXfXyXyXfXfXfXuXuXuXuXuXuXuXyXyXyXyXyXjXjXyXyXyXyXyXyXfXyXyXyXyXyXfXyXyXyXyXyXyXyXyXfXyXfXfXfXyXyXyXyXfXfXfXyXyXyXyXyXyXyXyXyXfXfXfXfXfXfXfXfXfXfXfXfXfXfXfXfXfXfXfXyXyXyXyXyXfXfXfXfXyXyXyXyXyXyXyXyXyXyXyXyXyXyXyXyXyXyXuXuXuXuXyXyXfXyXyXfXyXpXhXhXfXfXhXhXhXhXhXhXhXhXhXhXhXhXhXhXfXhXhXhXhXhXhXhXhXhXhXhXhXfXfXfXfXfXfXfXyXyXyXyXyXyXyXyXyXyXyXyXyXyXyXyXyXyXyXyXyXyXyXyXyXyXyXyXyXyXyXyXyXyXfXfXyXyXjXjXuXuXyXyXyXyXyXyXyXyXyXyXfXfXfXfXyXyXhXhXpXpXpXsXsXsXpXpXpXpXpXiX5X3X=Xh.g.T I M ",
";.t.l.:XlXbXGXAXFXFXpXpXpXSXpXpXsXsXsXsXsXsXhXhXhXhXhXhXhXhXhXhXhXgXfXfXfXfXfXfXhXhXfXhXfXyXyXuXuXuXuXuXuXuXuXuXuXuXuXuXuXuXuXuXuXuXyXyXyXyXyXyXyXyXyXyXyXyXyXyXyXyXyXyXyXyXyXyXyXyXyXyXyXyXyXyXfXyXyXyXyXyXyXyXyXyXyXyXyXfXfXfXyXyXyXyXfXfXfXfXyXyXyXyXyXfXyXyXyXyXyXyXyXyXyXyXyXyXyXyXyXyXyXyXyXyXyXyXyXyXyXyXyXyXyXyXyXyXyXyXyXyXyXyXyXyXfXfXyXyXfXfXfXfXfXfXfXfXfXfXfXfXfXfXfXfXfXfXhXhXfXfXfXfXfXfXfXfXfXfXfXfXfXfXfXfXfXfXfXfXfXfXfXfXfXfXfXfXfXfXfXfXfXfXfXfXyXyXyXyXyXyXyXyXyXyXyXyXfXfXyXyXfXfXuXuXyXyXuXyXyXyXyXyXfXfXfXfXfXyXyXyXhXhXpXpXhXpXpXpXpXpXpXpXpXpXiX5X2X*Xg.7.I M ",
";.t.l.:XlXbXGXAXDXFXpXpXSXSXpXpXsXsXsXsXsXsXhXhXhXhXhXhXhXhXhXhXhXhXfXfXfXyXyXyXyXyXfXfXyXuXuXuXuXuXuXuXuXuXuXuXuXuXuXuXuXuXuXuXuXuXtXtXtXtXyXyXyXyXyXyXyXyXyXyXyXyXyXyXuXuXyXyXyXyXyXyXyXyXyXyXyXyXyXyXtXtXyXyXyXyXyXyXyXyXyXyXyXyXyXyXyXyXyXyXyXyXyXyXyXyXyXyXyXyXyXyXuXuXtXtXtXtXyXyXyXtXtXtXyXyXyXyXyXyXyXyXyXyXyXyXyXyXyXyXyXyXyXyXyXyXyXyXyXyXfXfXfXfXfXfXfXfXfXfXfXfXfXfXfXfXfXfXhXhXhXhXfXfXfXfXfXfXfXfXfXfXfXfXfXfXfXfXfXfXfXfXfXfXfXfXfXfXfXfXfXfXfXfXyXyXyXyXyXyXyXyXyXyXyXyXyXyXfXfXyXfXfXfXuXuXyXyXuXyXyXyXfXfXfXfXfXfXyXyXyXyXhXhXpXpXpXhXhXhXpXpXpXpXpXpXiX5X5X*Xa.9.I n ",
";.t.l.:XbXbXGXDXDXaXsXsXpXpXpXpXsXsXsXsXsXsXhXhXhXhXsXsXsXsXsXhXhXhXfXfXyXuXyXyXyXuXyXuXuXuXuXuXuXuXuXuXsXsXsXsXsXsXuXuXuXuXuXuXuXuXuXuXuXtXuXuXuXuXuXuXuXyXyXyXyXyXyXyXtXtXtXtXtXyXyXyXtXyXyXyXyXuXtXtXtXtXuXuXuXuXyXyXyXyXyXyXyXyXyXyXyXyXyXyXyXyXyXyXuXyXyXyXyXuXyXyXyXtXtXtXtXtXyXyXyXyXtXyXyXyXyXyXyXyXyXyXyXyXyXyXyXyXyXyXyXyXyXyXyXyXyXfXyXyXfXfXfXfXfXfXfXfXfXfXfXfXfXfXfXfXfXfXhXhXhXfXfXfXfXfXfXfXfXfXfXfXfXfXfXfXfXhXfXfXfXfXfXfXfXfXfXfXfXfXfXfXfXhXyXyXyXyXyXyXyXyXyXyXyXyXyXyXfXfXyXfXfXfXuXuXyXyXfXfXyXyXyXfXfXfXyXyXyXyXfXyXhXhXpXpXhXhXhXhXpXpXpXpXpXSXSXiX5X*Xa.9.I n ",
";.t.l.:XbXnXGXDXDXaXsXsXpXpXpXpXsXsXsXsXsXsXpXsXsXsXsXsXpXsXsXsXsXsXpXuXuXuXuXpXpXsXsXsXsXsXsXsXsXsXsXuXsXsXsXsXsXsXsXsXsXsXsXsXsXsXsXuXuXuXuXtXuXuXyXyXtXtXtXpXtXtXpXsXsXuXpXpXpXpXpXpXpXpXtXyXsXpXpXtXtXtXtXtXtXuXyXyXtXtXtXtXtXyXyXtXtXtXtXyXyXtXpXpXpXpXpXpXsXsXpXpXpXpXpXpXpXpXpXpXpXpXyXyXpXpXpXyXtXyXyXpXpXpXpXpXpXpXpXpXpXpXpXpXpXpXhXhXfXfXhXhXyXyXyXyXhXhXhXfXfXfXfXhXpXhXhXhXhXhXhXhXhXhXhXhXhXhXhXfXfXfXfXhXhXhXhXhXhXhXhXhXhXhXhXhXhXhXhXhXhXhXhXhXpXpXpXyXyXyXyXpXpXpXpXpXpXpXpXpXpXpXpXpXpXuXyXyXfXfXuXyXyXfXfXyXyXyXyXyXfXyXhXhXpXpXgXgXgXgXpXpXpXpXpXSXSXiX5X^.d./ I n ",
";.t.l.:XbXnXGXDXDXaXsXpXpXpXpXpXpXpXsXsXpXpXsXsXsXsXpXpXpXpXsXsXsXsXpXpXpXpXpXpXpXpXpXpXpXpXpXpXsXsXsXsXsXsXsXsXsXsXsXsXsXsXsXsXsXsXsXaXaXaXdXuXsXsXtXtXtXdXdXiXpXpXpXiXiXpXpXpXpXpXpXpXpXpXpXpXpXpXpXtXtXtXtXtXtXtXtXtXtXtXtXpXpXpXpXpXpXpXpXpXpXpXsXsXsXsXsXsXsXsXsXpXpXpXpXpXpXpXpXpXpXpXpXpXpXpXpXtXpXpXpXpXpXpXpXpXpXpXpXpXpXpXpXpXhXhXhXhXpXpXpXpXpXpXpXpXpXpXpXpXpXpXpXpXpXpXpXpXpXpXhXhXpXpXpXpXpXpXpXpXpXpXpXpXpXpXpXpXpXpXpXpXpXpXpXpXpXpXpXpXpXpXpXpXpXpXpXpXpXpXpXpXpXpXpXpXpXpXpXpXpXpXpXpXpXpXpXpXpXpXsXpXpXpXpXpXpXpXpXpXpXpXhXpXpXpXpXpXgXgXgXpXgXgXpXSXFX0X4X*Xa./ C n ",
";.t.l.:XbXnXmXDXaXaXsXpXpXpXpXpXpXpXsXsXpXpXpXpXpXpXpXpXpXpXpXpXpXpXpXpXpXpXpXpXpXaXaXaXaXaXaXaXsXsXsXsXsXsXsXsXsXsXsXsXsXsXsXsXsXsXsXaXaXaXaXaXsXsXiXiXiXiXiXiXiXiXiXiXiXiXiXiXiXiXaXpXpXpXiXpXpXpXpXpXpXpXpXpXpXpXpXpXiXiXiXpXpXpXpXpXpXpXpXpXpXpXpXpXpXsXsXsXsXaXaXpXpXpXpXpXpXpXpXpXpXpXpXpXpXpXpXpXpXpXpXpXpXpXpXpXpXpXpXpXpXpXpXpXpXpXpXpXpXpXpXpXtXtXpXpXpXpXpXpXpXpXpXpXpXpXpXpXpXpXpXpXpXpXpXpXpXpXpXpXpXpXpXpXpXpXpXpXpXpXpXpXpXpXpXpXpXpXpXpXpXpXpXpXpXpXpXpXpXpXpXpXpXpXpXpXpXpXpXpXpXpXpXpXpXpXpXpXpXpXsXsXsXsXpXpXpXpXpXpXpXpXpXpXpXpXgXgXgXgXpXpXgXgXpXSXFX0X4X^.d./ m n ",
";.t.k.>X9XnXDXDXaXsXsXsXsXsXpXpXpXpXsXsXpXpXSXpXpXpXpXpXpXpXpXSXsXsXpXpXpXaXaXaXaXaXaXaXaXaXaXaXaXaXaXiXiXiXaXaXaXaXaXaXaXaXaXaXaXaXaXaXaXaXaXaXaXaXiXiXiXaXaXaXaXaXaXaXaXaXaXaXaXaXaXaXaXaXaXaXaXaXaXiXiXiXiXaXaXpXiXiXiXaXaXaXaXaXiXiXaXaXaXaXaXaXaXaXaXaXaXaXaXaXaXaXaXaXaXaXaXaXaXaXaXaXaXaXaXaXaXaXaXaXpXpXpXpXsXsXsXsXpXpXSXpXpXpXpXpXpXpXpXpXpXpXpXpXpXpXpXpXpXpXpXpXpXpXpXpXpXSXpXpXpXpXpXpXpXpXpXpXpXpXpXpXpXpXpXpXpXpXpXpXpXpXpXpXpXpXpXpXpXpXpXpXpXpXpXpXpXpXpXpXpXpXpXpXpXpXpXpXsXsXFXFXsXsXsXsXpXpXpXsXsXsXsXsXpXpXpXpXpXpXsXpXpXpXpXpXpXpXpXpXpXpXpXpXpXSXFX0X2X^.d./ m n ",
";.t.k.-X9XnXDXDXaXaXsXsXsXpXpXpXpXpXpXsXsXpXSXSXSXpXSXSXFXFXSXSXFXSXFXaXaXaXaXDXDXDXDXDXDXDXDXDXDXaXaXaXaXaXaXaXaXaXaXaXaXaXaXaXaXaXDXaXaXaXaXDXDXDXaXaXaXaXaXAXAXAXAXAXAXAXAXAXAXDXDXDXDXAXDXaXaXaXaXaXaXaXaXaXaXaXaXaXaXaXaXAXAXaXAXAXAXAXAXAXAXFXaXaXaXaXqXqXAXAXAXAXAXAXAXAXAXAXAXAXAXAXAXaXaXaXDXaXaXaXaXDXDXDXDXDXFXFXFXFXSXSXFXFXFXFXFXFXFXFXFXFXFXFXFXaXFXFXFXaXpXaXaXSXFXFXFXFXFXFXaXFXFXSXFXFXFXFXFXFXFXFXFXFXFXSXFXFXFXFXFXFXFXSXFXFXFXFXFXFXFXSXFXFXFXFXFXaXaXaXaXDXDXDXDXDXaXaXaXFXFXFXFXFXFXFXSXSXFXFXFXFXFXFXFXSXSXSXFXsXFXsXpXpXpXpXpXpXpXpXgXgXpXpXpXSXFX0X2X^.d./ C n ",
";.t.k.-X9XnXDXDXaXaXpXpXpXpXpXpXpXpXpXpXpXpXSXSXpXpXSXFXFXFXAXAXFXFXAXaXaXaXaXAXAXAXAXnXmXmXmXnXmXmXnXqXqXqXqXnXnXnXqXqXqXqXAXAXnXnXDXaXaXaXaXDXDXDXAXAXAXAXAXAXAXAXnXnXAXAXAXAXAXnXmXDXmXmXmXqXqXqXnXqXqXaXqXnXnXAXqXqXqXqXqXnXnXnXnXnXAXAXnXnXAXAX0XqXqXqXnXnXnXnXnXnXqXqXnXnXnXnXnXnXnXnXnXqXqXqXqXqXqXqXaXAXAXAXDXDXDXDXAXFXAXAXAXFXFXFXFXAXAXFXAXAXAXAXFXFXAXAXAXaXaXaXaXAXAXAXAXAXAXaXaXAXAXAXAXAXFXFXAXAXAXAXAXAXFXFXAXAXAXAXAXAXFXFXAXAXAXAXAXAXFXFXAXAXAXAXAXaXaXaXaXDXDXDXDXDXDXaXaXnXAXAXAXAXAXAXAXAXAXAXAXFXFXFXAXAXFXFXFXFXSXFXFXpXpXpXpXpXpXpXpXpXpXpXpXSXAX5X;X^.e.T m n ",
";.t.k.-X9XnXDXaXaXpXpXpXpXpXpXpXtXtXtXtXtXtXiXAXiXiXAXAXAXAXAXAXAXAX0XqXqXqXqXqXqX0X0X0XnXnX0X0X0X0X0X0X0X0X0X0X0X0X0X0X0X0XnXqXnX0XqXqXqXqXqXnXnXqXqXqXqXqXqXqXnXnX0X0XqXqXqXqXqX0X0X0X0X0X0X0X0X0X0X0X0X0X0X0X0X0X0X0X0X0X0X0X0X0X0X0X0X0X0X0X0X0X0X0X0X0X0X9X0X0X0X0X0X0X0X0X0X0X0X0X0X0X0X0X0X0X0X0X0X0X0XqXqXqXnXnXnXnXnXnXnXnXnXnXAXAXnXnXnXnXnXnXnXnXnXnXnXqXqX0X0X0X0X0X0X0X0X0X0X0X0XnXnXnXnXnXAXAXnXnXnXnXnXnXAXAXAXnXnXnXnXnXAXAXAXnXnXnXnXnXAXAXAXnXnXnXnXqXqXqXqXnXnXnXnXnXnXqX0X0XbXbXbXbXnXnXnXnXnXnXnXnXnXnXAXAXAXAXAXAXAXiXFXpXpXpXpXpXpXpXpXpXpXpXpXSXAX5X;X^.e.T m n ",
";.y.k.-X9XnXDXaXaXpXpXpXpXpXpXtXtXtXeXeXrXrXeXeXeX5X5XnXnXnXnXnXnXnX5X0X0X9X9X9X9X9X9X9X9X9X9X9X9X9X9X9X9X9X9X9X9X9X9X9X9X9X9X0X9X9X0X0X0X0X0XnXnX0X0X0X0X0X0XbXbXbX9X9X9X0X0X0X0X9X9X9X9X9X9X9X9X9X9X9X0X0X9X9X9X0X9X9X9X9X9X9X9X9X9X9X0X9X9X9X9X9X9X9X9X9X9X9X9X9X9X9X9X9X9X9X9X9X9X9X9X9X9X9X9X9X9X9X9X9X9X0X0X0XnXnXnXnXnXbXbXbXbXnXnXnXbXbXbXbXbXbXbXbXbXbXbX0X0X0X0X0X0X0X0X0X0X0X0X0X0XbXbXbXbXbXnXnXbXbXbXbXbXbXnXnXnXbXbXbXbXbXnXnXnXbXbXbXbXbXnXnXnXbXbXbXbX0X0X0X0XnXnXnXnXnXnX0X9X9XbXbXbXbXbXbXbXbXzXzXbXbXzXzXzXzXzX5X0X5X0X8XiXiXaXpXpXpXpXpXpXpXpXpXpXSXAX5X;X^.e.T m n ",
";.y.k.-X9XnXDXaXaXiXpXpXpXpXpXtXeXeXeXrXrX3X5X5X5X5X5XzXzXzXzXzXzX4X4X4X4X4X4X4X4X9X9X9X,X,X,X,X,X,X,X,X,X,X,X,X,X,X9X9X9X9X9X9X9X9X9X9X9X9X9X9X9X9X9X9X4X4X4X4X4X4X9X9X9X4X4X4X9X9X9X9X9X9X9X9X9X9X9X9X9X9X9X9X9X9X9X9X9X9X9X4X9X9X9X9X4X4X4X4X4X9X9X9X4X9X7X7X7X7X9X9X9X9X9X4X4X4X4X4X,X,X,X4X,X,X4X4X9X9X4X4X4X4X9X9X9X9X9XlXlXlXlX4XlXlXlXlXlXlXlXlXlXlXlX9X9X9X9X4X4X4X4X4X4X4X4X4X4X4X4X4XlXlXlXlXlXlX4X4XlXlXlXlX4X4X4XlXlXlXlXlXlXlX4X4XlXlXlXlX4X4X4X9X9X9X9X9X9X9X4X4X9X9X9X9X9X4X4X4X4X4X4X4X4X4X4X4X4X4X4XlX4X4XlXlX4X4X4X4X4X5X8XiXiXiXaXpXpXpXpXpXpXpXpXSXFX0X2X^.i.T m n ",
";.y.k.-X9XnXDXaXaXiXpXpXpXpXtXtXeXrXrX3X%X_.1X1X1X1X1X>X>X>X>X>X>X*X*X*X*X*X:X:X:X:X*X*X*X*X:X*X*X*X*X*X*X*X*X*X*X*X*X-X*X*X*X*X*X*X*X*X*X*X*X:X*X*X*X*X*X*X*X*X*X*X*X*X*X*X*X*X*X*X*X*X*X*X*X*X*X*X*X*X*X-X-X*X-X*X*X*X*X*X*X*X*X*X*X*X*X*X*X*X*X*X*X*X*X*X*X*X*X*X*X*X*X*X*X*X*X*X:X*X*X*X*X*X*X*X:X:X:X:X*X*X*X*X:X:X:X:X:X:X:X:X:X:X:X:X:X:X:X:X:X:X:X:X:X:X:X:X:X:X:X:X:X:X:X:X:X:X:X:X:X:X:X:X:X:X:X:X:X:X:X:X:X:X:X:X:X:X:X:X:X:X:X:X:X:X:X:X:X:X:X:X:X:X:X:X>X>X:X:X:X:X:X:X:X:X:X:X*X*X*X*X*X*X:X:X:X*X>X:X:X>X>X>X>X>X:X:X*X*X>X;X3X8X8XiXaXaXpXpXpXpXpXpXpXSXFX0X;X^.i.^ m n ",
";.y.k.-X9XnXDXaXaXiXpXpXpXpXtXtXrX&X&X%X~.(.(.(.(.^.^.^.h.h.h.h.h.f.f.d.f.f.f.f.g.g.g.g.g.g.g.g.g.g.g.g.g.g.d.g.g.g.g.g.g.g.g.g.g.g.g.g.g.g.h.h.h.f.f.f.f.f.f.f.f.f.f.f.f.f.f.f.f.f.h.h.f.f.f.f.f.f.f.f.h.h.h.h.f.f.f.f.f.f.h.h.f.f.f.h.f.f.h.h.f.f.f.f.f.g.g.g.g.g.g.g.g.f.f.g.f.g.a.a.g.g.d.d.d.d.h.h.h.h.h.h.h.h.h.h.h.h.h.h.h.h.h.h.h.h.h.h.h.h.h.h.h.h.h.h.h.h.h.h.h.h.h.h.h.h.h.h.h.h.h.h.h.h.h.h.h.h.h.h.h.h.h.h.h.h.h.h.h.h.h.h.h.h.h.h.h.h.h.h.h.h.h.h.h.h.h.h.h.h.h.h.h.h.h.h.h.h.h.a.d.d.d.d.d.d.d.d.f.f.f.f.f.f.f.f.f.d.d.d.h.^.+X3X8X0XaXaXpXpXpXpXpXpXpXSXAX0X;X^.i.^ m n ",
";.y.k.-X4XnXDXaXaXiXpXpXpXpXtXtXrX&X_.R.o.' ' ` 0.( ( ( 8.8.( ( 8.9./ / 9.9.9.9.9.9.9.9./ / / 9.9.9.9./ / / / / / / / / / / / / / / / / / / / / / / / / / / / / / / / / / / / / / / ( ( ( ( ( ( ( ( ( / / / ( ( / / ( ( ( ( / / / / ( ( ( ( / / ( ( / / / / / / / / / / / / / / / / / / / / / / / / / / / / / / / / ( ( ( ( ( ( ( ( ( ( ( ( ( ( ( ( ( ( ( ( ( ( ( ( ( ( ( ( ( ( ( ( ( ( ( ( ( ( / / ( ( ( ( ( ( / / ( ( ( ( ( ( / / ( ( ( ( ( ( / / ( ( ( ( ( ( ( ( ( ( ( ( ( ( ( ( ( ( ( / / / / / / / / / / / / / / 9.9./ / ^ ^ ^ / ( 8.i.(.=X3X8XaXpXpXpXpXpXpXpXpXSXAX0X;X^.i.^ m n ",
";.y.k.>X4XnXAXaXaXiXpXpXpXpXpXtXrX&XR. ._ ) A A D D V L L L L Q Q V V V V V C C C C V V B B B B B B B B V B V V V c x x c c c c c c V V V V V V V V B B V V c x x x x x x x x x V V x x V V V V F F c c V V V V L L L L L L L L L L L L L L L L L L L L L L L L L L L L L L V L L L x x x x x x x x x x x x x x V V x x L L L L L L L L L L L L L L L L L L L L L L L L L L L L L L L L L L L L L L L L L L L L L L L L L L L L L L L L L L L L L L L L L L L L L L L L L L L L L L L L L L L V V V c c x V K L B B B B B B B B B B V L L ) X.(.%X3XiXiXpXpXpXpXpXpXpXSXAX0X;X^.e.T m n ",
";.y.k.>X4XnXAXaXaXpXpXpXpXpXiXtXrX&XR.' W A v k z k z s s u u u u s s s s s u u u u s s s s s s s s s s s s s s s s s s s s s s s s s s f s s s s s s s f f f s s s s s s s s s s s s s s s s s s s s s s s s s s s a y a y y y y y y y y y y y y y y y y y y y y y y y y y y y y y s s s s s s s s s s s s s s s s s s a a a a a a a a a a a a a a a a a a a a a a a a a a a s a a a a a a a a a a a a a a a a a a a a a a a a a a a a a a a a a a a a a a a a a a a a a a a a a a a a a y y y y y y y y y y y y a a f f f i i i y y s l c ~ p.+X2XiXaXiXpXpXpXpXpXpXSXiX5X;X^.e.T K n ",
";.y.k.>X4XnXAXaXpXpXpXpXpXpXiXtX3X&XR._ A v k k k s s s s u s u u u u u u u u u u u u u u u u u u u u u u u u u u u u u u u u u u u p u u u u u u u u a a d a a a a a a a a a a a a a a a a a a a a a a a a a a a a a a a a a a y y y y y y y y y y y y a a a a y y y y y y y y y y a a a a a a a a a a a a a a a a a a a a a a a a a a a a a a a a a a a a a a a a a a a a a a a a a a a a a a a a a a a a a a a a a a a a a a a a a a a a a a a a a a a a a a a a a a a a a a a a a a a a a y y y y y y y y y y y y y y y i i i y y u z c ` p.+X3X8XiXiXsXpXpXpXpXpXSXaX5X;Xh.e.T K n ",
";.y.k.>X4XqXAXaXpXpXpXsXpXpXiXtX3X&XR._ A v k s u s s s s s s s s s u u u u u u u u s s s s s s s s s s s s s s s s s s s s u u f f f f p p f f f f s a d d d f d d d d d d a a d d d d d d d d d d d d d d d d a a a a a a a a a a a a a a a a a a a a a a a a a a a a a a a a a a a a a a a a a a a a a a a a a a a a a a a a a a a a a a a a a a a a a a a a a a a a a a a a a a a a a a a a a a a a a a a a a a a a a a a a a a a a a a a a a a a a a a a a a a a a a a a a a a a a a a a a a a a a a a a a a a y y y y i i i y y u z c ( p.+X2X8XiXiXsXpXpXpXpXpXSXaX5X;X^.e.T K n ",
";.y.k.;X4XnXAXaXpXiXsXsXpXpXiXtX3X&Xo.) c k u u u y a a a a s a s s y y u u u u u u s s s s s s s s s s s s s s s s s s s s s p f f f f f f f f f f f f a d d d d d d d d d d d d d f f f f f f d f f f f f f d d a d a a a a a a a a a a a a a a a a a a a a d a a a a a a a a a a a a a a a a a a a a a a a s a a a a a a a a a a a a a a a a a a a a a a a a a a a a a a a a a a a a a a a a a a a a a a a a a a a a a a a a a a a a a a a a a a a a a a a a a a a a a a a a a a a a a a a a a a a a a a a a a a a a a a a a a y y a f c ( f.OX2X8XiXaXsXpXpXpXpXpXSXaX5X;X^.r.T K n ",
";.y.k.>X4XnXAXaXpXpXsXsXuXpXiXtX3X%Xs.) c k u y y y a a f j s s s s s s f f f f f f f f z z z z z z z z h z z z z z z z z z z z z z z z f f z z z z f f f f f f f h f h f f f f h h f f h h h h h h h h h h h h h h f f f f f f f f f f f f f f f f f f f f h h h h h h f f f f f f f f h j j j j j h h h h j j h h h h j j j h h h j j h h h h j j h h h h h h h h h h h h h h h h h h h h h x h h h h h x h h h h h h h h h h h h h h h x h h h x h h h h h h h h h h h h h h h h j j j j j j j j j s f f f s d d d d d d d d a y y i f B ( f.OX2X8XiXaXsXpXpXpXpXpXSXaX5X;X^.e.T m n ",
";.y.k.>X4XAXAXaXpXpXuXuXuXpXiXtX3X+X(.~ c k u u y y a f h x x h x x x x x x x x x x x x V V V B V B B B B B B B B B B B B x x x x x x x x x x x x x x x x x c c c c x c c c x x c c c c c c c c c c c c c c c c x x x x x x x x x x x x x x x x x x x x x x x x x x x x x x x x x x x x x x x x x x c c x x x x x x x x x x x x x x x x x x x x x x x x x x x x x x x x x x x x x x x x x x c c x x x x x x x x x x c c x x x x x x x x x x x x c c x x x x x x x x x x x x x x x x x x x x x x x x x x x x x x h h h h h h f g d d i i f B / d.OX;X8XiXaXsXsXpXpXpXpXSXaX5X;X^.e.T m n ",
";.y.k.>X4XnXFXaXpXpXuXuXuXpXiXtX3X%X(.~ c k u p y a f h x G L L L L L L L L L L Q Q L Q Q Q Q Q Q Q Q Q L L Q Q Q Q Q Q Q Q Q Q Q Q Q Q L L Q Q Q Q Q Q Q Q Q Q Q Q Q Q Q Q Q Q Q Q Q Q Q Q Q Q Q Q Q Q Q Q Q Q Q Q Q Q L L L L L L L L L L L L P P Q L L P L L L L P P Q Q L L L L P P L L L L L Q Q Q Q Q Q Q Q Q Q Q Q Q Q Q Q Q Q Q Q Q Q Q Q Q Q Q Q Q Q Q Q Q Q Q Q Q Q Q Q Q Q Q Q Q Q Q Q Q Q Q Q Q Q Q Q Q Q Q Q Q Q Q Q Q Q Q Q Q Q Q Q Q Q Q Q Q Q Q Q Q Q Q Q Q Q Q Q Q P P L L L L L L L L L L L L L L L K K B m h f d d i f B / a.OX;X8X8XaXsXsXpXpXpXpXSXaX5X;Xh.e.T m n ",
";.y.k.-X9XnXAXaXiXiXuXuXpXpXiXiX3X=X(.~ c k u p y d f x L L Q Q ^ ^ ^ ^ ^ / / / / / ( ( ( ( ) ) ( ( / / / / / / ( ( ( ( ( ( ( ( ~ ( ! / / / ( ( / / ( ( ( ( ( ( ( ( ( ( ) ( ) ~ ( ( ( ( ( ( ( ( ( ( ( ( ( ( ( ( ( ~ ~ ( ! ! ! ! ! ! ! ! ! ! ! ! ! ! ! ~ / / / ! / / / / ! ! / / ( ( ! ! ! ! ! ! ! ! ( ) ) ( ( ( ( ( ~ ( ( ( ( ( ( ( ( ( ( ~ ~ ~ ~ ~ ( ~ ~ ( ( ( ( ~ ~ ~ ~ ( ~ ( ( ~ ~ ~ ( ( ( ( ( ( ( ( ~ ( ( ( ( ( ( ( ( ~ ~ ~ ( ( ( ( ~ ( ( ( ( ( ( ( ( ( ( ( ~ ~ ( ( ( ( ~ ~ ~ ( ! ! ! ! ~ ! ! ! ! ! ! Q Q Q Q L L L L L K B h f a y s x ( a.OX;X8X8XaXsXsXpXpXpXpXSXaX5X;Xh.e.T m n ",
";.y.k.-X9XnXAXaXiXiXuXuXpXpXpXiX3X+X(.~ A k u u d f h B L / ( ( ( ( ( ( ( ( ( ( ( ( ( ( ( ` ~ ~ ~ ( ( ( ( ( ( ( ( ( ` ( ( ` ` ` ` ( ( ( ( ( ( ( ( ( ( ( ` ` ` ` ` ` ` ` ` ` ` ` ` ` ` ` ` ` ` ` ` ` ` ` ` ` ` ` ( ` ( ( ( ( ( ( ( ( ( ( ( ( ( ( ( ( ( ( ( ( ( ( ( ( ( ( ( ( ( ( ( ( ( ( ( ( ( ( ( ( ` ` ` ` ` ` ` ` ` ` ` ` ` ( ( ` ( ( ( ( ( ( ( ( ( ( ( ( ` ` ( ( ( ( ( ( ( ( ( ( ( ( ( ( ` ` ` ` ` ( ( ( ` ` ( ( ` ` ` ( ( ( ` ` ` ( ( ( ` ` ( ( ( ( ( ( ( ( ( ( ( ( ( ( ( ( ( ( ( ( ( ( ( ( ( ( ( ( ( ( ( ( ( ( / ^ L U U L x f a a s x / g.OX;X8XqXaXsXsXpXpXpXpXSXiX5X;X^.e.T B n ",
";.u.k.-X9XnXAXaXpXiXsXsXpXpXiXtX3X=X(.~ A k u u d f h K ^ / e.e.e.e.{ { { { X.X.` ` ` ` ` ` ` ` ` ` ` ` ` ` ` ` ` ` ` ` ` ` ` ` ` ` ` X.X.X.X.` ` ` ` ` ` ` ` ` ` ` ` ` ` ` ` ` ` ` ` ` X.` ` ` ` ` ` ` ` X.X.X.` ` ` ` ` ` ` ` ` ` ` ` ` ` ` ` ` ` ` ` ` ` ` ` ` ` ` ` ` ` ` ` ` ` ` ` ` ` X.X.` ` X.X.` ` X.` X.X.` ` ` ` ` ` ` ` ` ` ` ` ` ` ` ` ` ` ` ` ` ` ` ` ` ` ` ` ` ` ` ` ` ` ` ` X.X.` ` ` ` ` ` ` ` ` ` ` ` ` ` ` ` ` ` ` ` ` ` ` ` ` ` ` ` ` ` X.X.` ` ` ` ` ` ` ` ` ` ` ` ` ` ` ` ` ` ` ` ` ` ` ( ( ( ( ( / ^ Q L x f a a j l ~ p.OX;X8XaXaXsXFXSXpXpXpXSXiX5X;X^.e.^ B n ",
"-.u.k.-X9XnXAXaXpXpXpXpXpXpXiXiX3X=Xp.~ c k u f f f h K ^ / d.d.d.i.i.X.X.X.X.X.X.X.X.X.X.X.X.X.X.X.X.X.X.X.X.X.X.X.X.X.X.X.X.X.o.o.o.X.X.X.X.o.o.X.X.X.X.X.X.X.X.X.X.X.o.o.o.X.X.X.o.o.o.o.o.o.o.o.o.o.o.o.o.o.o.o.o.X.o.X.X.o.o.X.X.X.X.X.X.X.X.X.X.X.X.X.X.X.o.o.X.X.X.X.X.o.o.o.X.X.X.X.X.X.o.X.X.o.o.o.X.X.X.X.X.X.X.o.o.o.o.o.o.o.o.o.o.o.o.o.o.o.o.o.o.o.o.o.o.o.o.o.o.o.o.o.o.X.X.X.X.X.X.X.o.X.X.X.X.X.X.X.X.X.X.X.X.X.X.X.o.X.X.X.X.X.o.o.o.o.X.o.o.o.o.o.o.o.o.o.o.o.o.o.o.o.o.o.o.o.o.o.o.o.X.X.X.X.` X.` ( ( ( ^ P x z a a s x ~ s.OX2X8XiXaXpXFXSXpXpXpXSXiX5X;X^.i.^ B n ",
"-.u.k.-X9XnXAXaXiXiXsXsXsXpXiXiX3X+Xp.~ c k u f d f h K ^ ( d.a.g.a.i.p.p.o.o.o.o.o.o.o.X.X.X.X.X.X.o.o.X.X.X.X.X.X.o.o.o.o.o.o.o.o.o.o.o.o.o.o.o.o.o.o.o.o.o.o.o.o.o.o.o.o.o.o.o.o.o.o.o.o.o.o.o.o.o.o.o.o.o.o.o.o.o.o.o.o.o.o.o.o.o.o.o.o.o.o.o.o.o.o.o.o.o.o.o.o.o.o.o.o.o.o.o.o.o.o.o.o.o.X.X.X.o.o.o.o.o.o.o.o.o.o.o.o.o.o.o.o.o.o.o.o.o.o.o.o.o.o.o.o.o.o.o.o.o.o.o.o.o.o.o.o.o.o.o.o.o.o.o.o.o.o.o.o.o.o.o.o.o.o.o.o.o.o.o.o.o.o.o.o.o.o.o.o.o.o.o.o.o.o.o.o.o.o.o.o.o.o.o.o.o.o.o.o.o.o.o.o.o.o.o.o.o.o.o.X.X.X.{ ( / Q L k a s s l ~ s.@X2X8XiXaXsXFXSXpXpXpXaXaX5X;X^.e.T B n ",
"=.u.c.-X9X0XDXaXiXiXsXsXaXaXiXtX3X+Xp.~ c k s f d f x L ^ ( e.a.i.i.i.o.o.o.o.o.o.o.o.o.o.X.X.X.o.o.o.o.X.X.o.o.o.o.o.o.o.o.o.o.o.o.o.o.o.o.o.o.o.o.o.o.o.o.R.R.R.R.R.R.R.R.R.R.R.R.R.R.R.o.o.o.R.R.R.R.R.R.R.R.o.o.o.o.o.o.o.o.o.o.o.o.o.o.o.o.o.o.o.o.o.o.o.o.o.o.o.o.o.o.o.o.o.o.X.X.o.o.o.o.X.X.o.o.o.o.o.o.o.o.o.o.o.o.o.o.o.o.o.o.o.o.o.o.o.o.o.o.o.o.o.o.o.o.o.o.o.o.o.o.o.o.o.o.o.o.o.o.o.o.o.o.o.o.o.o.o.o.o.o.o.o.o.o.o.o.o.o.o.o.o.o.o.o.o.o.o.o.o.o.o.o.o.o.o.o.o.o.o.o.o.o.o.o.o.o.o.o.o.o.o.o.o.o.o.o.o.X.X.{ ( / L k a s s l ~ s.@X2X8XiXaXaXpXpXpXpXpXpXaX5X=Xh.e.L B n ",
"=.t.c.-X9X0XDXFXaXpXpXsXaXaXiXtX3X+Xp.( c f s f d f B C ^ 8.i.i.i.X.X.X.o.o.o.o.o.o.o.o.o.o.o.o.o.o.o.o.o.o.o.o.o.o.o.o.X.X.X.X.o.o.o.o.o.o.o.o.o.o.o.o.o.o.R.R.R.R.o.o.o.o.o.R.R.R. . . . . . .o.o.o.o.R.R.R.R.o.o.o.o.o.o.o.o. . .o.o. . . . . . .o.o.o.o.o.o.o.o.o.o.o.o.o.o.o.o.o.o.o.o.o.o.o.o.o.o.o.o.o.o.o.o.o.o.o.o.o.o.o.o.o.o.o.o.o.o.o.o.o.o.o.o.o.o.o.o.o.o.o.o.o.o.o.o.o.o.o.o.o.o.o.o.o.o.o.o.o.o.o.o.o.o.o.o.o.o.o.o.o.o.o.o.o.o.o.o.o.o.o.o.o.o.o.o.o.o.o.o.o.o.o.o.o.o.o.o.o.o.o.o.o.o. . . . .o.o.o.X.X.X.( ( L j a a s x ~ s.@X;X8XiXaXaXpXpXpXpXpXSXaX8X=Xh.e.L B n ",
"=.t.l.-X9X0XDXDXaXpXpXsXaXaXiXtX3X+Xp.( c f s f d f B C ^ 8.i.i.i.X.X.X.o.o.o.o.o.o.o.o.o.o.o.o.o.o.o.o.o.o.o.o.o.o.o.o.X.X.X.X.o.o.o.o.o.o.o.o.o.o.o.o.o.o.R.R.R.R.o.o.o.o.o.R.R.R.o.o.o.o.o.o.o.R.o.o.R.R.R.R.o.o.o.o.o.o.o.o.o.o.o.o. . . . . . .o.o.o.o.o.o.o.o.o.o.o.o.o.o.o.o.o.o.o.o.X.X.X.X.o.X.p.p.o.o.o.o.o.o.o.o.o.o.o.o.o.o.o.o.o.o.o.o.o.o.o.o.o.o.o.o.o.o.o.o.o.o.o.o.o.o.o.o.o.o.o.o.o.o.o.o.o.o.o.o.o.o.o.o.o.o.o.o.o.o.o.o.o.o.o.o.o.o.o.o.o.o.o.o.o.o.o.o.o.o.o.o.o.o.o.o.o.o.o.o.o.o. . . . . .o.o.X.X.X.( ( L f a a s x ( s.@X4X8XiXaXaXpXpXpXpXpXpXaX0X=Xh.e.L B n ",
"=.t.c.-X9X0XDXDXaXpXpXsXaXaXiXtX3X+Xp.( c s s a d f B C ^ 8.i.i.i.X.X.X.o.o.o.o.X.X.X.X.o.o.o.o.X.X.o.o.o.o.o.o.o.o.o.o.X.o.o.o.X.X.o.o.o.o.o.o.o.o.o.o.o.o.R.R.R.R.o.o.o.o.o.R.R.o.o.o.o.o.o.o.o.o.R.o.R.R.R.R.o.o.o.o.o.o.o.o.o.o.o.o. . . . . . .o.o.o.o.o.o.o.o.o.o.o.o.o.o.o.o.o.o.o.o.X.X.X.X.X.X.p.p.o.o.o.o.o.o.o.o.o.o.o.o.o.o.o.o.o.o.o.o.o.o.o.o.o.o.o.o.o.o.o.o.o.o.o.o.o.o.o.o.o.o.o.o.o.o.o.o.o.o.o.o.o.o.o.o.o.o.o.o.o.o.o.o.o.o.o.o.o.o.o.o.o.o.o.o.o.o.o.o.o.o.o.o.o.o.o.o.o.o.o.o.o.o. . . . .o.o.o.X.X.X.( ( L f a a j x ( f.OX2X8XiXaXaXpXpXpXpXpXSXiX5X=Xh.e.L m n ",
"=.t.l.-X,X0XDXDXsXsXsXsXsXsXiXtX3X+Xs.~ c s u a a f B L ^ 8.i.i.i.X.X.o.o.o.o.o.o.o.X.X.o.o.o.o.X.X.o.o.o.o.o.o.o.o.o.o.X.X.o.o.X.X.o.o.o.o.o.o.o.o.o.p.p.p.Q.Q.Q.Q.Q.Q.Q.Q.Q.Q.Q.Q.o.o.R.R.R.R.R.o.R.R.R.R.R.R.R.R.o.o.o.o.o.o.o.o.o.o. . . . . . .o.o.o.o.o.o.o.o.o.o.o.o.o.o.o.o.o.o.o.X.X.X.X.X.p.p.p.p.p.p.o.p.o.o.o.o.o.o.o.o.o.o.o.o.o.o.o.o.o.o.o.o.o.o.o.o.o.o.o.o.o.o.o.o.o.o.o.o.o.o.o.o.o.o.o.o.o.o.o.o.o.o.o.o.o.o.o.o.o.o.o.o.o.o.o.o.o.o.o.o.o.o.o.o.o.o.o.o.o.o.o.o.o.o.o.o.o.o.o.o.o.o. . .o.o.o.o.o.X.X.i.( ( L f a a j x ( f.OX2X8XaXaXFXSXSXpXpXpXSXiX5X=Xh.e.L m n ",
"=.t.c.-X9X0XDXDXsXsXsXsXsXsXiXtX3X+Xs.~ c s s a y f x L ^ 8.0.i.i.X.X.o.o.o.o.o.o.o.X.X.o.o.o.o.X.o.o.o.o.o.o.o.o.o.o.o.o.o.o.o.X.X.o.o.o.o.o.o.o.o.p.p.p.p.Q.Q.Q.Q.Q.Q.Q.Q.Q.Q.Q.Q.o.o.Q.Q.p.p.R.R.R.R.R.R.R.R.R.R.o.o.o.o.o.o.o.o.o.o. . . . . . .o.o.o.o.o.o.o.o.o.o.o.o.o.o.o.o.o.o.o.o.X.X.X.X.o.p.o.o.p.o.p.p.p.o.o.o.p.o.p.p.o.o.o.o.o.o.p.p.p.p.p.p.p.p.p.p.p.p.p.o.o.o.o.o.o.o.o.o.o.o.o.o.o.o.o.o.o.o.o.o.o.o.o.o.o.o.o.o.o.o.o.o.o.o.o.o.o.o.o.o.o.o.o.o.o.o.o.o.o.o.o.o.o.o.o.o.o.o.o.o.o.o. . .o.o.o.o.o.X.X.i.( / L f a a j x ( f.OX4X8XaXaXFXSXSXpXpXpXSXiX5X;Xh.e.P m n ",
"=.u.c.-X9XnXDXDXFXsXsXsXsXsXiXtX3X+X!.~ c s s a y f x L ^ 8.0.i.p.X.X.o.o.o.o.o.o.o.o.o.o.o.o.o.o.o.o.o.o.o.o.o.o.o.o.o.o.o.o.o.o.o.o.o.o.o.o.o.o.o.p.p.p.p.p.p.p.p.p.p.p.p.p.p.p.p.o.o.p.p.p.p.R.R.Q.Q.R.R.Q.Q.Q.Q.o.o.o.o.o.o.o.o.o.o.o.o.o.o.o.o.o.o.o.o.o.o.o.o.o.o.o.o.o.o.o.o.o.o.o.o.X.X.o.X.o.o.o.o.o.o.o.p.p.p.p.p.p.p.p.p.p.p.p.p.p.p.p.p.p.p.p.p.p.p.p.p.p.p.p.p.p.p.p.p.o.o.o.o.o.o.o.o.o.o.o.o.o.o.o.o.o.o.o.o.o.o.o.o.o.o.o.o.o.o.o.o.+.+.o.o.p.p.p.p.p.p.p.p.p.p.p.p.o.o.o.o.o.o.o.o.o.o. . .o.o.o.o.o.X.X.i.( ( L f a a j x ( s.OX4X8XiXaXaXpXpXpXpXpXSXiX5X;Xh.e.P m n ",
"=.t.c.-X9XnXDXDXFXsXsXsXsXsXiXtX3X+X!.~ c s s a y f x C / 8.0.X.X.X.o.o.o.o.o.o.o.o.o.o.o.o.o.o.o.o.o.o.o.o.o.o.o.o.o.o.o.o.o.o.o.o.o.o.o.o.o.o.o.o.p.p.p.p.p.o.p.p.p.p.p.p.p.p.p.p.o.o.p.o.p.p.p.p.Q.Q.R.R.Q.Q.Q.R.o.o.o.o.o.o.o.o.o.o.o.o.o.o.o.o.o.o.o.o.o.o.o.o.o.o.o.o.o.o.o.o.o.o.o.o.X.X.o.o.o.p.o.o.o.p.p.o.p.p.p.p.p.p.p.p.p.p.p.p.p.p.p.p.p.p.p.p.p.p.p.p.p.p.p.p.p.p.p.p.o.o.o.o.o.o.o.o.o.o.o.o.o.o.o.o.o.o.o.o.o.o.o.o.o.o.o.o.o.o.o.o.+.+.o.o.p.p.p.p.p.p.p.p.p.p.p.p.o.o.o.o.o.o.o.o.o.o. . .o.o.o.o.o.X.X.i.8.( L f a s s x ( s.@X2X8XiXaXaXpXpXpXpXpXSXiX5X;Xh.e.L m n ",
"=.t.c.<X9XnXDXDXFXsXsXsXsXsXaXiX3X%X!.~ c s s a a f B C / 8.0.X.X.X.o.o.o.o.o.o.o.o.o.o.o.o.o.o.o.o.o.o.o.o.o.o.o.o.o.o.o.o.o.o.o.o.o.o.o.o.o.o.o.o.o.o.o.o.p.o.p.p.Q.Q.Q.Q.Q.Q.p.p.p.p.o.o.p.p.p.p.p.p.o.o.R.R.R.R.o.o.o.o.o.o.o.o.o.o.o.o.o.o.o.o.o.o.o.o.o.o.o.o.o.o.o.o.o.o.o.o.o.o.o.o.o.o.p.o.o.o.o.o.p.p.p.p.p.p.p.p.p.p.p.p.p.p.p.p.p.p.p.p.p.p.p.p.p.p.p.p.p.p.p.p.p.p.o.o.o.o.o.o.o.o.o.o.o.o.o.o.o.o.o.o.o.o.o.o.o.o.o.o.o.o.o.o.o.o.o.+.s.+.p.p.p.p.s.p.p.p.p.p.o.o.o.o.o.o.o.o.o.o.o.o.o.o.o.o.o.o.o.o.o.X.X.i.8.( L f a s s x ~ s.@X2X8XaXaXFXFXpXpXpXSXSXaX0X;X^.e.T m n ",
";.u.c.<X9XnXDXDXFXsXsXsXsXsXaXiX3X%X!.~ v s s a a f B C / 8.0.X.X.X.o.o.o.o.o.o.o.o.o.o.o.o.o.o.o.o.o.o.o.o.o.o.o.o.o.o.o.o.o.o.o.o.o.o.o.o.o.o.o.o.o.o.o.o.o.o.p.p.p.p.p.p.p.p.p.p.o.o.o.o.o.p.p.p.p.p.o.o.R.R.R.R.o.o.o.o.o.o.o.o.o.o.o.o.o.o.o.o.o.o.o.o.o.o.o.o.o.o.o.o.o.o.o.o.o.o.o.o.o.o.p.o.o.o.o.o.o.o.p.p.p.p.o.p.o.p.p.p.p.p.p.p.p.p.p.p.p.p.p.p.p.p.p.p.p.p.p.p.p.o.o.o.o.o.o.o.o.o.o.o.o.o.o.o.o.o.o.o.o.o.o.o.o.o.o.o.o.o.o.o.o.o.o.o.o.o.o.o.p.p.p.p.p.p.p.p.o.o.o.o.o.o.o.o.o.o.o.o.o.o.o.o.o.o.o.o.o.i.i.i.8.8.L f a a s l ~ s.@X2X8XaXaXFXFXpXpXpXSXSXaX0X;X^.e.T m n ",
";.t.c.<XbXmXDXDXFXsXsXsXsXsXaXiX3X%X!.~ v s s a a s B C / 8.0.X.X.X.o.o. . . . . . . . . . . . . . . . . . . . . . . . . . . . . . .o.o.o.o.o.o.o.o.o.o.o.o.o.o.o.o.o.o.o.o.o.o.o.o.o.o.o.o.o.o.o.o.o.o.o.o.R.R.R.R.o.o.o.o.o.o.o.o.o.o.o.o.o.o.o.o. .o.o.o. . . . . . . .o.o.o.o.o.o.o.o.o.o.o.o.o.o.o.o.o.o.o.o.o.o.o.o.o.o.o.p.p.p.p.p.p.p.p.p.p.p.p.p.p.p.p.p.p.p.o.o.o.o.o.o.o.o.o.o.o.o.o.+.+.o.o.o.o.o.o.o.o.+.+.+.+.+.o.o.o.o.o.+.o.o.o.o.o.o.o.o.o.o.o.o.o.o.o.o.o.o.o.o.o.o.o.o.o.o.o.o.o.o.o.o.o.o.o.o.o.o.i.i.i.( 8.L f a a s l ~ s.@X2X8XiXaXsXsXpXpXpXSXSXaX0X;X^.e.T m n ",
";.u.c.<X9XnXDXDXsXsXsXsXsXsXaXiX3X%X!._ c s s a a s B L / 8.0.X.X.X.o.o. . . . . . . . . . . . . . . . . . . . . . . . . . . . . . .o.o.o.o.o.o.o.o.o.o.o.o.o.o.o.o.o.o.o.o.o.o.o.o.o.o.o.o.o.o.o.o.o.o.o.o.R.R.R.R.o.o.o.o. . . . .o.o.o.o.o.o.o.o. . . . . . . . . . . . . .o.o.o.o.o.o.o.o.o.o.o.o.o.o.o.o.o.o.o.o.o.o.o.o.o.o.o.o.o.o.o.o.o.o.o.o.o.o.o.o.o.o.o.o.o.o.o.o.o.o.o.o.o.o.o. . . . .o.o.o.o.o.o.o.o.o.o.+.o. . . . .o.o.o.o.o.o.o.o.o.o.o.o.o.o.o.o.o.o.o.o.o.o.o.o.o.o.o.o.o.o.o.o.o.o.o.o.o.o.o.o.o.i.i.i.( 7.U f a a s l ~ s.@X2X8XiXaXsXsXpXpXpXpXSXaX0X;X^.i.T m n ",
";.u.c.-X9XnXDXDXaXaXsXsXsXsXiXtX&X%XE.~ v u u y y f x L / 8.0.X.X.X.o.o. . . . . . . . . . . . . . . . . . . . . . . . . . . . . . . . . . .o.o.o.o.o.o.o.o.o.o.o.o. . . . . . . . .o.o.o.o.o.o.o.o.o.o.o.o.o.o.o.o.o.o.o.o. . . . .o.o.o.o.o.o.o.o. . . . . . . . . . . . . . . . . . . . . . .o.o.o. . . . .o.o.o.o.o.o.o.o.o.o.o.o.o.o.o.o.o.o.o.o.o.o.o.o.o.o.o.o.o.o.o.o.o.o.o.o. . . . . . . .o.o.o.o.o.o.o.o. . . . . . . . . . . . . . .o.o. . . . . .o.o.o.o.o.o.o.o.o.o.o.o.o.o.o.o.o.o.o.o.o.o.o.o.o.o.o.o.i.i.i.( 8.U f a a s l ~ s.@X2X8XiXaXsXsXpXpXpXpXSXiX5X;X^.i.T K n ",
"-.t.c.-X9X0XDXaXaXaXpXpXsXsXiXtX&X%XE.~ v s s y y f x L / 8.0.X.X.X.o.o. . . . . . . . . . . . . . . . . . . . . . .o.o.o.o.o.o.o.o.o. . . . . . . . . . . . . . . . . . . . . . . . . . . .o.o.o.o. . . . . . . . . . . . . . . . . . . . . . . . . . . . . . . . . . . . . . . . . . . . . . . . . . . . . . . . . . . . . . . . . . . . . . . . .o.o.o.o. . . . .o.o.o.o. . .o.o. . . . . . . . .o.o.o.o. . . . . . . . . . . . . . . . . . . . . . . . . . . . . . . . .o.o. . .o.o.o.o.o.o.o.o.o.o.o.o.o.o.o.o.o.i.i.i.( 8.U f a a s l ~ s.@X2X8XiXaXsXsXpXpXpXpXSXiX5X;X^.i.T K n ",
"-.t.c.-X9X0XDXaXaXaXpXpXsXsXiXtX&X+X!.~ v s s s a f x L / 8.0.X.X.X.o.o. . . . . . . . . . . . . . . . . . . . .o. .o.o.o.o.o.+.+.+.o. . . . . . . . . . . . . . . . . . . . . . . . . . . . . . . . . . . . . . . . . . . . . . . . . . . . . . . . . . . . . . . . . . . . . . . . . . . . . . . . . . . . . . . . . . . . . . . . . . . . . . . . . . . . . . . . . . . . . . . . . . . . . . . .o.o.o.o. . . . . . . . . . . . . . . . . . . . . . . . . . . . . . . . . . . . .o.o.o.o.o.o.o.o.o.o.o.o.o.o.o.o.o.i.i.i.( 8.U f a a s l ~ s.OX2X8XiXaXsXsXpXpXpXpXSXiX5X;X^.i.T m n ",
"-.t.c.-X9X0XmXaXaXaXpXpXsXsXiXtX3X%X(._ c k s u a s x L / 8.i.i.X.X.o.o. . . . . . . . . . . . . . . . . . . .o.o.o.+.+.E.E.+.+.+.+.+.+.o.o. . . . . . . . . . . . . . . . . . . . . . . . . . . . . . . . . . . . . . . . . . . . . . . . . .o.o. . . . . . . . . . . . . . . . . . . . . . . . . . . . . . . . . . . . . . . . . . . . . . . . . . . . . . . . . . . . . . . . . . . . . . . . . .o.o.o.o. . .o.o. . . . . . . . .o. . . . . . . . . . . . . . . . . . . . . . . .o.o.o.o.o.o.o.o.o.o.o.o.o.o.o.o.p.i.i.i.8.( L f a a s l ~ s.@X2X8XaXaXsXsXpXpXpXpXSXiX5X;X^.i.P H n ",
";.u.c.-X9XnXDXAXaXaXsXsXsXsXiXtX3X%X(._ A k u u a f B L / 8.i.i.X.X.o.o. . . . . . . . . . . . . . . . . . .o.o.+.+.+.+.E.E.E.E.E.E.E.E.E.+.+.+.+.+.........................................................T.T.T.T.Y.Y.Y.Y.Y.Y.Y.Y.R.R.R.R.R.R.R.T.T.T.T.T......... . . . . . ............................................................. . .....o.o.o.o.o.o.o.o.o.o.o.o.o.o.o.o.+.+.+.+.+.+.+.+.+.+.+.+.+.+.+.+.o. . . . . . . .+........... . . . . . ....... . . . . . . . . .o.o.o.o.o.o.o.o.o.o.o.o.o.o.o.o.p.p.i.i.e.( L f a a s l ~ s.@X2X8XaXaXsXsXpXpXpXSXSXiX5X;X^.i.P H n ",
";.u.c.-X9XnXDXDXaXaXsXsXsXsXiXtX3X%X(._ A k s u u s x L ^ 8.i.X.X.X.o.o. . . . . . . . . . . . . . . . . . .o.+.+.+.E.E.E.E.!.E.E.E.E.E.E.E.E.E.E.E.E.E.E.E.E.E.E.E.E.E.E.E.E.E.E.E.E.E.E.E.T.E.E.E.E.E.E.E.E.E.E.E.E.E.E.E.E.E.E.E.E.E.E.E.E.E.E.E.E.E.E.E.E.E.E.E.E.E.E.E.E.E.T.T.T.T.T.T.E.E.T.T.E.E.E.E.E.E.E.E.E.E.E.E.E.E.E.E.E.E.E.E.E.E.E.E.E.E.E.E.E.E.E.E.E.E.E.E.E.E.E.E.E.E.E.E.E.E.E.E.E.E.E.E.E.E.E.E.E.E.E.E.E.E.E.E.E.E.E.E.E.E.E.E.E.E.E.E.E.E.E.+... ..... . . . .o.o.o.o.o.o.o.o.o.o.o.o.o.o.o.o.p.p.i.i.e.( U f a s s l ~ s.@X2X8XaXaXsXsXpXpXpXSXSXiX5X;X^.i.T m n ",
";.u.c.-X9XnXDXDXaXaXsXsXsXsXiXtX3X%X!.` A k s s s s x L / 8.0.X.p.o.o.o.o.o.o.o.o.o. . . . . . . . . . .o.o.+.+.+.+.E.E.E.E.E.E..X.X.X.X'.'.'.'.'.'.'.E.E.E.E.E.E.E.E.E.E.E.E.E.E.E.'.'.'.'.'.'.'.E.E.E.'.'.E.E.E.E.W.W.W.W.W.W.W.W.W.W.W.W.E.E.W.W.W.].E.E.E.E.'.'.'.'..X.X'.'.'.'.'.'.'.'.'.'.'.'.'.'.'.'.'.'.'.'.'.].].].W.W.'.E.].].].].W.W.].].W.W.W.W.W.W.W.W.E.E.E.E.W.W.E.E.'.'.'.'.'..X'.'.'.'.'.'.'.'.'.'.E.E.E.'.E.'.E.E..X.X'.'.'.'.E.E.'.'.E.E.E.E.E.E.E.+.....o.o. . .o.o.o.o.o.o.o.o.o.o.o.o.o.o.o.o.p.p.i.i.e.( U f a s s l ~ s.@X2X8XaXaXsXsXpXpXpXpXSXiX5X;X^.i.T m b ",
";.u.c.-X9XnXDXDXaXaXsXsXsXsXiXiX3X%X(.' A k s s f f B L / 8.0.X.p.o.o.o.o.o.o.o.o.o. . . . . . . . . . .+.+.+.+.+.+.E.E.E.E.'.'.XXXX].]..X.X].].'.'.'.'.'.'.'.'.'.'.'.'.'.'.'.'.'.'.].].].].].].].].].].].].].].].].].].].].].W.].].].].].].]..X.X].].].].]..X.X.X.XXXXXXXXXXXXXXXXXXXXXXXXXXXXX].].].].].].].].].].].]..X.X.XXX].].].].].].].].].].].].].].].].].].].]..X].].].].].XXXXXXXXXXXXXXXXXXXXXXXXXXXX].]..X.X.X.X.X.X.X.XXXXXXXXXXXXX.X.X'.'.'.'.E.E.E.E.E.......o.o.o.o.o.o.o.o.o.o.o.o.o.o.o.o.o.o.o.o.p.p.i.i.e.( L f a a s x ~ s.@X2X8XiXaXsXsXpXpXpXSXSXiX5X;X^.i.T m b ",
";.u.c.-X9XnXDXDXaXaXsXsXsXsXiXiX3X%X(.` A k k s f f B L / 8.0.i.p.o.o.o.o.o.o.o.o.o.o.o.o.o.o.o. . .o.o.........+...T.T.E.'.XXXXXXXXXXXXXXXXXXXXXXXXXX].XX].].XXXXXXXXXXXXXXXXXXXX].].].].].].].].].].].].].].].].].].].].].].XXXXXXXXXXXXXXXXXXXXXXXXXXXXXXXXXXXXXXoXoXoXoXoXoXoXoXXXXXXXXXXXXXXXXX].].XXXXXXXXXXXXXXXXXXXXXX#XXXXX#XXX#X#X#X#X#XXXXXXX].].XXXXXXXXXXXXXXXXXXXXXXXXXXXXXXXXoXoXoXoXoXoXoXoXoXoXoXoXXXXXXXXXXXXXXXXXXXXXXXXXXXXXXXXXXXXX'.'.'.E.E.E.E...+.+.R.R.R.R.o.o.o.o.R.R.R.R.o.R.o.o.R.o.o.o.o.o.i.X.e.( L f a a s x ( s.@X2X8XaXaXsXsXpXpXpXSXSXiX5X1X^.i.^ m b ",
";.u.c.-X9XnXDXDXaXaXsXsXsXsXaXiX3X%X(.' A k k s f f B L / 8.0.i.p.p.o.o.o.o.o.o.o.o.o.o.o.o.o.o. . .o.o. . .........T.T.E.'.XXXXXXXXXXXXXXXXXXXXXXXXoXoXoXoXoXoXoXoX[.oXoXoXoXoXoXoX].].].].[.[.[.[.[.[.[.[.].].].].].].[.[.|.|.|.].|.].].|.XXXXXXXXXXXXXXXXoXoXoXoXoXoXoXoXoXoXoXoXoXoXoXoXoXoXoXoXXX].XXXXXXXXXXXXXXXX#X#X#X#X#X#X#X#X#X#X#X#X#X#XXXXXXXXXXXXX].].].].|.|.].].$XoXoXoX$X$XoXoXoXoXoXoXoXoXoXoXoXoXoXoXoXXXXXXXXXXXXXXXXXXXoXXXXXXXoXXXXX'..XE.E.E.E...+.+.R.R.R.R.o.o.o.o.R.R.R.R.o.R.o.R.R.o.o.o.o.o.i.X.{ ( L f a a j x ( s.@X2X8XaXaXsXpXpXpXpXSXSXiX5X1X^.i.P m g ",
";.u.v.-X9XnXDXDXaXaXsXsXsXsXaXiX3X%X(.' A k s s f f B U / 8.i.i.p.p.o.o.o.o.o.o.o.o.o.o.o.o.o.o. . .o.o. ...........T.T.'.].XXXXXXXXXXXXXXXXXX].].].oX[.[.[.[.[.[.[.[.[.[.[.[.[.[.[.[.[.[.[.[.[.[.[.[.[.[.[.].].].].].].[.[.|.|.].|.|.|.].].XXXXXXXXXXXXXXXXoXoXoXoXoXoXoXoXoXoXoXoXoXoXoXoXoXoXoXoXoX].XXXXXXXXXXXXXXXX#X#X#X#X#X#X#X#X#X#X#X#X|.|.].].].].].].].].].].].].].].[.[.[.[.|.|.[.[.[.[.[.[.oXoXoXoXoXoXoXoXoXXXXXXXXXXXoXoXoXoXoXoXoXoXoXoXoXXX.XE.E.E.E.E.E.E.E.R.R.R.o.o.o.o.R.R.R.R.o.o.o.o.R.o.o.o.o.o.i.X.{ ( L f a a j x ( s.@X2X8XaXaXsXpXpXpXpXSXSXiX5X1X^.i.^ m b ",
"-.t.k.-X4X0XDXaXaXaXsXsXsXsXiXiX3X%X(.` A k s s f f B U / 8.i.i.p.p.o.o.o.o.o.o.o.o.o.o.o.o.o.o. . .+.+. ...........T.E.'.'.].].].].XXXXXXXX].].].].[.[.[.[.[.[.[.[.[.[.[.[.[.[.[.[.].].[.[.[.[.[.[.[.[.[.[.].].].].].].].].].].].|.|.|.].].].XXXXXX#X#XXXXXoXoXoXoXoXoXoXoXoXoXoXoXoXoXoXoXoXoXoXoXXXXXXX].XXXXXXXXXX#X#X#X#X#X#X#X#X#X#X#X#X#X#X#X#X#X#X#X#X|.|.|.|.].].].].].[.[.[.|.|.|.[.[.[.[.[.[.oXoXoXoXoXoXoXoXXXXXXXXXXXXXoXoXoXoXoXoXoXoXXXXXoXXXXX.X'.E.E.E.E.E.E.R.R.R. . . .o.o.o.o.o.o.R.R.R.o.o.o.o.o.p.i.i.{ 8.U f a a j l ( f.OX2X8XaXaXsXpXpXpXpXpXSXiX5X;X^.i.T m b ",
"=.t.l.:X4XqXDXaXaXaXsXsXsXsXiXiX3X1X^.` A k s s f f B L / 8.i.i.p.o.o.o.o.o.o.o.o.o.o.o.o.o.o.o.....+.+.....+.E.E.E.E.E.'.'.'.'.].].XXXXXXXX].].].].[.].oXoX[.[.[.[.[.[.[.[.[.[.[.[.[.[.[.[.[.[.[.[.[.[.[.[.].].XX].].].].].].].].|.|.|.].].].].].].[.].].].XXXXXXXXoXoXoXoXoXoXoXoXXXXXXXXXXXXXXXoXXXXXXXXXXXXXXXXXXXXX#X#X#X#X#X#X#X#X#X#X#X#X#X#X#XXX].oXoXoX$X].].].].].].].].[.[.[.|.|.[.oX[.[.oX[.[.[.[.[.[.oX].].XXXXXXXXXXXXXXXXXXXXXXXXXXXXXXXXXXXX.X.X'.E.E.E.E.E.+.+.o.o. . . .o.o.o.o.o.o.o.o.o.o.o.o.o.o.p.i.i.{ 8.U f a a j l ( f.OX2X8XaXaXsXpXpXpXpXpXSXiX5X;X^.i.T m n ",
"=.t.l.:X4X0XDXaXaXaXsXsXsXsXiXiX3X=X^.` A k s s d f B L / 8.i.p.p.p.o.o.o.o.o.o.o.o.o.o.o.o.o.o.o.o.+.+.E.E.E.E.E.E.E.E.'.'.'.'.'.'.].].].].].].XX].].].XX].].].].].].].].].].].].].].].].].].].].].].].].].].].].].].].].].].].].].].].].].].].].].].].].].].XXXXXXXXXXXXXXXXXXXXXXXXXXXXXXXXXXXXXXXXXXXXXXXXXXXXXXXXXX#X#X#X#X#X#X#X#X#XXXXXXXXXXX].].].].].].].].].].].].].].].].].].].XXXXXX[.].].].].].].].].].].XX].].].].].XXXXXXXXXXXXXXXXXXXXXX.X.X.X.X'.E.E.E.E.E.+.+. . . . . . .o.o.o.o.o.o.o.o.o.o.o.o.o.p.i.X.{ ( U f a s j l ( f.OX4X8XaXsXsXpXpXpXpXpXSXiX5X;X^.i.T m n ",
"=.t.l.:X4X0XDXaXaXaXsXuXsXsXiXiX3X=X^.` c s s s d f B L / 8.i.p.p.p.o.o.o.o.o.o.o.o.o.o.o.o.o.o.+.+.E.E.E.E.E.E.E.E.'.'.'.'.'.'.'.'.'.'.'.'.'.'.'.'.'.'.].].].].].].].].].].].].].].'.'.'.'.'.'.'.'.'.'.'.'.].].].].].].].].].].].].].].].].].].].].].].].].'..X.X.X.X.X.X.X.X.X.X.X.X.X.X.X.X.X.X.X.X.X'.'.].]..X.X~.~.~.~.W.W.W.W.~.~.W.].W.].].].].'.'.'.].].].].].].].].].].].].].].].].'.'.'.'.'.'.'.'.'.'.'.'.'.'.'.'.'.'.'.'.'.'.'.'..X.X.X.X'.'.'.'..X.X.X'.'.'.'.'.E.E... . . . . .o.o.o.o.o.o.o.o.R.R.o.o.o.p.i.X.{ ( U f a s j l ( f.OX4X8XaXsXsXpXpXpXpXpXSXiX5X;X^.i.T m n ",
"=.t.h.>X4X0XAXaXaXaXsXuXsXsXiXiX3X=X^.` c k s s f f B L / 8.i.p.p.p.o.o.o.o.o.o.o.o.o.o.o.o.o.o.+.+.E.E.'.'..X.X'.'.'.'.'.'.'.'.'.E.E.E.E.E.E.E.E.E.E.E.E.'.'.'.'.E.E.E.'.'.'.'.'.'.E.'.E.E.E.E.'.'.'.'.E.E.E.E.E.W.E.E.E.E.W.W.W.W.W.W.W.W.E.E.W.W.E.E.E.E.E.!.!.!..X.X.X.X.X.X.X.X.X.X!.!.!.!.!.!.!.!.E.E.E.E.E.E.W.W.E.E.E.E.E.E.E.E.E.E.E.E.E.E.T.T.T.T.E.E.E.E.E.E.W.W.W.E.E.E.E.E.E.E.E.E.E.E.E.E.E.E.E.E.E.E.E.E.'.'.'.E.E.E.'..X'.'.'.'.E.E.E.E.E.E.!.'.'.'.'.'.'.'.E.E..... . . . .o.o.o.o.o.o.o.o.o.o.o.o.o.p.i.X.{ ( U f a a s x ( f.OX4X8XaXsXsXpXpXpXpXpXSXiX5X;X^.e.T m n ",
"=.t.h.>X4X0XAXaXaXaXsXuXsXsXaXiX3X=X^.` A k s s f f B L / 8.i.p.p.p.o.o.o.o.o.o.o.o.o.o.o.o.o.o.+.+.E.E..X.X.X.X.X.X'.'.'.'.E.E.E.E.E.+.+.+.+.+.+.E.E.E.E.E.E.E.E.E.E.+.E.E.E.E.....E.E.+.+.+.+.E.+.+...+.T.E.E.E.E.E.E.E.E.E.E.E.E.E.E.E.E.E.E.E.E.E.E.E.E.E.E.E.E.!.!.!.!.!.!.E.E.E.E.E.E.E.E.E.E.E.E.E.E.E.E.E.E.E.E.E.E.E.E.T.T.T.T.E.T.T.T.T.T.T.T.T.T.T.T.T.T.T.T.T.T.E.E.E.E.E.E.E.E.T.T.E.E.E.E.E.E.E.E.E.E.E.E.E.E.E.E.E.E.E.E.E.E.E.E.E.E.E.E.E.E.E.'.].'.'.'.'.'.E.E.+.+. . . . .o.o.o.o.o.o.o.o.o.o.o.o.o.p.i.X.{ ( U f a s s x ( f.OX4X8XaXsXsXpXpXpXpXpXSXaX0X;X^.e.^ m n ",
"=.t.h.>X4X0XAXaXaXaXsXuXsXsXaXiX3X=X(.` A k s s f f B L / 8.i.p.p.p.o.o.o.o.o.o.o.o.o.o.o.o.o.o.+.+.E.E..X.X.X.XXX.X'.'.'.'.E.E.E.+.+. . . . . .o.o.+.+.+.+.+.+.+.+.+.+...............+.o.o.o. . . . . . . .o.o.o.o.o.o.o.o.R.R.R.R.R.R.R.R.R.R.R.R.o.o.o.o.o.o.o.o.+.+.+.+.+.+.+.+.o.o.o.o.o.o.o.o.o.o.o.o.o.o.o.o.o. . . . . .....................T.T.T.T.T.T.T.T.T.T.............T.T.T.T.....+.+.+.+.+.+.+.+.+.+.+.+.+.+.+.+.+.+.+.+.+.+.+.+.+.+.+.+.o...E.'.].'.'.'.].'.E.E.+.+. . . . .o.o.o.o.o.o.o.o.o.o.o.o.o.p.i.X.{ 8.U f a a s x ( f.OX2X8XaXsXsXpXpXpXpXSXSXaX0X;X^.e.^ m n ",
"=.t.h.>X4X0XAXaXaXaXsXuXsXsXaXiX3X=X(.` A k s s f f B L / 8.i.p.p.p.o.o.o.o.o.o.o.o.o.o.o.o.o.o.+.+.E.!..X.X.X.XXXXX'.'.'.E.E.+.+.o.o. .o.o.o.o.o.o.o.o.o.o.o.o.o.o.+.+.+.+.+.+.+.+. .o.o.o.o.o.o.o.o.o.o. .o.o.o.o.o.o.o.o.R.R.R.R.R.R.R.R.o.o.o.o.o.o.o.o.o.o.o.o.o.o.o.o.o.o.o.o.o.o.o.o.o.o.o.o.o.o.o.o.o.o.o.o. . .o.o. . ................................................. . . . .o.o.....+.+.o.o.o.o.o.o.o.o.o.o.o.o.o.o.o.o.o.o.o.+.+.+.o.o.o.o. . .E.'.XX].].].XXXX.XE.E.+.o. . . .o.o.o.o.o.o.o.o.o.o.o.o.o.o.i.X.{ ( U h a a j x ( f.OX4X8XaXsXsXpXpXpXpXpXSXaX0X;X^.e.T m n ",
"=.t.h.>X4X0XAXaXaXaXsXuXsXsXaXiX3X1X(.` S k s s f f B L / 8.i.p.p.p.o.o.o.o.o.o.o.o.o.o.o.o.o.o.+.+.E.!..X.X.X.XXXXX'.'.'.E.E.+.+.o. . .o.o.o.o.o.o. . . . . . .o.+.+.+.+.+.+.+.+.+.o.o.o.o.o.o.o.o.o. . .o.o.o.o.o.o.o.o.o.R.R.R.R.R.R.R.R.o.o.o.o.o.o.o.o.o.o.o.o.o.o.o.o.o.o.o.o.o.o.o.o.o.o.o.o.o.o.o.o.o.o.o.o. . . . . . ................................. . . . ............. . . . .......+.o.o.o.o.o.o.o.o.o.o.o.o.o.o.o.o.+.+.+.o.+.+. . .o.o. . .+.'.].].].].XXXXXXE.E.+.o. . . .o.o.o.o.o.o.o.o.o.o.o.o.o.o.i.X.{ ( U h a a s x ( f.OX4X8XaXsXsXpXpXpXpXpXSXaX0X;X^.e.T m n ",
"Y t.h.>X4X0XFXaXsXsXsXuXsXsXaXiX3X1X(.` S k s s f f B L / 8.i.p.p.p.o.o.o.o.o.o.o.o.o.o.o.o.o.o.+.+.E.!..X.XXXXXXX.X.X'.E.E.E.+.+.o.o. . . .o.o.o.o. . . . . . . . . . .+.+.+.+.+.+.+.+.+.+.+.+.+.+.+.+.+.+.+.+.+.+.E.E.E.E.E.E.E.E.R.R. .o.o.o.o.o.o.o.o.o.o.o.o.o.o.o.o.o.o.o.o.o.o.o.o.o.p.o.o.o.o.o.o.o.o.o.o.o. . . .o. . .............................T.T....................................... .o.o.o.o.o.o.o.o.o.o.o.o.o.p.p.+.o.o.+.+.o.o.o.o. .+.+.'.].].XXXXXXXXXX'.E.+.o. . . .o.o. . .o.o.o.o.o.o.o.o.o.o.i.X.{ ( U h a s f x ( f.OX4X8XaXsXsXpXpXpXpXpXSXaX0X;X^.i.T m n ",
"Y t.k.>X4XnXDXaXsXsXsXuXsXsXaXiX3X1X^.` A k u u f f B L / 8.i.p.p.p.o.o.o.o.o.o.o.o.o.o.o.o.o.o.+.+.E.!..X.XXXXXXX.X.X'.E.E.+.+.+.o.o. . . .o.o.o.o.o.o.o.o.o.o. . .+.+.+.+.E.E.E.E.E.E.E.E.E.E.E.E.E.E.E.E.E.E.E.E.E.E.E.E.E.E.E.E.E.T.T.T.o.o.o.o.o.o.o.o.o.o.o.o.o.o.o.o.o.o.o.o.o.o.o.o.p.p.o.o.o.o.o.o.o.o.o.o. . .o.o. . .....T.T.T.T.T.T.T.T.T.T.T.T.T.T.T.T.T.T.T.T.T.T.T.T.T.T.T.T.................o.o.o.o.o.o.o.o.o.o.p.p.p.p.p.p.o.+.o.o.o.o. .+.E.'.].].XXXXXXXXXXE.E.E.o.o. . .o.o. . .o.o.o.o.o.o.o.o.o.o.i.i.{ / L h s s f c ( f.OX4X8XaXsXsXpXpXpXpXpXSXaX0X;X^.i.P m n ",
"Y t.k.>X4XnXDXaXsXsXsXuXsXsXaXiX3X1X^.` A k u u f f B L / 8.i.p.p.p.o.o.o.o.o.o.o.o.o.o.o.o.o.o.+.+.E..X.X.XXXXXXXXX.X.XE.E.+. .o. . . . . .o.o.o.o.o.o.o.o.o.o.o. .+.+.E.E.E.E.E.E.E.E.E.E.E.'.'.'.'.'.'.'.'.'.'.'.E.E.E.E.E.!.!.E.E.E.E.E.T. . .o.o.o.o.o.o.o.o.o.o.o.o.o.o.o.o.o.o.o.o.o.p.p.o.o.o.o.o.o.o.o.o. . . .E.E.E.Y.T.T.T.E.'.'.'.'.'.'.'.'.'.'.E.E.'.'.'.'.'.'.'.'.'.'.'.'.'.T.T.T.T...........o.o.o.o.o.o.o.o.o.p.p.p.p.p.p.p.o.+.o.o.o.o. .+.E.'.].].].].XXXXXXE.E.+.R.R. . .o.o. . .o.o.o.o.o.o.o.o.o.o.i.i.{ / L x s s f c ( f.OX4X8XaXsXsXpXpXpXpXpXSXaX0X;X^.e.P m n ",
"Y t.h.>X4XqXDXaXsXsXsXuXsXsXaXiX5X1X(.` A k s u s f B L / 8.i.p.p.p.p.o.o.o.o.o.o.o.o.o.o.o.o.o.+.+.E..X.X.XXXXXXXXX.X.XE.E.+. .o. . . . . .o.o.o.o.o.o.o.o.o.o.o.o.+.+.E.E.E.E.'.'.'.'.'.].'.'.'.'.'.'.'.'.'.'.'.'.].].].].]..X.X].].E.E.E.E.T. .o.o.o.o.o.o.o.o.o.o.o.o.o.o.o.o.o.o.o.o.o.p.p.o.o.o.o. . . . .o.o. .o.E.E.E.Y.T.E.'.'.].].].].].].].].].].].].].].].].].].].].].].'.'.'.'.T.T.T.........o.o.o.o.o.o.o.o.o.p.p.p.p.p.p.p.o.o.+.o.o.o. . ...E.'.].].].].XXXX.XE.E.+.E.E.o. .o.o. . .o.o.o.o.o.o.o.o.o.p.i.i.{ ( L h a a s x ( f.OX4X8XaXsXsXpXpXpXpXpXSXaX0X;X^.i.T m n ",
"Y t.h.>X4XqXDXaXsXsXsXuXsXpXpXiX5X1X(.` A k k s s f B L / 8.0.p.p.p.p.o.o.o.o.o.o.o.o.o.o.o.o.o.o.+.E..X'..XXXXXXXXX.X'.E.E.+. .o. . . . . .o.o.o.o.o.o.o.o.o.o.+.+.+.+.E.E.'.'.'.'.].].XXXXXX].[.[.].].].].].].].].].XXXXXXXXXXXXXX].].].E.E.T. . . . .o.o.o.o.o.o.o.o.o.o.o.o.o.o.o.o.o.o.o.p.o.o.o.o. . . . .T.T.T.T.E.E.E.T.E.].].XXXX].].].oXoXoXXX].].[.[.].].XXXXoXoXXX].].].].].'.'.'.T.T.........o.o.o.o.o.o.o.o.p.p.p.p.p.p.p.s.o.o.o.+.+.o. . ...E.'.'.].oX].XXXX.XE.E.+.R.R.o.o.o.o. . .o.o. . .o.o.o.o.o.p.i.i.{ / L h a a s x ( f.OX2X8XaXsXsXpXpXpXpXSXSXiX5X;X^.i.^ m n ",
"Y t.h.>X4XqXDXaXsXsXsXuXsXpXpXiX5X1X(.` A k k u s z B L / 8.0.p.p.p.o.o.o.o.o.o.o.o.o.o.o.o.o.o.o.+.E..X'..XXXXXXXXX.X'.E.E.+.o.+. . . . . .o.o.o.o.o.o.o.o.o.o.+.+.+.+.E.'.].XXXXXXXXoXoXoXoXoXoXoX[.[.[.[.[.[.[.[.|.$X$XoXoXXXXXXXXXXX].W.E.T. . . . . . .o.o.o.o.o.o.o.o.o.o.o.o.o.o.o.o.o.o.o.o.o.o.o.o. . .T.T.T.T.T.T.T.E.].].XX].$X$X$X$X$X$X|.|.|.|.|.|.[.[.[.oXoXoX[.[.[.[.oX].].].'.E.T......... .o.o.o.o.o.o.p.p.p.p.p.p.p.p.p.+.+.o.+.+.o. . ...E.E.'.[.oX].XXXX.X!.E.+.R.R.o.o.o.o. . .o.o. . .o.o.o.o.o.o.i.X.{ / L h a y s x ( f.OX4X8XaXsXsXpXpXpXpXpXSXiX5X=X^.i.T m n ",
"Y t.g.>X4X0XDXaXsXsXsXuXsXpXpXiX5X1X(.` S k k u s z B L / 8.0.p.p.p.o.o.o.o.o.o.o.o.o.o.o.o.o.o.+.+.E..X'..XXXXXXXXX.X'.E.E.+.o... . . . . .o.o.o.o.o.o.o.o.o.o.+.....T.E.'.XXoXoXoXoXoXoXoXoX[.[.[.[.[.[.[.[.[.[.[.|.$X$X|.$X$X$X$XXXXX].].T.T. . . . . . .o.o.o.o.o.o.o.o.o.o.o.o.o.o.o.o.o.o.o.o.o.o.o.o. . .T.T.T.T.T.T.E.].].].].[.$X$X$X$X$X X|.|.|.|. X X[.[.[.[.[.[.[.[.[.[.[.[.oXXX'.E.T......... .o.o.o.o.o.o.p.p.p.p.p.p.p.p.p.+.+.+.+.+.o. . ...E.'.'.[.[.].XXXX.X!.E.+.E.R.o. .o.o. . .o.o. . .o.o.o.o.o.o.i.X.{ / L h a y s x ( f.OX4X8XaXsXsXpXpXpXpXpXSXiX5X1X^.i.T m n ",
"Y t.g.>X4X0XDXaXsXsXsXuXsXsXpXiX5X1X(.` A k Z u s z B L / 8.0.p.X.X.o.o.o.o.o.o.o.o.o.o.o.o.o.o.+.+.E..X'..XXXXXXXXX.X'.E.E.+.o.o. . . . . .o.o.o.o.o.o.o.o. .o. . .....E.].oXoXoXoXoXoXoXoX[.[.[.[.[.[.[.[.[.[.[.[. X X X|. X|.|.|.oX].XX].T.T. . . . . . .o.o.o.o.o.o.o.o.o.o.o.o.o.o.o.o.o.o.o.o.o.o. . . . . . .T.T.T.E.E.].].].[.[. X X X X X X X X X X X X[.[.[.[.[.[.[.[.[.[.oX[.[.[.].'.T.T....... .o.o.o.o.o.o.p.p.p.p.p.p.p.p.p.p.+.+.+.+.o. . ...E.'.'.[.[.].XXXX.XE.E.+.E.R.o. .o.o. . .o.o. . .o.o.o.o.o.o.i.X.( / L h a y s x ( s.OX4X8XaXaXsXpXpXpXpXpXSXiX5X1X^.i.T m n ",
"Y t.h.>X4X0XDXaXaXaXsXuXsXsXpXiX5X1X(.` A Z Z u s z B L / 8.i.p.X.X.o.o.o.o.o.o.o.o.o.o.o.o.+.+.+.+.E.E..X.XXXXXXXXX.X'.E.E.+.o.o. . . . . . . .o.+.o.o.+.+. . . .......E.'.XX[.[.[.oX[.[.[.[.[.[.[.[.[.[.[.[.[.[.[. X X X X X X|.|.[.].].].E.T... . . . . . . .o.o.o.o.o.o.o.o.o.o.o.o.o.o.o.o.o.o. . . . . .......Y.T.E.].].].].].[.|. X X X X X X X X[.[.[.[.[.[.[.[.[.[.[.[.[.[.[.[.[.oX[.].{.T....... .o.o.o.o.o.o.o.o.p.p.p.p.p.p.p.p.o.o.o.o.o. . ...E.'.].].[.].XXXX.XE.E.+.E.R.o.o. . . . .o.o.o.o.o.o.o.o.o.o.i.X.{ / L h a a j x ( s.OX4X8XaXaXsXpXpXpXpXpXSXiX5X1X^.i.T m b ",
"=.t.h.:X4XqXDXaXaXaXsXuXsXsXpXiX5X1X(.` A k Z u s f B L / 8.0.i.X.o.o.o.o.o.o.o.o.o.o.o.o.o.+.+.+.+.E.E..X.XXXXXXXXX.X.XE.E.+.o.o. . . . . . . .+.+.....+.+.+.........T.'.].[.[.[.[.[.[.[.[.[.[.[.[.[.[.[.[.[.[.[.[. X X X X X X|.|.[.].].].E.T.T.T.T.T. . . .o.o.o.o.o.o.o.o.o.o.o.o.o.o.o.o.o.o.o. . . . .........T.T.].].].].[.|.[.[. X X X X X X X X[.[.[.[.[.[.[.[.[.[.[.[.[.[.[.[.[.[.[.].{.{.T....... .o.o.o.o.o.o.o.o.p.p.p.p.p.p.o.o.o.o.o.o. . . .T.'.].].[.].oXXX.XE.E.+.E.R.o.o. . . . .o.o.o.o.o.o.o.o.o.o.i.X.( ^ L h a a s x ( s.OX2X8XaXaXsXsXpXpXpXSXSXiX5X1X^.i.T m b ",
"Y t.h.:X4X0XDXaXaXaXsXuXsXsXpXiX5X1X(.` A k Z u s z B L / 8.0.i.X.o.o.o.o.o.o.o.o.o.o.o.o.o.+.+.+.+.E.!..X.XXXXXXXXX.X.XE.E.+.o.o. . . . . . . .........+.+.E.E.E.T.E.'.].].[.[.[.[.[.[.[.[.[.[.[.[.[.[.[.[.[.[.[.[. X X X X X X X|.|.[.].].'.E.T.E.E.E.E.T.T.o.o.o.o.o. . .o.o.o.o.o.o. . . . . . . . . . . .T.T.T.T.].].].].].|. X X X X X[.[. X X X X X X X X X X[.[.[.[.[.[.[.[.[.[.[.[.oX[.].{.T....... .o.o.o.o.o.o.o.o.o.p.p.p.p.p.o.o.o.o.o. . . . .T.'.].].[.].oXXX.XE.E.+.E.R.o. . . . . .o.o.o.o.o.o.o.o.o.o.i.X.( ^ L h a a j c ~ s.@X2X8XaXaXsXsXpXpXpXpXSXiX5X;X^.e.T m g ",
"=.t.h.:X4X0XDXaXaXsXsXuXpXpXpXeX5X1X/.` S k k u s z B L / 8.0.i.X.o.o.o.o.o.o.o.o.o.o.o.o.o.+.+.+.+.E.!..X.XXXXXXXXX.X.XE.E.+.o.o. . . . . . . . . .o...+.E.E.E.'.'.'.'.].[.[.[.[.[.[.[.[.[.[.[.[.[.[.[.[.[.[.[.[.[. X X X X X X X|.|.[.].].].].E.E.E.E.E.E.E.Y. .o.o. .o.o.o.o. . . . . . . . . . . . . . .T.T.T.E.E.].].].].].|. X X X X X[.[. X X[. X X X X X X X[.[.[.[.[.[.[.[.[.[.[.[.oX[.[.].T......... .o.o.o.o.o.o.o.o.p.p.p.o.o.o.o.o.o.o. . . ...T.'.].].[.oXoXoXXXE.E.+.E.R.o. . . . . .o.o.o.o.o.o.o.o.o.o.i.X.( ^ L h a a j c ~ s.@X2X8XaXaXsXsXpXpXpXpXSXiX5X;X^.i.P H g ",
"=.t.h.:X4XnXDXaXaXsXsXuXpXpXpXeX5X1X/.` S k s s s f B L / 8.i.i.X.o.o.o.o.o.o.o.o.o.o.o.o.o.o.+.+.E.E.!..X.XXXXXXXXX.X'.E.E.+.o.o. . . . . . . .o.o. . .+.E.].].].'.].].[.[.[.[.[.[.[.[.[.[.[.[.[.[.[.[.[.[.[.[.[.[. X X X X X X X|.|.[.[.].].].].].].E.E.T.E.T.E.o. . . . .o.o. . . . . .o.o.o.o.o. . . .T.T.E.E.].].].].].].[.|.|.|.|. X X[.[. X X[. X X X X X X X[.[.[.[. X|.|.|.[.[.[.[.oX[.[.].'.T.T....... .o. .o.o.o.o.o.o.o.o.o.o.o.o.o.o.o. . . ...T.'.].].oXXXoXoX.XE.E.+.E.R.o.o. . . . .o.o.o.o.o.o.o.o.o.o.i.X.( ^ L h s s j c ~ s.@X2X8XaXaXsXsXpXpXpXpXSXiX5X;X^.i.T m g ",
"=.t.k.:X4XnXDXaXaXpXsXuXpXpXpXeXrX1X/.` S k s s s f B L / 8.i.i.X.o.o.o.o.o.o.o.o.o.o.o.o.o.o.o.+.E.E.!..X.XXXXXXXXX'.'.E.E.+.o.o. . . . . . . .o.o.o.o.E.!..XXXXXXX].oXoX[.[.[.[.[.[.[.[.[.[.[.[.[.[.[.[.[.[.[.[.[. X X X X X X X|.|.[.[.].[.].].].].E.E.T.T.T.R. . . . . .o.o. . . . .o.o.o.o.o.o.o.o.T.E.E.E.].].].].[.[.[.|. X X X|.[.[.[.[. X X X X X X X X X X[.[.[.[. X|.|.|.[.[.[.[.[.[.[.[.[.'.E.T..... . . . . . .o.o.o.o.o.o.o.o.o.o.o.o. . . ...T.'.].].XXXXXXXX.XE.E.+.R.R.o.o. . . . .o.o.o.o.o.o.o.o.o.o.i.X.( ^ L h a s j c ~ s.@X2X8XaXaXsXsXpXpXpXSXSXiX5X;X^.i.P m b ",
"=.t.k.:X4XnXDXaXaXpXsXuXpXpXpXeXrX1X/.` S k s u s f B L / 8.i.i.X.o.o.o.o.o.o.o.o.o.o.o.o.o.o.o.+.E.E.!..XXXXXXXXXXX'.'.E.E.+. .o. . . . . . . .o.o.o.o.E..XXXXXXXoXoXoXoXoX[.[.[.[.[.[.[.[.[.[.[.[.[.[.[.[.[.[.[.[. X X X X X X X|.|.|.|.|.|.[.].].].].E.E.E.T.o. . . . . . . . . .o.o.o.o.o.o.o.o.R.E.E.E.E.].].].].].[.[.|.$X X X|.|.[.[.[.[. X X X X X X X X X X[.[.[.[. X X X|.[.[.[.[.[.[.[.[.[.].'.E.E... . . . . . .o.o.o.o.o.o.o.o.o.o.o.o. . . ...T.'.].].XXXXXXXX.XE.E.+.R.o.o. . . . . .o.o.o.o.o.o.o.o.o.o.i.X.( ^ L h a s j c ~ s.OX2X8XaXaXsXsXpXpXpXSXSXiX5X;X^.i.T m b ",
"=.t.k.-X4X0XDXaXaXpXsXuXpXpXpXeX5X1X^.` S k s s f f B L / 8.0.p.X.o.o.o.o.o.o.o.o.o.o.o.o.o.o.o.+.E.E.!..XXXXXXXXXXX.X.XE.E.+...o. . . . . . . .o.o.+.E.E..XXXXXoXoXoXoXoX[.[.[.[.[.[.[.[.[.[.[.[.[.[.[.[.[.[.[.[.[. X X X X X X X|.|.|.$X$X$X[.oXoXXXXX].E.T. .o. .o. . . . . . . .o.o.o.o.o. .o.o.R.E.E.E.].].].].$X$X|.|.|.|.|.|.|.|. X X X X X X X X X X X X X X[.[.[.[. X X X X[.[.[.[.[.[.oXoXoX].XX'.E.E..... . . . .o.o.o.o.o.o.o.o. . .o.o. . . . .T.'.].].[.oXXXXX.XE.E.+.R.o.o. . . . . .o.o.o.o.o.o.o.o.o.o.i.X.( ^ L h s s j c ~ s.@X2X8XaXaXsXsXpXpXpXpXSXiX5X;X^.i.T m b ",
"=.t.k.-X9XnXDXaXaXsXpXtXpXpXpXpXrX1X/.` S k u u f f B L / ( 0.X.X.o.o.o.o.o.o.o.o.o.o.o.o.o.o.o.+.E.E.!..XXXXXXXXXXX.X.XE.E.+. .o.o. . . . .o.o.o.o.R.E.~..X.XXX$X$X$X[.oX[.[.[.[.[.|.|. X X X X[.[.[.[.[.[.[.[.[.[.[.[.[.[.[.[.[.[.[.[.[.[.oXoX[.oX].].].E.T. .o. . . . . . . . . . . . . .o.o.o.o.E.E.E.W.].XXoX|.$X$X$X$X|.|.[.[.[.[.[.[.[.[.[.[.[.[.[.[.[.[.[.[.[.[.[.[.[.[.[.[.[.[.[.[.[.oXoXoXoXoXoX'.E.E.+... . . . .o.o.o.o.o.o. . .o.o.o.o. . . . ...'.].XXXXXXoXXX.XE.E.+.+.o.o. .o.o.o.o.o.o.o.o.o.o.o.o.o.X.X.{ ( ^ L h a a j c ~ s.@X2X8XiXaXsXsXpXpXpXpXSXiX5X;X^.i.T m n ",
"=.t.k.-X9XnXDXaXaXsXpXtXpXpXpXpXrX1X/.` S k u u p f B L / ( 0.X.X.X.o.o.o.o.o.o.o.o.o.o.o.o.o.o.+.E.E..X.XXXXXXXXXXX.X.XE.E.+.o.+.+. . . . .o.o.o.o.E.E.~..XXXXX$X$X|.|.[.[.[.[.[.[. X|. X X X X[.[.[.[.[.[.[.[.[.[.[.[.[.[.[.[.[.[.[.[.[.[.oX[.[.[.].].].E.E. .o. . . . . . . . . . . . . .o.o. . .E.E.E.].XX#XoX|.$X$X$X$X|.|.[.[.[.[.[.[.[.[.[.[.[.[.[.[.[.[.[.[.[.[.[.[.[.[.[.[.[.[.[.[.[.oXoXoXoXXXXX'.E.E.+... . . . .o.o.o.o.o.o. . .o.o.o.o. . . . .+.'.].XXXXXXXXXX.XE.E.+.+.o.o. .o.o.o.o.o.o.o.o.o.o.o.o.o.X.X.{ ( ^ L h a a j c ~ s.@X2X8XiXaXsXsXpXpXpXSXSXiX5X;X^.i.^ B n ",
"=.t.k.-X9XnXDXaXaXsXpXuXpXpXpXpXrX1X^.` S k u u p f B L / ( 0.X.X.X.o.o.o.o.o.o.o.o.o.o.o.o.o.o.+.E.E..XXXXXXXXXXXXX.X.XE.E.+.o...+. . . . .o.o.o.o.E.E.~..XXXXX$X$X|.|.[.[.[.[.[.[. X X X X X X[.[.[.[.[.[.[.[.[.[.[.[.[.[.[.[.[.[.[.[.[.[.[.[.[.[.].].].E.E. . . . . . . . . . . . . . . .o.o. . .E.E.E..XXX#XoX|.$X$X$X$X|.|.[.[.[.[.[.[.[.[.[.[.[.[.[.[.[.[.[.[.[.[.[.[.[.[.[.[.[.[.[.[.[.oXoXoXoXXXXX'.E.E.+... . . . .o.o.o.o.o.o.o.o.o.o.o.o. . . . .+.'.].XXXXXXXXXX.XE.E.+.o.o.o. .o.o.o.o.o.o.o.o.o.o.o.o.o.X.X.{ ( ^ V f a a j c ~ s.@X2X8XiXaXsXsXpXpXpXpXSXiX5X;X^.i.^ B n ",
"=.t.k.-X9XnXDXaXaXsXpXyXpXpXpXeX5X1X(.` A k u u p f B L / 8.0.X.X.X.o.o.o.o.o.o.o.o.o.o.o.o.o.o.+.E.E..XXXXXXXXXXXXX.X.XE.E.+.o.+.+. . . . .o.o.o.o.R.E.~..XXXXX$X$X|.|.[.[.[.[.[.[. X X X X X X[.[.[.[.[.[.[.[.[.[.[.[.[.[.[.[.[.[.[.[.[.[.[.[.[.[.].].].E.E. . . . . . . . . . . . . . . .o.o. . .E.E.W..XXX#XoX$X$X$X$X$X X|.[.[.[.[.[.[.[.[.[.[.[.[.[.[.[.[.[.[.[.[.[.[.[.[.[.[.[.[.[.[.[.oXoXoXoXXXXX'.E.E.+. .o. . . .o.o.o.o.o.o.o.o.o.o.o.o. . . . .+.'.XXXXXXXXXXXX.X!.+.+.o.o. . .o.o.o.o.o.o.o.o.o.o.o.o.o.X.X.{ ( ^ L h a y j x ! s.OX2X8XtXaXsXsXpXpXpXpXSXiX5X=X^.e.L B n ",
"=.t.v.>XbXmXDXaXaXpXtXtXtXpXpXeX5X1X(.` A k u u p s B L / 8.0.X.X.X.o.o.o.o.o.o.o.o.o.o.o.o.o.o.+.+.E..XXXXXXXXXXXXX.X.XE.E.+.o.o.o. . .....o.o.o.o.R.E.~..XXXXXoXoX|.$X X X X X X X X X X X X X[.[.[.[.[.[.[.[.[.[.[.[.[.[.[.[.[.[.[.[.[.[.[.[.[.[.].].].E.E. . . . . . . . . . . . . . . . . . . .R.E.E..XXX#X$X$X$X X X X X|.[.[.[.[.[.[.[.[. X X[.[.[.[.[.[.[.[.[.[.[.[.[.[.[.[.[.[.[.[.[.oXoXoXoXXXXX'.E.E.+. .o. . . .o.o.o.o.o.o.o.o.o.o.o.o. . . . .+.'.].XXXXXXXXXX.X!.+.o.o.o.o.o.o.o.o.o.o.o.o.o.o.o.o.o.o.X.X.{ ( ^ L h a y j x ! s.OX;X8XtXaXsXsXpXpXpXpXSXiX5X=X^.e.Q B n ",
"=.t.c.>XbXmXDXaXaXpXtXtXyXpXpXeX3X1X(.` A k u u u f B L / ( 0.X.X.o.o.o.o.o.o.o.o.o.o.o.o.o.o.o.+.E.E..XXXXXXXXXXXXX.X.XE.E.+.o.o.o.o. ...+.o.o.o.o.R.E.!..XXXXXoXoX$X$X X$X X X X X X}. X X X X[.[.[.[.[.[.[.[.[.[.[.[.[.[.[.[.[.[.[.[.[.[.[.[.[.[.[.XX.XE.E. . . . . . . . . . . . . . . . . . . .R.E.E..XXXXX$X$X X X X X X|.[.[.[.[.[.[.[.[. X X[.[.[.[.[.[.[.[.[.[.[.[.[.[.[.[.[.[.[.[.oXoXoXoXoXXXXX'.E.E.+. .o. . . .o.o.o.o.o.o.o.o.o.o.o.o. . . .o.+.'.].XXXXXXXXXX.XE.+.o.o.o.o.o.o.o.o.o.o. . . . .o.o.o.o.X.X.{ ( ^ L h a y s x ! X.OX;X8X8XiXaXsXpXpXpXpXSXiX5X=Xh.e.L m g ",
"=.t.c.>X9XmXDXaXsXpXtXtXtXpXpXeX3X1X(.` A Z u u p f B L / ( 0.X.X.o.o.o.o.o.o.o.o.o.o.o.o.o.o.o.+.E.E..XXXXXXXXXXXXX.X.XE.E.+.o.o.o.o. ...+.o.o.o.o.R.E.~..XXXXXoXoX|.$X X$X X X X X X}. X X[.[.[.[.[.[.[.[.[.[.[.[.[.[.[.[.[.[.[.[.[.[.[.[.[.[.[.[.[.oXXXW.E.T.o. . . . . . . . . . . . . . . . . .R.E.E..XXXXXoX$X X$X$X X X|.[.[.[.[.[.[.[.[. X X[.[.[.[.[.[.[.[.[.[.[.[.[.[.[.[.[.[.[.[.oXoXoXoXoXXXXX'.E.E... . . . . .o.o.o.o.o.o.o.o.o.o.o.o. . . .o.+.'.].XXXXXXXXXX.XE.+.o.o.o.o.o.o.o.o.o.o.o. . . . .o.o.o.X.X.{ ( ^ L h a y s x ! X.OX;X8X8XiXaXsXpXpXpXpXSXiX5X=X^.e.L m g ",
"=.t.c.>X9XmXDXaXaXsXtXtXtXpXpXeX3X1X(.` A k u u u s B C / ( 0.X.X.X.o.o.o.o.o.o.o.o.o.o.o.o.o.o.+.E.E..XXXXXXXXXXXXX.X'.E.E.+.o. .o.o.o.....o.o.o.o.R.E.!..XXXXXXXoX$X$X X$X X X X X}.}. X X[.[.[.[.[.[.[.[.[.[.[.[.[.[.[.[.[.[.[.[.[.[.[.[.[.[.[.[.[.oXXX].E.T.o. . . . . . . . . . . . . . . . . .R.E.E..XXX$XoX$X|. X X X X|.[.[.[.[.[.[.[.[. X X[.[.[.[.[.[.[.[.[.[.[.[.[.[.[.[.[.[.[.[.oXoXoXoXoXXXXX'.E.E.+...o. . . .o.o.o.o.o.o.o.o.o.o.o.o. . . .o.+.'.].XXXXXXXXXX.XE.+.o.o.o.o.o.o.o.o.o. . .o.o.o.o.o.o.o.X.X.{ ( ^ L h a y s x ! X.OX;X8X8XiXaXsXpXpXpXpXSXiX5X=X^.e.L m g ",
"=.t.c.>X9XmXDXaXaXsXtXtXtXpXpXiX3X1X(.` A k u u u f B C / ( 0.i.X.X.o.o.o.o.o.o.o.o.o.o.o.o.o.o.+.E.E..XXXXXXXXXXXXX.X'.E.E.+.o. .o.o.o.....o.o.o.o.o.E.E.~..XXXXX].[.|.|.|.[.[.`.`.`.`.[.[.[.[.[.[.[.[.[.[.[.[.[.[.[.[.[.[.[.[.[.[.[.[.[.[.[.[.[.[.[.oXXX].E.T.o.o. . . . . . . . . . . . . . . . .R.E.E..XXXXXoXoX[.[.[.[.[.[.[.[.[.[.[.[.[.[.[.[.[.[.[.[.[.[.[.[.[.[.[.[.[.[.[.[.[.[.[.[.oXoXoXoXoX].XX'.E.E... . . . . . . . . . . . . . . .o.o. . . .o.+.'.].].].].XXXX.XE.+.o.o.o. . .o.o.o.o.o.o.o.o.o.o.o.o.o.X.X.( ( Q V f a y j x ! o.OX2X8XiXaXsXsXpXpXpXSXSXiX5X=X^.e.L m b ",
"=.t.c.>X9XmXDXaXaXaXtXtXtXpXpXiX3X1X(.` A Z u u u s B C / ( 0.i.p.p.X.o.o.o.o.o.o.o.o.o.o.o.o.+.+.+.E..XXXXXXXXXXXXX.X'.E.E.+.o. . .o.o.+.+.o.o.o.o.o.E.E..X.XXXXX].[.|.|.|. X[.`.`.`.`.[.[.[.[.[.[.[.[.[.[.[.[.[.[.[.[.[.[.[.[.[.[.[.[.[.[.[.[.[.[.[.oXXX].E.T.o.o. . . . . . . . . . . . . . . . .R.E.E..XXXXXoXoX[.[.[.[.[.[.[.[.[.[.[.[.[.[.[.[.[.[.[.[.[.[.[.[.[.[.[.[.[.[.[.[.[.[.[.[.[.oXoXoXoX].XX'.E.E... . . . . . . . . . . . . . . .o.o. . . .o.+.'.].].].].XXXX'.E.+.o.o.o. . .o.o.o.o.o.o.o.o.o.o.o.o.o.X.X.{ ( Q V f a y j x ! o.OX2X8XiXaXsXsXpXpXpXpXSXiX5X=X^.e.P m b ",
"=.t.c.>X9XmXDXaXaXaXtXtXtXpXpXiX5X1X(.` A k u u u s B C / ( 0.i.p.p.X.o.o.o.o.o.o.o.o.o.o.o.o.+.+.+.E..XXXXXXXXXXXXX.X'.E.E.+.o.....o.o.o.+.o.o.o.o.o.E.E..X.XXXXX].[.$X|.|.[.[.[.[.`.`.[.[.[.[.[.[.[.[.[.[.[.[.[.[.[.[.[.[.[.[.[.[.[.[.[.[.[.[.[.[.[.oXXX].E.E.R.o. . . . . . . . . . . . . . . . .R.E.E..XXXXXoXoX[.[.[.[.[.[.[.[.[.[.[.[.[.[.[.[.[.[.[.[.[.[.[.[. X X X X X X[.[.[.[.[.[.[.[.[.[.oX].XX'.E.E... . . . . . . . . . . . . . . .o.o. . . .o.+.'.].].].].XXXX.XE.E.+.o.o.o.o.o.o.o.o.o.o.o.o.X.X.o.o.o.X.X.{ ( Q V f a y j x ! o.OX2X8XiXaXsXsXpXpXpXpXSXiX5X;X^.i.T H b ",
"=.t.v.,X9XmXDXaXaXaXtXtXtXpXpXiX5X1X(.` A k u u u s B L / ( 0.i.p.p.X.o.o.o.o.o.o.o.o.o.o.o.o.+.+.E.E..XXXXXXXXXXXXX.X.XE.E.+.+.........o.o.o.o.o.o.o.+.E.'.].].[.].[.$X|.|.[.[.[.[.`.`.[.[.[.[.[.[.[.[.[.[.[.[.[.[.`.`.[.[.[.[.[.[.[.[.[.[.[.[.[.[.].XXXX].E.E.R.o. . . . . . . . . . . . . . . . .R.E.E..XXXXXoXoX[.[.[.[.[.[.[.[.[.[.[.[.[.[.[.[.[.[.[.[.[.[.[.[. X X X X X X[.[.[.[.[.[.[.oX[.[.[.].XX'.E.E... . . . . . . . . . . . . . . .o.o. . . .o.+.'.].].].].XXXX'.E.E.+.o.o.o.o.o.o.o.o.o.o.o.o.X.X.o.o.o.X.X.{ ( Q V f a y j c ! p.OX2X8XtXaXsXsXpXpXpXpXSXiX5X;X^.i.T H b ",
"=.t.k.>X9XnXDXaXaXsXsXtXsXpXpXiX5X1X(.` A k u u f f B L / ( 0.i.p.p.o.o.o.o.o.o.o.o.o.o.o.o.o.+.+.E.E..XXXXXXXXXXXXXXX.XE.E.+.+.....+.+.o.o.o.o.o.o.+.E.!..XXXXXoXoX[.[.|.|. X X}.}.`.`.[.[.[.[.[.[.[.[.[.[.[.[.[.[.[.[.[.[.[.[.[.[.[.[.[.[.[.[.[.[.].XXXX].W.E.R.o. . . . . . . . . . . . .o.o.o.o.R.E.E..XXXXXoXoX X|.|.|.|.[.[.[.[.[.[.[. X X X X[.[.[.[.[.[.[.[. X X X X X X[.[.[.[.[.[.[.oX[.[.[.].].'.'.E... . . . . . . . . . . . . . . .o.o. . . .o.+.'.XXXX].].].XX'.E.E.+.o.o.o.o.o.o.o.o.o.o.o.o.o.o.o.o.o.X.X.{ ( ^ L h a y s l ! i.OX+X8X8XiXaXsXpXpXpXpXSXiX5X;X^.i.T m b ",
"=.t.k.>X9XnXDXaXaXsXsXtXsXpXpXiX5X1X(.` A k u u f f B L / ( 0.i.i.p.o.o.o.o.o.o.o.o.o.o.o.o.o.+.+.E.E..XXXXXXXXXXXXXXX.XE.E.+.o.o.o.o.o.o.o.o.o.o.o.+.E.!..XXXXXoXoX[.[.|.|. X X}.}.`.`.[.[.[.[.[.[.[.[.[.[.[.[.[.[.[.[.[.[.[.[.[.[.[.[.[.[.[.[.[.[.].XXXX].E.E.R.o. . . . . . . . . . . . .o.o.o.o.R.E.E..XXXoXoXoX|.|.|.|.|.[.[.[.[.[.[.[. X X X X[.[.[.[.[.[.[.[. X X X X X X[.[.[.[.[.[.oX[.[.[.oX].].'.'.E... . . . . . . . . . . . . . . .o.o. . . .o.+.'.XXXX].].].XX'.E.E.+.o.o.o.o.o.o.o.o.o.o.o.o.o.o.o.o.o.X.X.{ ( ^ L h a y s l ! i.OX;X8X8XiXaXsXpXpXpXSXSXiX5X=X^.i.P m b ",
"=.t.k.>X9XmXDXaXaXsXsXuXsXpXpXiX5X1X/.` S k u u f f B L / ( 0.i.p.p.X.o.o.o.o.o.o.o.o.o.o.o.o.+.+.E.E..XXXXXXXXXXXXXXX.XE.E.+.o.o.o.o.o.o.o.o.o.o.o.+.E.!..XXXXXoXoX[.[.|.|. X X}.}.`.`.[.[.[.[.[.[.[.[.[.[.[.[.[.[.[.[.[.[.[.[.[.[.[.[.[.[.[.[.[.[.].XXXX].W.E.R.o. . . . . . . . . . . . .o.o.o.o.R.E.E..XXXoXoXoX|.|.|.|.|.[.[.[.[.[.[.[. X X X X[.[.[.[.[.[.[.[. X X X X X X[.[.[.[.[.[.[.oX[.[.oX].].'.'.E... . . . . . . . . . . . . . . .o.o. . . .o.+.'.XXXX].].].oX].E.E.+.o.o.o.o.o.o.o.o.o.o.o.o.o.o.o.o.o.X.X.{ ( ^ L h a y s l ! i.OX;X8X8XiXaXsXpXpXpXpXSXiX5X;X^.i.P m b ",
"=.t.k.-X9XnXDXaXaXsXuXuXuXpXpXiX5X1X/.` S k u u f f B C / ( 0.p.p.p.X.o.X.o.o.o.o.o.o.o.o.o.o.+.+.E.E..XXXXXXXXXXXXXXX.XE.E.+.o.o.o.....+.o.o.o.o.o.+.E.E.].XXXXoXoX[.[.|.|. X X}.}.`.`.[.[.[.[.[.[.[.[.[.[.[.[.[.[.[.[.[.[.[.[.[.[.[.[.[.[.[.[.[.[.[.$XXX].E.E.R.o. . . . . . . . . . . . .o.o.o.o.R.E.E..XXXXX$X$X|.|.|.|.|.|.[.[.[.[.[.[. X X X X[.[.[.[.[.[.[.[. X X X X X X[.[.[.[.[.[.[.[.[.[.oXXX].'.E.T... . . . . . . . . . . . . . . .o.o. . . .o.+.'.].XX].].].oX].E.E.+.o.o.o.o.o.o.o.o.o.o.o.o.o.o.o.o.o.X.X.{ ( ^ L h a y s x ! i.OX;X8X8XaXaXsXpXpXpXpXpXiX5X=X^.i.^ B b ",
"=.t.k.-X9XnXDXaXaXaXsXuXsXsXaXiX3X1X(.` A k s s f f B C / ( 0.p.p.p.X.o.o.o.o.o.o.o.o.o.o.o.o.+.+.E.E..XXXXXXXXXXXXXXX.XE.E.E.+.o.o.....o.o.o.o.o.o.R.E.E.].XXXX].|.|.|.[.[.[.[.`.`.`.`.`.`.[.[.[.[.[.[.[.[.[.[.[.[.[.[.[.[.[.[.[.[.[.[.[.[.[.[.].].[.$XXXXXE.E.E.o.o. . . . . . . .o.o.o.o.o.o.o.o.R.E.E.].XX#X$X$X X|.|.|.|.|. X X X X X X X X X X[.[.[.[.[.[.[.[.[.[.[.[.[.[.[.[.[.[.[.[.oXoXoXoXoXXX].'.'.T.+... . . . . . . . . . . . . . .o.o. . . .o.+.'.].].].].].oX].E.E.+.o.o.o.o.o.o.o.o.o.o.p.o.p.p.o.o.o.p.i.X.( ^ V f a y s x / f.OX2X8X8XaXaXpXpXpXpXpXpXiX5X=X^.i.^ B b ",
"=.t.k.-X9XnXDXaXaXaXsXuXsXsXpXiX5X1X(.` A k s s f f B L / ( 0.p.p.p.o.o.o.o.o.o.o.o.o.o.o.o.o.+.+.E.E..XXXXXXXXXXXXXXX.XE.E.E.+.o.......o.o.o.o.o.o.R.E.E..XXXXX].|.|.|.[.[.[.[.`.`.`.`.`.`.[.[.[.[.[.[.[.[.[.[.[.[.[.[.[.[.[.[.[.[.[.[.[.[.[.[.].].].XXXXXXE.E.E.o.o. . . . . . . .o.o.o.o.o.o.o.o.R.E.!..XXX#X$X$X X|. X X|.|. X X X X X X X X X X[.[.[.[.[.[.[.[.[.[.[.[.[.[.[.[.[.[. X XoXoXoXoXoXXX].'.'.E.+... . . . . . . . . . . . . . .o.o. . . .o.+.'.].].].].XXXX].E.E.+.o.o.o.o.o.o.o.o.o.o.o.o.o.o.o.o.o.p.i.X.( Q V f a y s x / f.OX2X8X8XaXaXpXpXpXpXpXpXtX5X=X^.i.T B n ",
"=.t.k.-X9XnXDXaXaXaXsXuXsXsXpXiX5X1X(.` A k s s f f B L / ( 0.0.p.p.o.o.o.o.o.o.o.o.o.o.o.o.o.+.+.E.E..XXXXXXXXXoXXXXX.X.XE.E.+. . .....o.o.o.o.o.o.R.E.E..XXXXX].|.|.|.[.[.[.[.`.`.`.`.`.`.[.[.[.[.[.[.[.[.[.[.[.[.[.[.[.[.[.[.[.[.[.[.[.[.[.[.].].].oXXXXXE.E.E.o.o. . . . . . . .o.o.o.o.o.o.o.o.R.E.!..XXX#X$X$X X|. X X|.|. X X X X X X X X X X[.[.[.[.[.[.[.[.[.[.[.[.[.[.[.[.[.[.[.[.oXoXoXoXoXXX].'.'.E.+... . . . . . . . . . . . . . .o.o. . . .o.+.'.].].].].XXoX].E.E.+.o.o.o.o.o.o.o.o.o.o.o.o.o.o.o.o.o.p.i.X.( Q V f a y s x / f.OX2X8X8XaXaXpXpXpXpXpXpXiX5X=X^.i.T m n ",
"=.t.h.-X9XnXDXaXaXaXsXsXsXpXpXiX5X1X^.` A k s s f f B L ^ ( 0.i.p.p.o.o.o.o.o.o.o.o.o.o.o.o.o.+.+.E.E..XXXXXXXXXXXXXXX.X'.E.E.+. . .o.+. .+.o.o.o.o.R.E.E..XXX#X].[.|.|.[.[.[.[.`.`.`.`.`.`.[.[.[.[.[.[.[.[.[.[.[.[.[.[.[.[.[.[.[.[.[.[.[.[.[.].[.[.[.oXXXXXE.E.E.o.o. . . . . . . .o.o.o.o.o.o.o.o.R.E.!..XXX#X$X$X$X X|.|.|.|. X X X X X X X X X X[.[.[.[.[.[.[.[.[.[.[.[.[.[.[.[.[.[. X XoXoXoX[.[.[.].'.'.E..... . . . . . . . . . . . . . .o.o. . . .o.+.'.].].].].].XX].E.E.+.o.o.o.o.o.o.o.o.o.o.o.o.o.o.o.o.o.o.i.X.( Q V f a y s x / f.*X2X8X8XaXaXpXpXpXpXpXpXiX5X=Xh.e.P H b ",
"=.t.h.-X9XnXDXaXaXaXsXsXpXsXpXiX5X1X(.` A k s s f f B L ^ ( 0.i.p.p.o.o.o.o.o.o.o.o.o.o.o.o.o.+.+.E.E..XXXXXXXXXXXXXXX.X'.E.E.+. . .o.+.....o.o.o.o.R.E.E..XXX#XXX[.|.|.[.[. X X}.}.`.`.`.`.[.[.[.[.[.[.[.[.[.[.[.[.[.[.[.[.[.[.[.[.[.[.[.[.[.].[.[.[.oXXXXXE.E.E.o. . . . . . . . .o.o.o.o.o.o.o.o.R.E.!..XXX#X$X$X$X X X X|.|. X X X X X X X X X X[.[.[.[.[.[.[.[.[.[.[.[.[.[.[.[.[.[. X XoXoXoX[.[.[.].'.'.E..... . . . . . . . . . . . . . .o.o. . . .o.+.'.].].].].].XX].E.E.+.o.o.o.o.o.o.o.o.o.o.o.o.o.o.o.o.p.o.i.i.( Q V f y y s x / f.*X2X8X8XaXaXpXpXpXpXpXpXiX5X=Xh.e.P m b ",
"=.t.h.-X9XnXDXaXaXaXsXsXpXpXFXAX3X1X(.` A k s s f f B L ^ ( ` X.X.X.o.o.o.o.o.o.o.o.o.o.o.o.o.+.+.E.E..XXXXXXXXXXXXXXX.XE.E.E.+. ...o. .o.+.o.o.o.o.R.E.E..XXX#XXX[.|.|.[.[. X X}.}.`.`.`.`.[.[.[.[.[.[.[.[.[.[.[.[.[.[.[.[.[.[.[.[.[.[.[.[.[.].[.[.|.|.].].E.E.E. . . . . . . . . .o.o.o.o.o.o.o.o.R.E.E.].XX#X$X$X$X X X X|.|. X X X X X X X X X X[.[.[.[.[.[.[.[.[.[.[.[.[.[.[.[.[.[. X XoXoXoX[.[.[.].'.E.T..... . . . . . . . . . . . . . .o.o. . . . .+.'.].].].].].XX].E.E.+.o.o.o.o.o.o.o.o.o.o.o.o.p.o.o.o.p.p.i.i.( ^ C f y y s x / f.*X2X8X0XaXaXpXpXpXpXpXpXiX5X=Xh.e.T m n ",
"=.t.h.-X9XnXDXaXaXaXsXsXpXpXaXAX5X1X(.` A k s s f f B L / ( ` X.X.X.o.o.o.o.o.o.o.o.o.o.o.o.o.+.+.E.E..XXXXXXXXXXXXXXX.X'.E.E.+.....o.o.o...o.o.o.o.R.E.E..XXX#XoX[.|.|.[.[.|. X}.}.`.`.`.`.[.[.[.[.[.[.[.[.[.[.[.[.[.[.[.[.[.[.[.[.[.[.[.[.[.].[.[.[.|.].].E.E.E. . . . . . . . . .o.o.o.o.o.o.o.o.R.E.E.].XX#X$X X$X X X|.|.|. X X X X X X X X X X[.[.[.[.[.[.[.[.[.[.[.[.[.[.[.[.[.[.[.[.oXoX[.[.[.[.].'.E.T..... . . . . . . . . . . . . . .o.o. . . . .+.'.].].].].].XX].E.E.+.o.o.o.o.o.o.o.o.o.o.o.o.o.o.o.o.p.p.i.i.( ^ C f y y s x / f.*X4X8X0XaXaXpXpXpXpXpXpXiX5X=X^.e.T m n ",
"=.w.h.-X9X0XDXaXaXaXsXsXpXpXSXAX5X1X(.` A k s s f f B L ^ ( ` X.X.X.o.o.o.o.o.o.o.o.o.o.o.o.o.+.+.E.E..XXXXXXXXXoXXXXX.X'.E.E.+...o.o.+.o.o.o.o.o.o.E.E.E..XXX#X[.[.|.|.[.[. X X}.}.`.`.`.`.[.[.[.[.[.[.[.[.[.[.[.[.[.[.[.[.[.[.[.[.[.[.[.[.[.[.[.].[.].].].W.E.T.o.o. . . . . . . .o.o.o.o.o.o.o.o.R.E.E.].XX#X$X X$X X X X|.|. X X X X[. X X X X X[.[.[.[.[.[.[.[.[.[.[.[.[.[.[.[.[.[.[.[.oXoXoX[.[.[.].'.'.T..... . . . . . . . . . . . . . .o.o. . . . .+.'.].].].].[.oX].E.E.+.o.o.o.o.o.o.o.o.o.o.o.o.o.o.o.o.p.p.i.i.( ^ C f y y s x / f.OX2X8X0XaXaXpXpXpXpXpXpXiX5X=Xh.e.P m g ",
"=.t.h.-X9X0XDXaXaXaXsXsXpXpXAXAX5X1X(.` A k s s f f B L ^ ( ` X.X.X.o.o.o.o.o.o.o.o.o.o.o.o.+.+.+.E.E..XXXXXXXoXoXXXXX.X'.E.E.+...o.+.+.o.o.o.o.o.o.+.E.E..XXXXX[.oX$X$X[.[. X X}.}.`.`.`.`.[.[.[.[.[.[.[.[.[.[.[.[.[.[.[.[.[.[.[.[.[.[.[.[.[.].[.[.].].].].E.T.T. .o.o.o.o.o.o.o.o.o.o.o.o.o.o.o.o.R.E.W.].XX#X$X X X X X X|.|. X X[.[. X X X X X X[.[.[.[.[.[.[.[.[.[.[.[.[.[.[.[.[.[.[.[.oXoXoX[.[.[.].'.'.T..... . . . . . . . . . . . . . . . . . . . .+.'.].].].].[.oX].E.E.+.o.o.o.o.o.o.o.o.o.o.o.o.o.o.o.o.p.p.i.i.( ^ C f a y s x / f.OX2X8X0XaXaXpXpXpXpXpXpXiX5X=Xh.e.T m g ",
"=.t.h.;X9X0XDXaXaXaXsXsXpXpXSXAX5X1X^.` A k s s f f B L ^ ( X.X.X.X.o.o.o.o.o.o.o.o.o.o.o.o.+.+.+.E.E..XXXXXXXXXoXXXXX.X'.E.E.+.o.o.+.o.o.o.o.o.o.o.+.E.E..XXXXXXXXX$X|.[.[. X X}.}.`.`.`.`.[.[.[.[.[.[.[.[.[.[.[.[.[.[.[.[.[.[.[.[.[.[.[.[.[.].[.[.].].].].E.T.T. .o.o.o. .o.o.o.o.o.o.o.o.o.o.o.o.R.E.W.].].|. X X X X X X|.|. X X X X X X X X X X[.[.[.[.[.[.[.[.[.[.[.[.[.[.[.[.[.[.[.[.oXoXoX[.[.[.].'.'.T..... . . . . . . . . . . . . . . . . . . . ...'.].].].].].XX].E.E.+.o.o.o.o.o.o.o.o.o.o.o.o.o.o.o.o.p.p.i.i.( ^ C f a y s l / p.OX2X8X8XaXaXpXpXpXpXpXpXiX5X=Xh.e.T B n ",
"=.t.h.;X9XqXaXaXaXdXsXsXpXpXSXiX5X1X^.` A k s s f f B L ^ ( X.X.X.o.o.o.o.o.o.o.o.o.o.o.o.o.+.+.+.E.E..XXXXXXXXXoXXXXX.X'.E.E.+.o.o.o.o.o.o.o.o.o.o.+.E.E..XXXXX].oX|.|.[.|. X X}.}.`.`.`.`.[.[.[.[.[.[.[.[.[.[.[.[.[.[.[.[.[.[.[.[.[.[.[.[.[.].[.[.].].].].E.T.T. .o.o.o. .o.o.o.o.o.o.o.o.o.o.o.o.R.E.W.].].|. X X X|.|.|.|.|. X X X X X X X X X X[.[.[.[.[.[.[.[.[.[.[.[.[.[.[.[.[.[.[.[.oXoXoX[.[.[.].'.'.T..... . . . . . . . . . . . . . . . . . . . ...'.].].].].XXXX].E.E.+.o.o.o.o.o.o.o.o.o.o.o.o.o.o.o.o.p.p.i.i.( ^ C f a y s l ! p.OX2X8X8XaXaXpXpXpXpXpXpXiX5X=Xh.e.T m n ",
"=.t.h.-X9XqXaXaXaXdXsXsXsXsXSXiX5X1X^.` S k s s f f B L ^ ( X.X.X.o.o.o.o.o.o.o.o.o.o.o.o.o.+.+.+.E.E..XXXXXXXXXoXXXXX.X.XE.E.+.o. .+.+.+.o.o.o.o.o.+.E.E..XXXXXXXoX|.|.|.|.|. X}.}.`.`.`.`.[.[.[.[.[.[.[.[.[.[.[.[.[.[.[.[.[.[.[.[.[.[.[.[.[.[.[.[.].].].].E.T.T. . . .o.o.o.o.o.o.o.o.o.o.o.R.o.R.R.E.W.].].|.|.|. X X|. X|.|.[.[.[. X X X X X X X[.[.[.[.[.[.[.[.[.[.[.[.[.[.[.[.[.[.[.[.[.oXoXoXoX[.].'.'.T..... . . . . . . . . . . . . . . . . . . . ...'.].].].].XXXX].E.E.+.o.o.o.o.o.o.o.o.o.o.o.o.o.o.o.o.p.p.i.i.( ^ C f a y s l ! p.OX2X8XqXaXaXpXpXpXpXpXpXiX5X;Xh.i.T B n ",
"=.t.h.-X9XqXDXaXaXaXsXsXsXsXSXiX5X=X^.` S k s s f f B L ^ ( X.X.X.o.o.o.o.o.o.o.o.o.o.o.o.o.+.+.+.E.E..XXXXXXXoXoXoXXX.X'.E.E.T. . .o. .o.o.o.o.o.o.R.E.E..XXXXX].oX|.|.|.|.|. X}.}.}.}. X X[.[.[.[.[.[.[.[.[.[.[.[.[.[.[.[.[.[.[.[.[.[.[.[.[.[.[.[.].].].].E.T.T. .o.o.o.o.o.o.o.o.o.o.o.o.o.o.o.o.R.E.W.].].|. X|. X|. X X|.|.[.[. X X X X X X X X X X X X X X X X X X X X X X|.|.[.[.[.[.[.[.[.[.oX[.].'.'.T..... . . . . . . . . . . . . . . . . . . . ...'.].].].].XXXX].E.E.+.o.o.o.o.o.o.o.o.o.o.o.o.o.o.o.o.p.p.i.i.( ^ C f a y s l / p.OX2X8XqXaXaXpXpXpXpXpXpXiX3X;Xh.e.P m n ",
"=.t.z.-X9XqXDXaXaXaXsXsXsXsXSXAX5X1X^.` S k s s f f B L ^ ( X.X.X.o.o.o.o.o.o.o.o.o.o.o.o.o.+.+.+.E.E..XXXXXXXoXoXoXXX.X'.E.E.T. . . . .o.o.o.o.o.o.R.E.E..X.XXXXXoX|.|.|.|.|. X}.}.}.}. X X[.[.[.[.[.[.[.[.[.[.[.[.[.[.[.[.[.[.[.[.[.[.[.[.[.[.[.[.].].].].E.E.R.o.o.o.o.o.o.o.o.o.o.o.o.o.o.o.R.R.R.E.W.].].|. X X X|.|.|.|.|. X X X X X X X X X X X X X X X X X X X X X X X X|.|.[.[.[.[.[.[.[.[.oX[.].'.'.T..... . . . . . . . . . . . . . . . . . . . .+.'.].].].].[.oX].E.E.+.o.o.o.o.o.o.o.o.o.o.o.o.o.o.o.p.p.f.a.i.( ^ C f a y s l / f.OX2X8X8XaXaXpXpXpXpXpXpXiX3X=Xh.e.P m g ",
"=.t.h.-X9XqXDXaXaXaXsXsXsXsXSXAX5X1X^.` S s s s f f B L ^ ( X.X.X.o.o.o.o.X.o.o.o.o.o.o.o.o.+.+.+.E.E..XXXXXXXoXoXoXXX.X'.E.E.T. . . . .o.o.o.o.o.o.R.E.E..X.XXXXXoX|.|.|.|.|. X}.}.}.}. X X[.[.[.[.[.[.[.[.[.[.[.[.[.[.[.[.[.[.[.[.[.[.[.[.[.[.[.[.].].].].E.E.R. .o.o.o.o.o.o.o.o.o.o.o.o.R.R.R.R.R.E.W.].].|. X X X|.|.|.|.|. X X X X X X X X X X X X X X X X X X X X X X X X|.|.[.[.[.[.[.[.[.[.[.[.].'.'.T..... . . . . . . . . . . . . . . . . . . . .+.'.].].].].[.oX].E.E.+.o.o.o.o.o.o.o.o.o.o.o.o.o.o.o.p.p.p.a.i.( ^ C f a y s l / f.OX2X8X8XaXaXpXpXtXtXpXpXiX3X;Xh.e.P m g ",
"=.t.h.-X9XnXDXaXaXaXsXsXsXsXFXiX3X=X^.` A k s s f f B L ^ ( X.X.X.o.X.X.o.o.o.o.o.o.o.o.o.o.+.+.+.E.E..XXXXXXXoXoXoXXX].'.E.E.Y.o.o.o.o.o.o.o.o.o.o.R.E.!..X.XXXXXoX$X|.|.|.|. X}.}.}.}. X X[.[.[.[.[.[.[.[.[.[.[.[.[.[.[.[.[.[.[.[.[.[.[.[.[.[.[.[.].].].].E.E.R.o.o.o.o.o.o.o.o.o.o.o.o.o.o.o.o.o.R.E.W.].].|.|.|. X|. X|.|.|.[. X X X X X X X X X X X X X X X X X X X X X|.|. X X[.[.[.[.[.[.[.[.oX[.].'.'.T..... . . . . . . . . . . . . . . . . . . . ...'.].].].].[.oX].E.E.+.o.o.o.o.o.o.o.o.o.o.o.o.p.o.o.o.p.p.i.i.( ^ C f a y s x / f.OX2X8X8XaXaXpXpXpXpXpXpXiX3X;Xh.e.P m n ",
"=.t.h.-X9XnXDXaXaXaXsXpXpXpXSXAX5X1X/.` S k s u s f x L ^ ( X.X.X.o.o.o.o.o.o.o.o.o.o.o.o.o.+.+.+.E.'..XXXXXXXoXXXXXXX].].E.E.T. .o.o.o.o.o.o.o.o.o.R.E.~..XXX#XXX$X$X$X[.[.[.[.`.`. X X X X X X X X X X X}. X X X X[.[.[.[.[.[.[.[.[.[.[.[.[.[.[.[.].].].].E.E.E.o.o.o.o.o.o.o.o.o.o.o.o.o.o.o.o.o.R.E.W.].].|.|.|. X X X X X X[.[. X X X X|.|.|.|. X|. X X X X X X X X X|.|.|. X X[.[.[.[.[.[.[.[.[.[.].'.'.T..... . . . . . . . . . . . . . .o.o. . . . .+.'.].].].].[.XX].'.E.+.o.o.o.o.o.o.o.o.o.o.o.o.p.o.o.o.p.p.i.i.( ^ C f y y s x / f.OX2X8X8XaXaXpXpXpXpXpXpXiX8X;X^.e.P m n ",
"=.t.k.-X9XnXDXaXaXaXpXpXpXpXSXAX5X1X/.` S k s u s f B L ^ ( X.X.X.o.o.o.o.o.o.o.o.o.o.o.o.o.+.+.+.E.E..XXXXXXXXXXXXXXX].W.E.E.T. .o.o.o.o.o.o.o.o.o.R.!.~..XXX#XXX$X$X$X[.[.[.[.`.`. X X X X X X X X X X}.}. X X X X[.[.[.[.[.[.[.[.[.[.[.[.[.[.[.[.].].].].W.E.E.o.o.o.o.o.o.o.o.o.o.o.o.o.o.o.R.R.R.E.W.].].|.|.|.|.|. X X X X[.[. X X X X|.|.|.|. X X|.|.|.|. X X X X X X|. X X X[.[.[.[.[.[.[.[.[.[.].'.'.T..... . . . . . . . . . . . . . .o.o. . . . .E.'.].].].].].XX].'.E.+.o.o.o.o.o.o.o.o.o.o.o.o.o.o.o.o.p.p.i.i.( ^ C f y y s x / f.*X2X8X0XaXaXpXpXpXpXpXpXiX8X;Xh.e.P m n ",
"=.t.k.-X9XnXDXaXaXaXsXpXpXpXSXAX5X1X/.` S k s u f f B L ^ ( X.X.X.o.o.o.o.o.o.o.o.o.o.o.o.o.+.+.E.E.E..XXXXXXXoXXXXXXX].W.E.E.T. .o.o.o.o.o.o.o.o.o.R.!.!..XXX#XoX$X$X$X[.[.[.[.`.`. X X X X|.|. X X X X}.}. X X X X[.[.[.[.[.[.[.[.[.[.[.[.[.].[.[.].].].].E.E.E.o.o. . . .o.o.o.o.o.o.o.o.o.o.R.R.R.E.W.].].|.|.|.|.|. X X X X[.[. X X X X|.|.|.|. X X|.|.|.|. X X X X X X X X|.|.[.[.[.[.[.[.[.[.[.[.].'.'.T..... . . . . . . . . . . . . . .o.o. . . . .+.'.].].].].].XX].'.E.+.o.o.o.o.o.o.o.o.o.o.o.o.o.o.o.o.p.p.i.i.( ^ V f y y s l / f.*X2X8X0XaXaXpXpXpXpXpXpXiX8X;Xh.e.L m n ",
"=.t.k.-X9XnXDXDXaXaXsXsXpXpXSXAX5X1X/.` S k s u f f B L ^ ( X.X.X.o.o.o.o.o.o.o.o.o.o.o.o.o.+.+.E.E.E..XXXXXXXoXXXXXXX].].E.E.T. . .o.o.o.o.o.o.o.o.R.!.!..XXX#XoX$X$X$X[.[.[.[.`.`. X X X X|.|. X X X X X}. X X X X[.[.[.[.[.[.[.[.[.[.[.[.[.].[.[.].].].].E.E.R.o.o. . . .o.o.o.o.o.o.o.o.o.o.R.R.R.E.W.].].|.|.|.|.|. X X X X X X X X X X X|.|.|. X X X X|.|. X X X X X X X X X X[.[.[.[.[.[.[.[.[.[.].'.'.T..... . . . . . . . . . . . . . .o.o. . . . .E.'.].].].].XXXX].E.E.+.o.o.o.o.o.o.o.o.o.o.o.o.o.o.o.o.p.p.i.i.( ^ C f y y s x / f.*X4X5X0XaXaXpXpXyXtXtXpXiX8X;X^.{ L m g ",
"=.t.k.-X9XnXGXDXaXaXuXuXpXpXSXAX5X1X/.` S k s u f f B L ^ ( X.X.X.o.o.o.o.o.o.o.o.o.o.o.o.o.+.+.E.E.'.].XXXXXXoXXXXXXX].W.E.E.Y.Y.R.R.R.R.R.R.R.R.R.R.!.~.XXXX#XoX$X$X$X X X X X}.}. X X X X|.|. X X X X X X X X X X[.[.[.[.[.[.[.[.[.[.[.[.[.[.[.[.].].].].E.E.R.o.o.o.o.o.o.o.o.o.o.o.o.o.o.o.R.R.R.E.W.].].|.|. X|.[. X X X X X X X X X X X|.|.|. X X X X|. X|.|.|.|.|.|. X X X X X X|.|.[.[.[.[.[.[.].'.'.T..... . . . . . . . . . . . . . .o.o. . . .o.E.'.].].].].].XX].E.E.+.o.o.o.o.o.o.o.o.o.o.o.o.o.o.o.o.p.p.i.i.( ^ C f y y s x / f.*X4X5X0XaXaXpXpXpXyXtXpXiX3X;X^.{ P H g ",
"=.t.k.>XlXnXDXaXaXaXpXuXpXpXSXAX5X1X/.` S k s u f f B L ^ ( X.X.X.o.o.o.o.o.o.o.o.o.o.o.o.o.+.+.+.E.'.].XXXXXXXX#XXXXX].].E.E.Y.Y.Y.R.R.R.R.R.R.R.R.R.!.~.XXXX#XXX$X$X$X X X X X X X X X X X X X X X X X X X X X X X[.[.[.[.[.[.[.[.[.[.[.[.[.[.[.[.].].].].E.E.R.o.o.o.o.o.o.o.o.o.o.o.o.o.o.o.o.o.R.E.W.].].|.|. X|.[.[.[. X X X X X X X X|.|.|.|.|. X X X X X X X|.|.|.|. X|. X X X X|.|.[.[.[.[.[.[.].'.'.T..... . . . . . . . . . . . . . .o.o. . . .o.E.'.].].].].[.XX].E.E.+.o.o.o.o.o.o.o.o.o.o.o.p.p.o.o.o.p.p.i.i.( ^ C f y y s x / f.*X2X8X0XaXaXpXpXpXyXpXpXtX3X;X^.{ P h g ",
"=.t.k.>XlXnXDXaXaXaXpXsXpXpXSXAX5X1X/.` S k s u s f B L ^ ( X.X.X.o.o.o.o.o.o.o.o.o.o.o.o.o.+.+.+.E.'.].XXXXXX#X#XXXXX].].E.E.Y.Y.Y.R.R.R.R.R.R.R.R.R.!.~.XXXX#XXX$X$X$X X X X X X X X X X X X X X X X X X X X X X X[.[.[.[.[.[.[.[.[.[.[.[.[.[.[.[.].].].].E.E.R.o.o.o.o.o.o.o.o.o.o.o.o.o.o.o.R.o.R.E.W.].].].|. X|.[.[. X X X X X X X X X|.|.|.|.|.|. X X X X X X|.|.|.|. X|. X X X X|.|.[.[.[.[.[.[.].'.E.T..... . . . . . . . . . . . . . .o.o. . . .o.E.'.].].].].[.XX].E.E.+.o.o.o.o.o.o.o.o.o.o.o.o.p.o.o.o.p.p.i.i.( ^ C f a y s x / f.*X2X8X0XFXaXpXpXpXyXtXiXtX3X;X^.{ P h g ",
"=.t.k.>XlXnXGXDXaXaXpXsXpXpXpXAX5X1X/.` S k s u f f x L Q ( X.X.X.o.o.o.o.o.o.o.o.o.o.o.o.o.+.+.+.E.'.].XXXXXXXXXXXXXX].].E.E.Y.Y.R.Y.R.R.R.R.R.R.R.R.!.~.XXXX#XXX$X$X$X|.|.|. X X X X X X X X X X X X X}.}. X X X X[.[.[.[.[.[.[.[.[.[.[.[.[.[.[.[.].].].].E.E.R. .o.o.o.o.o.o.o.o.o.o.o.o.o.o.o.o.R.E.W.].].[. X X X|.|.|.|. X X X X X X X|.|. X X X X X X X X X|.|.|.|.|. X X X X X X X X[.[.[.[.[.[.].'.'.T..... . . . . . . . . . . . . . .o.o. . . . .E.'.].].].].].XX.X'.E.+.o.o.o.o.o.o.o.o.o.o.o.o.o.o.o.o.p.p.i.i.( ^ V f a y s x / f.OX2X8X0XaXaXpXpXyXyXsXpXtX8X+XOX} P h g ",
"=.t.k.>XlXnXGXDXaXaXpXsXpXpXpXiX5X1X/.` S k s u f f x L ^ ( { X.X.o.o.o.o.o.o.o.o.o.o.o.o.o.+.+.+.E.'.].XXXXXXoXoXXXXX].'.E.E.T.o.o. .o.o.o.R.R.R.R.R.!.~.XXXX#X#X$X$X$X|.|.|. X X}. X X X X X X X X X X X X X X X X[.[.[.[.[.[.[.[.[.[.[.[.[.[.[.[.].].].].].E.E. .o. .o.o.o.o.o.o.o.o.o.o.o.o.o.o.R.E.E.].].|.|. X|.|.|.|. X X X X X X X X|.|. X X X X|. X X X|.|. X|.|.|. X X X X X X X X[.[.[.[.[.[.].'.'.T..... . . . . . . . . . . . . . . . . . . . .E.'.].].].].].XX].E.E.+.o.o.o.o.o.o.o.o.o.o.o.o.o.o.o.o.p.p.i.i.( ^ V f a y s x / f.OX2X8X0XaXaXpXpXpXyXsXpXtX3X+XOX} P h g ",
"=.t.k.>XlXnXGXDXaXaXpXsXpXpXSXiX5X1X/.` S k s u f f m L ^ ( { X.X.o.o.o.o.o.o.o.o.o.o.o.o.o.+.+.+.E.'.].XXXXXXoXoXXXXX].'.E.E.T.o.o.o.o.o.o.R.R.R.R.R.E.~.XXXX#X$X$X$X$X X X|. X}.}.}.}. X X X X X X X X X X X X X X[.[.[.[.[.[.[.[.[.[.[.[.[.[.[.[.].].].].E.T.E.o.o. .o.o.o.o.o.o.o.o.o.o.o.o.o.o.R.E.E.].].|.|. X X|. X X X X X X X X X X|.|. X X X X|.|.|.|. X X X|.|.|.|. X|.|. X X X|.[.[.[.[.[.[.].].'.T..... . . . . . . . . . . . . . . . . . . . .T.'.].].].].].XX].E.E.+.o.o.o.o.o.o.o.o.o.o.o.o.o.o.o.o.p.p.i.i.( ^ V f a y s l / p.OX2X8X8XaXaXpXpXyXyXpXpXtX3X;X^.{ P h g ",
"=.t.k.>XlXnXGXDXaXaXpXuXpXpXSXAX5X1X/.` S k s u f f m L ^ ( { X.X.o.o.o.o.o.o.o.o.o.o.o.o.o.+.+.+.E.'.].XXXXXXoXoXXXXX].'.E.E.T.o.o.o.o.o.o.R.R.R.R.R.E.~.XXXX#X#X$X$X$X X X X X}.}.}.}. X}. X X X X X X X X X X X X[.[.[.[.[.[.[.[.[.[.[.[.[.[.[.[.[.].].].E.T.E.o.o. .o.o.o.o.o.o.o.o.o.o.o.o.o.o.R.E.E.].].[. X X|.|. X X X X X X X X X X|.|. X X X X X X|.|. X X X X|.|.|. X X|. X X X X[.[.[.[.[.[.].'.'.T..... . . . . . . . . . . . . . . . . . . . .T.'.].].].].].XX].E.E.+.o.o.o.o.o.o.o.o.o.o.o.o.o.o.o.o.p.p.i.i.( ^ V f a y s l ! p.OX2X8X8XaXaXpXpXyXyXtXpXtX3X+Xh.{ P h g ",
"=.t.k.>X4XnXDXaXaXaXpXuXpXpXSXAX5X1X/.` S k s u s f m L ^ ( { X.X.o.o.o.o.o.o.o.o.o.o.o.o.o.+.+.+.E.'.].XXXXXXoXoXXXXX].'.E.E.T.o.o.o.o.o.o.R.R.R.R.R.E.~.XXXX#X$X$X$X$X X X X X X}.}.}. X}. X X X X X X X X X X X X[.[.[.[.[.[.[.[.[.[.[.[.[.[.[.[.[.].].].E.E.E.o.o. .o.o.o.o.o.o.o.o.o.o.o.o.o.o.R.E.'.].].[.|.|.|. X X X X X X X X X X X X X X X X X|.|.|.|. X X X|.|.|. X X X X X|.|.|.[.[.[.[.oX[.].'.'.T..... . . . . . . . . . . . . . . . . . . . .T.'.].].].].[.XX].E.E.+.o.o.o.o.o.o.o.o.o.o.o.o.o.o.o.o.p.p.i.i.( ^ C f a y s l ! p.OX2X8XqXaXaXpXpXyXyXpXpXiX3X;Xh.{ P h g ",
"=.t.k.>X4XnXDXaXaXaXpXsXpXpXSXAX5X1X/.` S k s u s f m L ^ ( { X.X.o.o.o.o.o.o.o.o.o.o.o.o.o.+.+.+.E.'.].XXXXXXoXoXXXXX].'.E.E.R.o.o.o.o.o.o.o.o.o.o.R.E.~.XXXX#X$X$X$X$X X X X X X}.}.}.}.}. X X X X X X X X X X|.|.[.[.[.[.[.[.[.[.[.[.[.[.[.[.[.[.].].].].E.T.E.o.o. .o.o.o.o.o.o.o.o.o.o.o.o.o.o.R.E.'.].].[.|.|.|. X X X X X X X X X X X X X X X X X|.|. X X X X|.|. X X X X X X X X|.|.[.[.[.[.[.[.].'.E.T.T.T. . . . . . . . . . . . . . . . . . . . .T.'.].].].].oXXX].E.E.+.o.o.o.o.o.o.o.o.o.o.o.o.o.o.o.o.p.p.i.i.( ^ C f a y s l / p.OX2X8XqXaXaXpXpXyXyXpXpXiX3X;X^.} P h g ",
"=.t.k.>XlXnXDXDXaXaXpXpXpXpXSXAX5X1X/.` S k s u s f B L ^ ( { X.X.o.o.o.o.o.o.o.o.o.o.o.o.o.+.+.+.E.'.].XXoXXXoXoXXXXX].'.E.E.R.o.o. .o. . .o.o.o.o.R.E.~.XXXX#X$X$X$X$X X|. X X X}.}.}.}.}. X X X X X X X X X X|.|.[.[.[.[.[.[.[.[.[.[.[.[.[.[.[.[.].].].].E.E.E. .o. .o.o.o.o.o.o.o.o.o.o.o.o.o.o.R.E.'.].].[.|. X|. X X X X X X X X X X X X X X X X X|.|. X X X|.|.|. X X X X X X X X|. X[.[.[.[.[.[.].'.E.T.T.T. . . . . . . . . . . . . . . . . . . . .T.'.].].].].oXXXXX.XE.+.o.o.o.o.o.o.o.o.o.o.o.o.o.o.o.o.p.p.i.i.( ^ C f a y s l / f.OX2X8X8XaXaXpXpXyXyXpXpXiX3X;X^.e.P x g ",
"=.t.k.>XlXnXGXDXaXaXpXpXpXpXFXAX3X=X/.` S k s u f f B L ^ ( { X.X.o.o.o.o.o.o.o.o.o.o.o.o.o.+.+.+.E.'.].XXoXoXoXoXXXXX].'.E.E.R.o.o. . . . .o.o.o.o.R.E.~.XXXX#X#X$X$X$X X|.|. X X}.}.}.}.}. X X X X X X X X X X|.|.[.[.[.[.[.[.[.[.[.[.[.[.[.[.[.[.].].].].E.E.R. .o. .o.o.o.o.o.o.o.o.o.o.o.o.o.o.R.E.'.].].[.|. X|. X X X X X X X X X X X X X X X X X|.|. X X X|.|.|. X X X X X X X X|.|.[.[.[.[.[.[.].'.E.T.T.T. . . . . . . . . . . . . . . . . . . . .T.'.].].].].oXXXXX.XE.+.o.o.o.o.o.o.o.o.o.o.o.o.o.o.o.o.p.p.i.i.( ^ C f a y s l / f.OX2X8X8XaXaXpXpXyXyXpXpXiX3X;X^.e.P x g ",
"=.t.k.>X4XnXDXDXaXaXpXsXpXpXpXiX5X1X/.` S k s u f f B L ^ ( { X.X.o.o.o.o.o.o.o.o.o.o.o.o.o.+.+.+.E.'.].XXXXXXoXoXXXXX].'.E.E.R.o. . . .o.o.o.o.o.o.R.E.~.XXXX#X#X$X$X$X X|. X X X}.}. X}.}. X X X X X X X X X X X X[.[.[.[.[.[.[.[.[.[.[.[.[.[.[.[.].].].].E.E.R.o.o. .o.o.o.o.o.o.o.o.o.o.o.o.o.o.R.E.E.].].[.|. X|.|.|. X X X X X X X X X|.|.|.|.|.|. X X X X X X X X|. X X X X X X X|.|.[.[.[.[.[.[.].'.'.T.T.T. . . . . . . . . . . . . . . . . . . . .T.'.].].].].XXXX.X!.E.+.o.o.o.o.o.o.o.o.o.o.o.o.o.o.o.o.p.p.i.i.( ^ C f a y s x / f.OX2X8XiXaXaXpXpXpXpXpXpXiX3X;X^.e.L h g ",
"=.t.k.>X4XnXDXDXaXaXsXsXsXsXpXiX5X1X^.` A k u y a f B L ^ ( X.X.X.o.o. .o.o.o.o.o.o.o.o.o.o.+.+.+.E.'.].XXXXXXoXoXXXXX].'.E.E.+.........o.o.o.o.o.o.R.E.W.XXXX#XXXoX|.$X|.|. X X}.}.`.`.[.[.[.[.[.[.[.[.[.[.[.[.[.[.[.[.[.[.[.[.[.[.[.[.[.[.[.[.[.[.].].].].E.E.R. .o.o.o.o.o.o.o.o.o.o.o.o.o.o.o.o.R.E.E.].].[.|. X|.|.|.|. X X X X X X X X X X X X X X X X X X X X X X X X[.[.[.[.[.[.[.[. X X|.|.|.].].].'.T.T. . . . . . . . . . . . . . . . . . . . ...T.'.].].].[.oXXX.X!.E.+.o.o.o.o.o.o.o.o.o.o.o.o.o.o.o.o.p.i.i.e.( ^ L f a y s x / i.OX;X8XiXaXaXpXpXpXpXpXpXiX3X;X^.e.L B g ",
"=.t.k.>X4XnXGXDXaXaXsXsXsXsXpXiX5X1X^.` A k u y a f B L ^ ( X.X.X.o.o. .o.o.o.o.o.o.o.o.o.o.+.+.+.E.'.].XXXXXXoXoXXXXX].'.E.E.+.o.o... .+.o.o.o.o.o.R.E.E..XXXXXXXoX|.|.|.|. X X}.}.`.`.[.[.[.[.[.[.[.[.[.[.[.[.[.[.[.[.[.[.[.[.[.[.[.[.[.[.[.[.[.[.].].].].E.E.R.o.o.o.o.o.o.o.o.o.o.o.o.o.o.o.o.o.R.E.E.].].[.|. X|. X X X X X X X X X X X X X X X X X X X X X X X X X X X[.[.[.[.[.[.[.[. X X|.|.|.].].].'.E.T. . . . . . . . . . . . . . . . . . . . ...T.'.].].[.[.oXoX.X!.E.+.o.o.o.o.o.o.o.o.o.o.o.o.o.o.o.o.p.i.i.{ ( ^ L f a y s x / i.OX;X8XiXaXaXpXpXpXpXpXpXiX3X;X^.e.L B n ",
"=.t.k.>X4XnXDXDXaXaXsXsXsXsXaXeX3X=X^.` S k u u a f B L ^ ( X.X.X.o.o. .o.o.o.o.o.o.o.o.o.o.+.+.+.E.'.].XXXXXXoXoXXXXX.X'.E.E.+.o.o. . ...+.o.o.o.o.R.E.E..XXXXXXXoX|.|.|.|. X X}.}.`.`.[.[.[.[.[.[.[.[.[.[.[.[.[.[.[.[.[.[.[.[.[.[.[.[.[.[.[.[.[.[.].].].W.E.T.o.o.o.o.o.o.o.o.o.o.o.o.o.o.o.o.o.o.R.E.E.].].[.|. X X X X X X X X X X X X X X X X X X X X X X X X X X X X X[.[.[.[.[.[.[.[. X X|.|.|.].].].'.E.T. . . . . . . . . . . . . . . . . . . . ...T.'.].].[.].oXoX.X.XE.+.o.o.o.o.o.o.o.o.o.o.o.o.o.o.o.o.p.i.i.{ ( ^ L f a y s x / i.OX;X8XaXaXsXsXpXpXpXpXpXiX5X2X^.i.Q B g ",
"=.t.k.>XlXnXGXDXaXaXpXsXsXsXiXeX3X=X(.` A k u u a f B L ^ ( X.X.X.o.o. .o.o.o.o.o.o.o.o.o.o.+.+.+.E.'.].XXXXXXoXoXXXXX.X'.E.E.+.o.o.........o.o.o.o.R.R.E.~.XX#XXXoX$X|.[.[. X X}.}.`.`.[.[.[.[.[.[.[.[.[.[.[.[.[.[.[.[.[.[.[.[.[.[.[.[.[.[.[.[.[.[.].].].].E.T.o.o.o.o.o.o.o.o.o.o.o.o.o.o.o.o.o.o.R.E.E.].].[. X X X X X X X X X X X X X X X X X X X X X X X X X X X X X X[.[.[.[.[.[.[.[. X X X X|.].].].E.T.Y.o. . . . . . . . . . . . . . . . . . . ...T.'.].].].[.oXXX.X!.E.+.o.o.o.o.o.o.o.o.o.o.o.o.o.o.o.o.o.i.i.{ ( ^ L f a y s x / f.OX;X8XaXaXsXsXpXpXpXpXpXiX5X2X^.i.Q B n ",
"=.t.k.>XlXnXGXDXaXaXpXsXsXsXaXeX3X=X(.` A k u u a f B L ^ ( X.X.X.o.o. .o.o.o.o.o.o.o.o.o.o.+.+.E.E.'.].XXXXXXoXoXXXXX.X'.E.E.+.o.o..... ...o.o.o.o.R.E.E.~.XX#XXXoX$X|.[.|. X X}.}.`.`.[.[.[.[.[.[.[.[.[.[.[.[.[.[.[.[.[.[.[.[.[.[.[.[.[.[.[.[.[.[.].].].].E.T.o.o.o.o.o.o.o.o.o.o.o.o.o.o.o.o.o.o.R.E.E.].].|. X X X X|.|.|.|. X X X X|.|. X X X X X X X X[.[.[.[.[.[.[.[.[.[.[.[.[.[.[.[. X X X X X[.].].E.T. .o.o. . . . . . . . . . . . . . . . . . ...T.'.].].[.[.oXXX.X!.E.+.o.o.o.o.o.o.o.o.o.o.o.o.o.o.o.o.o.i.i.{ ( ^ L f d y s x / f.OX2X8XiXaXsXsXpXpXpXpXpXiX5X2X/.i.^ K n ",
"=.t.k.>XlXnXGXDXaXaXsXsXsXsXaXeX3X=X(.` A k u u a f B L ^ ( X.X.X.o.o. .o.o.o.o.o.o.o.o.o.o.+.+.E.E.'.].XXXXXXoXoXXXXX.X'.E.E.+.o.o.+... .o.o.o.o.o.R.E.!..XXX#XXXoX|.|.[.[. X X}.}.`.`.[.[.[.[.[.[.[.[.[.[.[.[.[.[.[.[.[.[.[.[.[.[.[.[.[.[.].].].].].].].].E.E.o.o.o.o.o.o.o.o.o.o.o.o.o.o.o.o.o.o.R.E.E.].].|. X X X X|.|.|.|.|.|.|.|.|.|. X X X X X X X X[.[.[.[.[.[.[.[.[.[.[.[.[.[.[.[. X X X X X].].].E.E.o.o.o. . . . . . . . . . . . . . . . . . ...T.'.].].].].oXXX.X!.E.+.o.o.o.o.o.o.o.o.o.o.o.o.o.o.o.o.o.i.i.{ ( ^ L f a y s x / a.OX2X8XaXaXsXpXpXpXpXpXSXiX5X2X/.i.^ K n ",
"=.t.k.>XlXnXGXDXaXaXsXsXsXsXiXeX3X=X(.` A k u u a f B L ^ ( X.X.X.o.o. .o.o.o.o.o.o.o.o.o.o.+.+.E.E.'.].XXXXXXoXoXXXXX].'.E.E.+.o.o.+...o.o.o.o.o.o.R.E.!..XXX#XXXoX|.|.[.[. X X}.}.`.`.[.[.[.[.[.[.[.[.[.[.[.[.[.[.[.[.[.[.[.[.[.[.[.[.[.[.].].].].].].].].E.E.o.o.o.o.o.o.o.o.o.o.o.o.o.o.o.o.o.o.R.E.E.].].|. X X X X X|.|.|.|.|.|.|.|.|. X X X X X X X X[.[.[.[.[.[.[.[.[.[.[.[.[.[.[.[. X X X X X].].].E.E.o.o.o. . . . . . . . . . . . . . . . . . ...T.'.].].].].oXXX.X!.E.+.o.o.o.o.o.o.o.o.o.o.o.o.o.o.o.o.o.i.i.{ ( ^ L f a y s x / a.OX2X8XaXaXsXsXpXpXpXSXSXaX5X2X*Xi.^ B n ",
"=.t.k.>X4XnXGXDXaXaXsXsXsXsXaXeX3X=X^.` S k u y a f B L ^ ( X.X.o.o.o. .o.o.o.o.o.o.o.o.o.o.+.+.E.E.'.].XXXXXXoXoXXXXX].'.E.E.+. .o.o.o.....o.o.o.o.R.E.E..XXXXXXXoX|.|.|.|. X X}.}.`.`.[.[.[.[.[.[.[.[.[.[.[.[.[.[.[.[.`.`.[.[.[.[.[.[.[.[.].].].].].].].].E.E.o.o.o.o.o.o.o.o.o.o.o.o.o.o.o.o.o.o.R.E.E.].].|. X X X X X X X X X X X X X X X X X X X X X X[.[.[.[.[.[.[.[.[.[.[.[.[.[.[. X X X X X X].].].E.E.R.o.o. . . . . . . . . . . . . . . . . . ...T.'.].].].].oXXX.X!.E.+.o.o.o.o.o.o.o.o.o.o.o.o.o.o.o.o.p.i.i.{ ( ^ L f a y s x / i.OX2X8XaXsXsXsXpXpXpXSXSXFX5X2X*Xd.^ B n ",
"=.t.k.>X4XnXGXDXaXaXsXsXsXsXaXeX3X=X^.` A k u u a f x L ^ ( { X.o.o.o. .o.o.o.o.o.o.o.o.o.o.+.+.E.E.'.].XXXXXXoXoXXXXX].'.E.E.+. .o.o.o.....o.o.o.o.R.E.E..XXXXXXX#X|.|.|.|.|. X}.}.`.`.[.[.[.[.[.[.[.[.[.[.[.[.[.[.[.[.[.[.[.[.[.[.[.[.[.[.[.[.[.].].].].].E.E.R.o.o.o.o.o.o.o.o.o.o.o.o.o.o.o.o.o.R.E.W.].].|. X X X X X X X X X X X X X X|.|. X X X X|.|.[.[.[.[.[.[.[.[.[.[.[.[. X X X X X X X X X].].'.E.E.E.R.o.o. . . . . . . . . . . . . . . . . ...T.'.].].].].oXXX.X!.E.+.o.o.o.o.o.o.o.o.o.o.o.o.o.o.o.o.p.i.i.e.( ^ L f a y s x ! i.OX2X8XaXaXsXpXpXpXpXpXSXiX5X2X^.i.^ B g ",
"=.t.k.>X4XnXGXDXaXaXsXsXsXsXaXeX3X=X^.` S k u u a f B L ^ ( { X.o.o.o. .o.o.o.o.o.o.o.o.o.o.+.+.E.E.'.].XXXXXXoXoXXXXX].'.E.E.+. . .o.o.+.+.o.o.o.o.R.E.E..XXXXXXX#X$X|.|.|. X X}.}.`.`.[.[.[.[.[.[.[.[.[.[.[.[.[.[.[.[.[.[.[.[.[.[.[.[.[.[.[.[.[.[.].].].].E.E.R.o.o.o.o.o.o.o.o.o.o.o.o.o.o.o.o.o.R.E.W.].].|. X X X X X X X X X X X X X X|.|. X X X X|.|.[.[.[.[.[.[.`.`.[.[.[.[. X X X X X X X X|.].].'.E.E.E.R.o.o. . . . . . . . . . . . . . . . . ...T.'.].].[.[.oXoX.X!.E.+.o.o.o.o.o.o.o.o.o.o.o.o.o.o.o.o.p.i.i.{ ( ^ L f a y s l ! i.OX2X8XaXsXsXpXpXpXpXpXSXiX5X2X^.i.T m n ",
"=.t.k.>X4XnXGXDXaXaXsXsXsXsXaXeX3X=X^.` S k u u a f B L ^ ( { X.X.o.o. .o.o.o.o.o.o.o.o.o.o.+.+.E.E.'.].XXXXXXoXoXXXXX].'.E.E.+.....o.o.o.+.o.o.o.o.R.E.!..XXXXX#X#X$X|.|.|. X X}.}.`.`.[.[.[.[.[.[.[.[.[.[.[.[.[.[.[.[.[.[.[.[.[.[.[.[.[.[.[.[.[.[.].].].].E.E.R.o.o.o.o.o.o.o.o.o.o.o.o.o.o.o.o.o.R.E.W.].].|. X X X X X X X X X X X X X X|.|.|. X X X X|.[.[.[.[.[.[.`.`.`.`.`.`. X X X X X X X X|.].].'.'.E.+.+.o.o.o.o.o.o.o.o. . . . . . . . . . . ...T.'.].].[.[.oXoX.X!.E.+.o.o.o.o.o.o.o.o.o.o.o.o.o.o.o.o.p.i.i.{ ( ^ L f a y s l ! i.OX2X8XiXsXsXpXpXpXpXpXSXaX5X;XOXi.^ m n ",
"=.t.k.-X9XnXGXDXaXaXpXsXsXpXiXiX3X=X(.` A s u y a f m L ^ ( { X.X.o.o. .o.o.o.o.o.o.o.o.o.o.+.+.E.E.'.].XXoXXXoXoXXXXX].'.E.E.+.........o.o.o.o.o.o.R.E.!..XXX#X].#X$X$X|.|. X X}.}.`.`.[.[.[.[.[.[.[.[.[.[.[.[.[.[.[.[.[.[.[.[.[.[.[.[.[.[.[.[.[.[.].].].].E.E.R.o.o.o.o.o.o.o.o.o.o.o.o.o.o.R.R.R.R.E.W.].].|. X X X X X X X X X X X X|.|.|.|.|. X X X X X[.[.[.[.[.[.`.[.[.[.[.`. X X X X X X X X|.].].'.'.E.+.+.o.o.o.o.o.o.o.o. . . . . . . . . . . ...T.'.].].[.[.oXoX.X!.E.+.o.o.o.o.o.o.o.o.o.o.o.o.o.o.o.o.o.i.i.{ ( ^ L f a y s l ! i.OX2X8XiXsXsXpXpXpXpXpXSXiX5X;XOXi.T m n ",
"=.t.k.-X9XnXDXDXaXaXpXpXpXpXiXeX3X=X(.` A s u u a f m L ^ ( X.X.X.o.o. .o.o.o.o.o.o.o.o.o.o.R.E.E.E.E.].XXXXXXXXXXXXXX].'.E.+.+.....+.+.o.o.o.o.o.o.R.E.E..XXXXX].[.$X|.|.|. X X X X}.}. X X[.[.[.[.[.[.[.[.[.[.[.[.[.[.[.[.[.[.[.[.[.[.[.[.[.[.[.[.].].].].E.E.R.o.o.o.o.o.o.o.o.o.o.o.o.o.o.o.o.o.R.E.W.].].|. X X X X X X X X X X X X X X X X X X X X X X[.[.[.[.[.[.`.[. X X X X X X X X|.|. X X|.].].'.'.E.E.R.o.o.o.o.o.o.o.o. . . . . . . . . . . ...T.'.].].].[.oXoX.X!.E.+.o.o.o.o.o.o.o.o.o.o.o.o.o.o.o.o.o.i.i.{ ( ^ L f a y s l ! i.OX2X8XiXsXpXpXpXpXpXpXSXiX5X2X).i.T m n ",
"=.t.k.-X9XnXDXDXaXaXsXpXsXsXaXiX3X=X(.` A k u u a f B L ^ ( X.X.X.o.o. .o.o.o.o.o.o.o.o.o.o.R.E.E.E.W.].XXXXXXXXXXXXXX.X'.E.E.+.o.o.o.o.o.o.o.o.o.o.R.E.E..XXXXX].[.|.|.[.[. X X X X}.}. X X[.[.[.[.[.[.[.[.[.[.[.[.[.[.[.[.[.[.[.[.[.[.[.[.[.[.[.].].].].].E.E.R.o.o.o.o.o.o.o.o.o.o.o.o.o.o.o.R.R.R.E.W.].].|. X X X X X X X X|.|.|.|. X X X X X X X X X X[.[.[.[.[.[.[.[. X X X X X X X X|.|. X X|.].].'.'.E.E.R.o.o.o.o.o.o.o.o. . . . . . . . . . . ...T.'.].].].[.oXXX.X!.E.+.o.o.o.o.o.o.o.o.o.o.o.o.o.o.o.o.o.i.i.{ ( ^ L f a y s l ! i.OX%X8XiXsXsXpXpXpXpXpXSXiX5X2X).e.U B n ",
"=.t.k.-X9XnXDXDXaXaXsXsXsXsXiXiX3X=X(.` A k u u a f B L ^ ( ` X.X.o.o. .o.o.o.o.o.o.o.o.o.o.R.E.E.E.W.].XXXXXXXXXXXXXX.X'.E.E.+.o.o.o.o.o.o.o.o.o.o.R.E.E..XXXXX].[.|.[.[.[. X X X X}.}. X X[.[.[.[.[.[.[.[.[.[.[.[.[.[.[.[.[.[.[.[.[.[.[.[.[.[.[.].].].].].E.E.R.o.o.o.o.o.o.o.o.o.o.o.o.o.R.o.R.R.R.E.W.].].|. X X X X X X X X|.|.|.|. X X X X X X X X X X[.[.[.[.[.[.`.[. X X X X X X X X|.|. X X|.[.].'.'.E.E.R.o.o.o.o.o.o.o.o. . . . . . . . . . . ...T.'.].].].].oXXX.X!.E.+.o.o.o.o.o.o.o.o.o.o.o.o.o.o.o.o.o.i.i.X.( ^ L f a y s l ! i.OX2X8XiXsXsXpXpXpXpXpXSXiX5X2X).e.U B n ",
"=.t.k.-X9XnXDXaXaXaXsXsXsXsXaXiX3X=X(.` A k u u a f B L ^ ( X.X.X.o.o. .o.o.o.o.o.o.o.o.o.o.R.R.E.E.E.].XXXXXXXXXXXXXX].'.E.E.+.o.o.......+.o.o.o.o.R.E.E..XXXXX[.|.|.|.|. X X X X X}.}. X X[.[.[.[.[.[.[.[.[.[.[.[.[.[.[.[.[.[.[.[.[.[.[.[.[.[.[.[.[.].].].E.E.R.o.o.o.o.o.o.o.o.o.o.o.o.o.o.o.o.o.R.E.W.].].|.|. X X|.|.|.|.|.|.|.|.|. X X X X X X X X X X[.[.[.[.[.[.`.`. X X X X X X X X|.|. X X X].].'.E.E.E.R.o.o.o.o.o.o.o.o. . . . . . . . . . . ...T.'.].].[.].oXXXXX.XE.+.o.o.o.o.o.o.o.o.o.o.o.o.o.o.o.o.p.i.i.{ ( ^ L f a y s x ! i.OX2X8XiXaXsXpXpXpXpXSXSXiX5X2X/.i.^ B n ",
"=.t.k.-X9XnXDXaXaXaXsXsXsXsXaXiX3X=X(.` A k u u a f B L ^ ( X.X.X.o.o.o.o.o.R.R.R.R.R.R.R.R.R.E.E.E.E.].XXXXXXXXXXXXXX'.'.E.E.+.o.o. . . . .o.o.o.o.+.E.E..XXXXX$X|.|.|. X X[.[.[.[.[.[.[.[.[.[.[.[.[.[.[.[.[.[.[.[.[.[.[.[.[.[.[.[.[.[.[.[.[.[.[.oX].].].].E.E.R.o.o.o.o.o.o.o.o.o.o.o.o.o.o.o.o.o.R.E.E.].].|.|.|. X|. X X X X X X X X X X X X X X[.[.[.[. X X X X[.[.[.[. X X X X[.[.[.|.|.|. X X X].].].E.E.E.R.o.o.o.o.o.o.o.o. . . . . . . . . . . ...T.'.].].].].oXXX.XE.E.+.o.o.o.o.o.o.o.o.o.o.o.o.o.o.o.o.p.i.i.e.( ^ L f a y s x / i.OX;X8XaXaXsXpXpXpXpXSXSXFX5X2X/.i.^ K n ",
"=.t.h.-X9XnXDXaXaXpXsXsXsXpXaXiX3X=X(.` A k u u a f B L ^ ( X.X.X.o.o.o.o.o.R.R.R.R.R.R.R.R.R.E.E.E.E.].XXXXXXXX#XXXXX'.'.E.E.+.o... . . . .o.o.o.o.+.E.E..XXXXXoX|.|.|.|.|.[.[.[.[.[.[.[.[.[.[.[.[.[.[.[.[.[.[.[.[.[.[.[.[.[.[.[.[.[.[.[.[.[.[.oXoX].].].].E.E.E. .o.o.o.o.o.o.o.o.o.o.o.o.o.o.o.o.R.E.E.].].|. X X X|.|.|.|. X X X X X X X X X X X[.[.[.[. X X X X[.[.[.[. X X X X[.[.[.[. X X X X X].].].E.E.E.R.o.o.o.o.o.o.o.o. . . . . . . . . . . ...T.'.].].].].XXXX.XE.E.+.o.o.o.o.o.o.o.o.o.o.o.o.o.o.o.o.p.i.i.{ ( ^ L f a y s x / i.OX;X8XaXaXsXpXpXpXpXSXSXFX5X2X/.i.^ K n ",
"=.t.h.-X9XnXDXaXaXpXsXsXsXpXaXiX3X=X^.` A k u u a f B L ^ ( X.X.X.o.o.o.o.o.R.R.R.R.R.R.R.R.R.E.E.E.E.].XXXXXXXX#XXXXX'.'.E.E.+. . . . . . .o.o.o.o.+.E.E..XXXXXoX|.|. X|.|.[.[.[.[.[.[.[.[.[.[.[.[.[.[.[.[.[.[.[.[.[.[.[.[.[.[.[.[.[.[.[.[.[.[.oXoX].].].].E.E.E. .o.o.o.o.o.o.o.o.o.o.o.o.o.o.o.o.R.E.E.].].|.|. X X|.|.|.|. X X X X X X X X X X X[.[.[.[. X X X X[.[.[.[. X X X X[.[.[.[. X X X X X].].].E.E.E.R.o.o.o.o.o.o.o.o. . . . . . . . . . . ...T.'.].].].].XXXX.XE.+.+.o.o.o.o.o.o.o.o.o.o.o.o.o.o.o.o.p.i.i.{ ( ^ L f a y s x / i.OX2X8XaXaXsXpXpXpXpXSXSXFX5X2X^.i.U K n ",
"=.t.h.-X9XnXDXaXaXsXuXsXpXpXaXiX5X=X(.` A k u u a f B L ^ ( ` X.X.o.o.o.o.o.R.R.R.R.R.R.R.R.R.E.E.E.E.].XXXXXX$XXXXXXX'.'.E.E.+.+.+. . . . .o.o.o.o.+.E.E.XXXXoX[.|.|.|.|.|.[.[.[.[.[.[.[.[.[.[.[.[.[.[.[.[.[.[.[.[.[.[.[.[.[.[.[.[.[.[.[.[.[.[.oXoX].].].].E.T.T. .o.o.o.o.o.o.o.o.o.o.o.o.o.o.o.o.R.E.W.].].|. X X X X|.|. X X X X X X X X X X X X[.[.[.[. X X X X[.[.[.[.|. X|.|. X X X X X X X X X].].].E.E.E.R.o.o.o.o.o.o.o.o. . . . . . . . . . . ...T.'.].].].].XXXX.XE.E.+.o.o.o.o.o.o.o.o.o.o.o.o.o.o.o.o.o.i.i.{ ( ^ L f a y s B / i.OX;X8XaXaXsXpXpXpXpXSXSXFX5X2X).i.^ K n ",
"=.t.h.-X9XnXDXaXaXsXuXpXpXpXaXiX5X=X(.` c s s u a f B L ^ ( ` X.X.o.o.o.o.o.R.R.R.R.R.R.R.R.R.R.E.E.W.].XX#XXX#XXXXXXX].E.E.E.+.+.+. . . . .o.o.o.o.+.E.E.XXXXoX[.[.[.[.[.[.[.[.[.[.[.[.[.[.[.[.[.[.[.[.[.[.[.[.[.[.[.[.[.[.[.[.[.[.[.[.[.[.[.[.oXoX].].].].E.T.T. .o.o.o.o.o.o.o.o.o.o.o.o.o.o.o.o.R.E.W.].].|. X X X|. X X X X X X X X}.}. X X}.}. X X X X X X X X X X X X|. X X|. X|.|. X X X X X X].].].E.E.E.R. . .o.o.o.o.o.o. . . . . . . . . . . ...T.'.].].].].XXXX.XE.E.+.o.o.o.o.o.o.o.o.o.o.o.o.o.o.o.o.o.i.i.{ ( ^ L f a y s x ^ a.OX;X8XiXaXsXpXpXpXpXSXSXAX5X2X^.i.^ K N ",
"=.t.h.-X9XqXDXaXaXsXpXpXpXpXpXiX5X=X^.( c k u y a f B L Q ( ` X.X.o.o.o.o.o.R.R.R.R.R.R.R.R.R.R.E.E.W.].XX#XXX#XXXXXXX].E.E.E.+.+.+. . . . .o.o.o.o.+.E.E..XXXoX[.[.[.[.[.[.[.[.[.[.[.[.[.[.[.[.[.[.[.[.[.[.[.[.[.[.[.[.[.[.[.[.[.[.[.[.[.[.[.[.oXoX].].].].E.T.T. .o.o.o.o.o.o.o.o.o.o.o.o.o.o.o.o.R.E.W.].].|. X|. X|. X X X X X X X X}. X X X}.}. X X X X X X X X X X X X X X X|.|.|.|.|. X X|. X X].].].E.E.E.R. . .o.o.o.o.o.o. . . . . . . . . . . ...T.'.].].].].oXXX.XE.E.+.o.o.o.o.o.o.o.o.o.o.o.o.o.o.o.o.o.i.i.{ ( ^ L f d y s x / a.OX;X8XaXaXsXpXpXpXpXSXSXAX5X2X^.i.^ K n ",
"=.t.h.-X9XqXDXaXaXpXpXpXpXpXpXeX5X=X(.( c k s y a f B L ^ ( ` X.X.o.o.o.o.o.o.o.o.o.o.o.o.o.R.E.E.E.W.].XXXXXX#XXXXXXX'.'.E.E.+.+.+. . . . .o.o.o.o.+.E.E..XXXoX[.[.[.[.[.[.[.[.[.[.[.[.[.[.[.[.[.[.[.[.[.[.[.[.[.[.[.[.[.[.[.[.[.[.[.[.[.[.[.[.oXoX].].].].E.T.T. .o.o.o.o.o.o.o.o.o.o.o.o.o.o.o.o.R.E.E.].].|.|.|. X X X X X X X X X X}.}. X X}.}. X X X X X X X X X X X X X X|.|. X X X X X X|. X X].].].E.E.E.R. . .o.o.o.o.o.o. . . . . . . . . . . ...T.'.].].].].oXXX.XE.E.+.o.o.o.o.o.o.o.o.o.o.o.o.o.o.o.o.o.i.i.X.( ^ L f f y s B / a.OX;X8XaXaXsXpXpXpXpXSXSXAX5X2X).i.Q K n ",
"=.w.h.-X9X0XDXaXaXsXuXpXpXpXpXeX3X=X^.( c s s y a f B L ^ ( ` X.X.o.o.o.o.o.o.o.o.o.o.o.o.o.R.E.E.E.E.].XXXXXXXXXXXXXX'.'.E.E.+.o.o. . . . .o.o.o.o.+.E.E..XXXoX[.[.[.[.[.[.[.[.[.[.[.[.[.[.[.[.[.[.[.[.[.[.[.[.[.[.[.[.[.[.[.[.[.[.[.[.[.[.[.[.oXoXXX].].].E.T.T. .o.o.o.o.o.o.o.o.o.o.o.o.o.o.o.o.R.E.E.].].|.|.|. X X X X|.|. X X X X X X X X X X X X X X X X X X X X X X X X X X X X|.|.|.|.|. X X[.].].W.E.E.R. . .o.o.o.o.o.o. . . . . . . . . . . ...T.'.].].].].oXXX.XE.E.+.o.o.o.o.o.o.o.o.o.o.o.o.o.o.o.o.p.i.i.{ ( ^ L f d y f x / a.OX;X8XaXsXsXpXpXpXpXSXSXAX5X2X^.i.^ K n ",
"=.t.h.-X9X0XDXaXaXpXuXpXpXpXpXeX3X=X^.( c s s y a f B L ^ ( X.X.X.o.o.o.o.o.o.o.o.o.o.o.o.o.R.E.E.E.E.].XXXXXXXXoXXXXX].'.E.E.+.o.o. .o.+.+.o.o.o.o.+.E.E..XXXoX[.[.[.[.[.[.[.[.[.[.[.[.[.[.[.[.[.[.[.[.[.[.[.[.[.[.[.[.[.[.[.[.[.[.[.[.[.[.[.[.oXoXXX].].].E.T.T. .o.o.o.o.o.o.o.o.o.o.o.o.R.R.R.R.R.E.E.].].].|.|. X X X X|.|. X X X X X X X X X X X X X X X X X X X X[.[. X X X X X X|.|. X X|. X X].].].E.E.E.R.o. .o.o.o.o.o.o.o.o.o.o.o.o.o.o. . . ...T.'.].].].].oXXX.XE.E.+.o.o.o.o.o.o.o.o.o.o.o.o.o.o.o.o.p.i.i.e.( ^ C f f y s z / a.OX2X8XaXsXFXsXsXpXpXHXFXFX0X2X^.d.^ K N ",
"=.t.h.-X9XqXDXaXaXtXuXpXpXpXpXiX3X=X^.( c s s y a f B L ^ ( X.X.X.o.o.o.o.o.o.o.o.o.o.o.o.o.R.E.E.E.E.].XXXXXXXX#XXXXX].'.E.E.+. . . . .+.+.o.o.o.o.+.E.!..XXXoXoXoX[.[.[.[.[.[.[.[.[.[.[.[.[.[.[.[.[.[.[.[.[.[.[.[.[.[.[.[.[.[.[.[.[.[.[.[.[.[.oXoXXX].].].E.T.T. .o.o.o.o.o.o.o.o.o.o.o.o.R.R.R.R.R.E.E.].].].|.|. X X X X|.|. X X X X X X}.}. X X X X X X X X X X X X[.[. X X X X X X|.|. X X|. X X].].].W.T.E.R.o. .o.o.o.o.o.o.o.o.o.o.o.o.o.o. . . ...T.'.].].].].oXXX.XE.E.+.o.o.o.o.o.o.o.o.o.o.o.o.o.o.o.o.p.i.i.{ ( ^ C f f y s z / a.OX2X8XaXsXFXsXpXgXgXHXFXFX0X2X^.d.^ K N ",
"=.t.h.-X9XqXDXaXaXtXuXpXpXpXpXiX3X=X^.( c s a a a f B L ^ ( X.X.X.o.o.o.o.o.o.o.o.o.o.o.o.o.+.+.E.E.E.].XXXXXXoXoXXXXX].'.E.E.+... . . .+.+.o.o.o.o.+.E.!.XXXXoXoXoX[.[.[.[.[.[.[.[.[.[.[.[.[.[.[.[.[.[.[.[.[.[.[.[.[.[.[.[.[.[.[.[.[.[.[.[.[.[.oXoXXX].].].E.T.T. .o.o.o.o.o.o.o.o.o.o.o.o.R.R.R.R.R.E.E.].].].|.|. X X X X|.|. X X X X X X}.}. X X X X X X X X X X X X[.[. X X|. X X X X|. X X X X X].].].W.T.E.T.o. .o.o.o.o.o.o.o.o.o.o.o.o.o.o. . . ...T.'.].].].].XXXX.XE.E.+.o.o.o.o.o.o.o.o.o.o.o.o.o.o.o.o.p.i.i.{ ( ^ L h f d s z / a.OX2X8XaXsXFXsXpXgXgXHXFXFX0X;X*Xd.^ K N ",
"=.t.h.-X9XqXDXaXaXpXpXpXpXpXpXiX3X=X^.( c s a a a f B L ^ ( X.X.X.o.o.o.o.o.o.o.o.o.o.o.o.o.+.+.E.E.'.].XXXXXXoXoXXXXX.X'.E.E.+.+.+.o. . . .o.o.o.o.+.E.!..XXXoXoX[.[.[.[.[.[.[.[.[.[.[.[.[.[.[.[.[.[.[.[.[.[.[.[.[.[.[.[.[.[.[.[.[.[.[.[.[.[.[.oXoX].].].].E.E.T. . . .o.o.o.o.o.o.o.o.o.o.R.R.R.R.R.E.W.].].|.|.|. X X|.|.|.|. X X X X X}.}.}.}.}. X X X X X X X X X X X X X X|.|. X X|.|. X X X X X|.].].E.T.T.T.o. .o.o.o.o.o.o.o.o.o.o.o.o.o.o. . . ...T.'.].].].].oXXX.XE.E.+.o.o.o.o.o.o.o.o.o.o.o.o.o.o.o.o.o.i.i.{ ( ^ L h f d s z / a.OX2X8XaXsXFXsXpXgXgXHXFXFX0X2X*Xd.^ K n ",
"=.t.k.-X9XqXDXaXaXpXhXhXpXpXpXiX3X=X^.( c s s y a f B L ^ ( X.X.X.o.o.o.o.o.o.o.o.o.o.o.o.o.+.+.E.E.'.].XXXXXXoXoXXXXX.X'.E.E.+.+.+.o.o. . .o.o.o.o.+.E.!..XXXoXoXoX[.[.[.[. X|. X X[.[.[.[.[.[.[.[.[.[.[.[.[.[.[.[.[.[.[.[.[.[.[.[.[.[.[.[.[.[.[.[.].].XX].E.E.R. .o.o.o.o.o.o.o.o.o.o.o.o.R.R.R.R.R.E.W.].].].|.|.|.|. X X X X X X X X X X X X X X X X X X X X X X X X X X X|.|.|.|.|. X X X X|.|.|.|.].].W.T.T.T.o. .o.o.o.o.o.o.o.o.o.o.o.o.o.o. . . ...T.'.].].].].oXXX.XE.E.+.o.o.o.o.o.o.o.o.o.o.o.o.o.o.o.o.o.i.i.{ ( ^ L h f y s z / a.OX2X8XaXsXFXsXpXgXgXHXFXFX0X4X*Xd.^ K n ",
"=.t.k.-X9XnXDXaXaXpXhXhXpXpXpXiX3X=X^.( c s s y a f B L Q ( X.X.X.o.o.o.o.o.o.o.o.o.o.o.o.o.+.+.E.E.'.].XXXXXXoXoXXXXX].'.E.E.+.+.+.+.o. . .o.o.o.o.+.E.!..XXXoXoX[.[.[.[.[. X X X X[.[.[.[.[.[.[.[.[.[.[.[.[.[.[.[.[.[.[.[.[.[.[.[.[.[.[.[.[.[.[.[.].].XX].E.E.R.o.o.o.o.o.o.o.o.o.o.o.o.o.R.R.R.R.R.E.W.].].|.|.|.|.|. X X X X X X X X X X X X X X X X X X X X X X X X X X|.|.|.|.|.|. X X X X|.|.|.|.].].E.E.T.T. . .o.o.o.o.o.o.o.o.o.o.o.o.o.o. . . ...T.'.].].].].oXXX.XE.E.+.o.o.o.o.o.o.o.o.o.o.o.o.o.o.o.o.o.i.i.{ ( ^ L h f u s z / a.OX2X8XaXsXFXsXpXgXgXHXFXFX0X4X*Xd.^ K n ",
"=.t.k.-X9XnXDXaXaXpXhXhXpXpXpXiX3X=X^.( c s s y a f B L ^ ( X.X.X.o.o.o.o.o.o.o.o.o.o.o.o.o.+.+.E.E.'.].XXXXXXoXoXXXXX].'.E.E.+.+.+.o.o. . .o.o.o.o.+.E.!..XXXoXoX[.[.[.[.[. X X X X[.[.[.[.[.[.[.[.[.[.[.[.[.[.[.[.[.[.[.[.[.[.[.[.[.[.[.[.[.[.[.[.].].XX].E.E.R.o.o.o.o.o.o.o.o.o.o.o.o.o.R.R.R.R.R.E.W.].].].|.|.|.|. X X X X X X X X X X X X X X X X X X X X X X X X X X|.|.|.|.|.|. X X X X|.|.|.|.].].E.T.T.T. . .o.o.o.o.o.o.o.o.o.o.o.o.o.o. . . ...T.'.].].].].oXXX.XE.E.+.o.o.o.o.o.o.o.o.o.o.o.o.o.o.o.o.o.i.i.X.( ^ C f f y s x / a.OX2X8XaXsXsXpXpXpXpXSXSXFX5X2X).i.U K n ",
"=.t.k.-X9XnXDXDXaXpXpXhXpXpXpXiX3X+X^.` c k s y a f B L ^ ( X.X.X.o.o.o.o.o.o.o.o.o.o.o.o.o.+.+.E.E.E.].XXXXXXoXoXXXXX].'.E.E.+. .o.o.o.....o.o.o.o.+.E.E..XXXoXoXoX[.[.[.[. X X X X[.[.[.[.[.[.[.[.[.[.[.[.[.[.[.[.[.[.[.[.[.[.[.[.[.[.[.[.[.[.[.[.].].].].E.E.R.o. . .o.o.o.o.o.o.o.o.o.o.R.R.R.R.R.E.E.W.].].$X X X X X X X X X X X X X X X X X X X X X X X X X X X X X X X X X X X X X X X X|.|.|.].].].E.E.T.T.o. .o.o.o.o.o.o.o.o.o.o.o.o.o.o. . . ...T.'.].].].].XXXX.XE.E.+.o.o.o.o.o.o.o.o.o.o.o.o.o.o.o.o.o.X.X.{ ( ^ L f d y s z / a.OX2X8XaXaXsXpXpXpXpXSXSXFX5X2X^.i.^ K n ",
"=.t.k.-X9XnXGXFXpXpXpXpXpXpXSXiX3X1X(.( c s s a f f B L ^ ( { X.X.o.o.o.o.o.o.o.o.o.o.o.o.o.o.+.+.E.E..XXXXXXXoXoXXXXX.X'.E.E.+. .o.o.o.....o.o.o.+.E.E.E..XXXXXoX$X|.|. X X X X X X[.[.[.[.[.[.[.[.[.[.[.[.[.[.[.[.[.[.[.[.[.[.[.[.[.[.[.[.[.[.[.[.].].].].E.E.E.o.o.o.o.o.o.o.o.o.o.o.o.o.o.o.o.o.R.E.E.].].].$X X X X X X X X X X|.|. X X X X X X X X|.|. X X X X X X X X X X X X|.|.|.|.$X X|.|.|.|.].].E.T.....o. . . .o.o.o.o. . . . . . . . . . . ...T.'.].].].].XXXX.XE.E.+.o.o.o.o. . . . .o.o.o.o.o.o.o.o.o.o.i.i.( ^ C f d y s x / f.*X2X8XaXaXsXpXpXpXpXSXSXFX5X2X^.i.^ K n ",
"=.t.k.>X4XnXGXDXaXpXpXpXpXpXSXiX3X=X(.` c s s u f f B L Q ( { X.X.| o.o.o.o.o.o.o.o.o.o.o.o.o.+.+.E.E..XXXXXXXoXoXXXXX.X'.E.E.+. . .o.o.+.+.o.o.o.+.E.E.E..XXXXXoX|.|.|. X X X X X X[.[.[.[.[.[.[.[.[.[.[.[.[.[.[.[.[.[.[.[.[.[.[.[.[.[.[.[.[.[.[.[.].].].].E.E.R. .o.o.o.o.o.o.o.o.o.o.o.o.o.o.o.o.R.E.E.].].].$X X X X X X X X X X X|. X X X X X X X X|.|. X X X X X X X X X X X X|.|.|.|.$X$X|.|.|. X].].'.T..... . . . .o.o.o.o. . . . . . . . . . . ...T.'.].].].].XXXX.XE.E.+.o.o.o.o. . . . .o.o.o.o.o.o.o.o.o.o.i.i.( ^ C f a y s x ( f.*X2X8XaXaXsXpXpXpXpXSXSXFX5X2X^.i.^ K n ",
"=.t.k.>X4XnXGXDXaXpXpXpXpXpXpXiX3X=X(.( c s s u f f B L Q ( { X.X.| o.o.o.o.o.o.o.o.o.o.o.o.o.+.+.E.E..XXXXXXXoXoXXXXX.X'.E.E.+.....o.o.o.+.o.o.o.+.+.E.E..XXXXXoX|.|.|. X X X X X X[.[.[.[.[.[.[.[.[.[.[.[.[.[.[.[.[.[.[.[.[.[.[.[.[.[.[.[.[.[.[.[.].].].].E.E.R. .o.o.o.o.o.o.o.o.o.o.o.o.o.o.o.o.R.E.E.].].].|. X X X X X X X X X X X X X X X X X X X|.|. X X X X X X X X X X X X|.|.|.|.$X$X|.|.|. X].].'.T..... . . . . . .o.o. . . . . . . . . . . ...E.'.].].].].XXXX.XE.E.+.o.o.o.o. . . . . . .o.o.o.o.o.o.o.o.i.i.( ^ C f a y s x / f.*X2X8XiXaXsXpXpXpXpXSXSXiX5X;X^.e.L K n ",
"=.t.k.>XlXmXGXDXFXpXpXpXpXpXpXiX3X=X(.( c k s u f f B L ^ ( { X.X.X.o.o.o.o.o.o.o.o.p.o.o.o.o.+.+.E.E..XXXXXXXoXoXXXXX.X'.E.E.+.........o.o.o.o.o.+.+.E.E.].XXoX[.|.|.|.|.|. X X X X[.[.[.[.[.[.[.[.[.[.[.[.[.[.[.[.[.[.[.[.[.[.[.[.[.[.[.[.[.[.[.[.XX].].].E.E.R.o.o.o.o.o.o.o.o.o.o.o.o.o.o.o.o.o.R.E.E.].XX#X|. X X X X X|.|.|.|.|.|. X X X X X X X X X X X X X X X X X X X X X X|.|.|.|.|.|.|.|.|.].].].'.T.+... . . . . . .o.o. . . . . . . . . . . ...E.'.].].].].XXXX.XE.E.+.o.o.o.o. . . . . . .o.o.o.o.o.o.o.o.i.i.( ^ C f y y s x / f.*X2X8XiXaXsXpXpXpXpXpXSXiX5X;X^.i.L K n ",
"=.t.k.>XlXmXGXDXDXpXpXpXpXpXaXiX3X=X(.( c k u u f f B L ^ ( { X.X.X.o.o.o.o.o.o.o.o.o.o.o.o.o.+.+.E.E..XXXXXXXoXoXXXXX.X'.E.E.+.....+.+.o.o.o.o.o.+.+.E.E.].XXoX[.|.|.|.|.|. X X X X}. X X X[.[.[.[.[.[.[.[.[.[.[.[.[.[.[.[.[.[.[.[.[.[.[.[.[.[.[.[.].].].].E.E.R.o.o.o.o.o.o.o.o.o.o.o.o.o.R.R.o.o.R.E.E.].].|.|. X X X X X X X|.|.|.|. X X|.|. X X X X X X X X X X X X X X X X X X|.|. X|.|.|.|.|.|.].].].'.E..... . . . .o.o.o.o. . . . . . . . . . . .+.E.'.].].].].XXXX.XE.E.+.o.o.o.o. . . . . . .o.o.o.o.o.o.o.o.i.i.( ^ C f y y s x / f.*X2X8XaXaXsXpXpXpXpXSXSXAX5X2X^.i.^ K n ",
"=.t.k.>XlXmXGXDXDXpXpXpXpXpXSXiX3X=X(.` A k s u f f B L ^ ( { X.X.X.o.o.o.o.o.o.o.o.o.o.o.p.o.+.+.E.E..XXXXXXXoXoXXXXX.X'.E.E.+.o.o.o.o.o.o.o.o.o.+.+.E.E.].XXoX[.$X X|.|. X X X X X}. X X X[.[.[.[.[.[.[.[.[.[.[.[.[.[.[.[.[.[.[.[.[.[.[.[.[.[.[.[.].].].].E.E.E.o.o.o.o.o.o.o.o.o.o.o.o.o.R.R.o.o.R.E.E.].XX#X$X$X X X X X X X|.|.|.|. X X|.|. X X X X X X X X X X X X X X X X X X X X X X$X|.|.|.|.].].].'.T..... . . . .o.o.o.o. . . . . . . . . . . .+.E.'.].].].].XXXX.XE.E.+.o.o.o.o. . . . . . .o.o.o.o.o.o.o.o.i.i.( ^ C f y y s x / f.*X;X8XaXaXsXpXpXpXpXSXSXAX5X2X/.i.^ K n ",
"=.t.k.>XlXmXGXDXDXpXpXpXpXpXpXiX3X=X(.` A k u u f f B L ^ ( { X.X.X.o.o.o.o.o.o.o.o.o.o.o.o.o.+.+.E.E..XXXXXXXoXoXXXXX.X'.E.E... . .o.o.o.o.o.o.o.+.+.E.E.].XXoX[.$X X X|. X X X X X`.`.[.[.[.[.[.[.[.[.[.[.[.[.[.[.[.[.[.[.[.[.[.[.[.[.[.[.[.[.[.[.].].].].E.E.E.o.o.o.o.o.o.o.o.o.o.o.o.o.R.R.o.o.R.E.E.W.XXXX$X$X X X X X X X X|.|.|. X X|.|. X X X X X X X X X X X X X X X X X X X X X X$X$X|.|.|.].].].'.T....... . . . . .o.o. . . . . . . . . . . .+.E.'.].].].].XXXX.XE.+.+.o.o.o.o. . . . .o.o.o.o.o.o.o.o.o.o.i.i.( ^ C f y y s x / f.OX;X8XaXaXsXpXpXpXpXSXSXFX5X2X^.i.^ K n ",
"=.t.k.>XlXmXGXDXFXSXpXpXpXpXSXiX3X+X(.` A k u u f f B L ^ ( ( X.X.o.o.o.o.o.o.o.o.o.o.o.o.o.o.o.+.E.!..XXXXXXXoXoXXXXX.X'.E.E... . .+.o.o.o.o.o.o.+.+.E.E.].XXoX[.$X X X X X|. X X}.[.[.[.[.[.[.[.[.[.[.[.[.[.[.[.[.[.[.[.[.[.[.[.[.[.[.[.[.[.[.[.[.].].XX].E.E.R.o.o.o.o.o.o.o.o.o.o.o.o.o.R.R.o.o.R.E.E.].XXXX$X$X|.|.|.|. X X X X X X|.|. X X X X X X X X X X X X X X X X X X X X X X|.|.$X$X|.|.|.].].].'.T..... . . . . . . . . . . . . . . . . . . .+.E.'.].].].].XXXX.XE.E.+.o.o.o.o. . . . .o.o.o.o.o.o.o.o.o.o.i.i.( ^ C f y y s x / f.OX2X8XaXaXsXpXpXpXpXSXSXFX5X2X).i.^ K N ",
"=.t.k.>XlXmXGXDXFXSXpXpXpXpXSXiX3X+X(.` A k u u f f B L ^ ( ` X.o.o.o.o.o.o.o.o.o.o.o.o.o.o.o.o.+.E.!..XXXXXXXoXoXXXXX.X'.E.E... . .....o.o.o.o.o.R.R.E.E.].XX#X[.$X X X[.[.|. X}.}.`.`.[.[.[.[.[.[.[.[.[.[.[.[.[.[.[.[.[.[.[.[.[.[.[.[.[.[.].].[.[.].]..X].E.E.R.o.o.o.o.o.R.R.R.R.R.R.R.R.R.R.R.R.R.E.E.].XXXX$X$X|.|.|.|.|.|. X X X X X X X X X X X X X X X X X X X X X X X X X X X|.|.|.$X$X|.|.[.].].].E.T.T... ... . . . . . . . . . . . . . . . . .+.E.'.].].].].XXXX.XE.E.+.o.o.o.o.o.o.o.o.o.o.o.o.o.o.o.o.o.o.i.i.( ^ V f a y s x / f.OX2X8XaXaXsXpXpXpXpXSXSXFX5X2X).i.^ K n ",
"=.t.k.>XlXmXGXDXFXSXpXpXpXpXpXiX3X=X(.` A k u u f f B L ^ ( ` ` X.X.X.o.o.o.o.o.o.o.o.o.o.o.o.p.+.E.!..XXXXXXXoXoXXXXX].'.E.E... ......... .o.o.o.R.E.E.E.].XX#X[.$X X X[.[.|. X}.}.`.`.[.[.[.[.[.[.[.[.[.[.[.[.[.[.[.[.[.[.[.[.[.[.[.[.[.[.].].[.[.].]..X].E.E.R.o.o.o.o.o.R.R.R.R.R.R.R.R.R.R.R.R.R.E.E.].XXXX$X$X|.|.|.|.|.|. X X X X X X X X X X X X X X X X X X X X X X X X X X X X|.|.|.|.|.|.|.].].].E.T.T. . ... . . . . . . . . . . . . . . . . ...T.'.].].].].XXXX.XE.E.+.o.o.o.o.o.o.o.o.o.o.o.o.o.o.o.o.o.o.i.i.( ^ V f a y s x / f.OX2X8XaXsXsXpXpXgXgXSXSXFX5X2X/.i.T K n ",
"=.t.k.>XlXmXGXDXFXSXpXpXpXpXSXiX3X=X(.` A k u u f f B L ^ ( ` ` X.o.X.o.o.o.o.o.o.o.o.o.o.o.o.s.+.E.!..XXXXXXXoXoXXXXX].'.E.E............. .o.o.o.R.E.E.E.].XX#X[.$X X X[.[.[.[.`.`.`.`.[.[.[.[.[.[.[.[.[.[.[.[.[.[.[.[.[.[.[.[.[.[.[.[.[.[.[.[.[.[.].]..X].E.E.E.o.o.o.o.o.R.R.R.R.R.R.R.R.R.R.R.R.R.E.E.].XXXX$X$X|.|.|.|.|.|. X X X X X X X X X X X X X X X X X X X X X X X X X X X X|.|.|.|.|.|.|.[.].].E.T.T. . ... . . . . . . . . . . . . . . . . ...T.'.].].].].XXXX.XE.E.+.o.o.o.o.o.o.o.o.o.o.o.o.o.o.o.o.o.o.i.i.( ^ V f a y s x / f.OX2X8XaXsXsXpXpXgXgXSXSXAX0X;XOXi.^ K n ",
"=.t.k.>XlXmXGXDXFXpXpXpXpXpXpXiX3X1X(.` c s u u f f B L ^ ( ` X.X.o.X.o.o.o.o.o.o.o.o.o.o.o.o.p.+.E.!..XXXXXXXoXoXXXXX].'.E.T..... . . . .o.o.o.o.o.E.E.E..XXX$X[.$X|.|.[.[.[.[.`.`.`.`.[.[.[.[.[.[.[.[.[.[.[.[.[.[.[.[.[.[.[.[.[.[.[.[.[.[.[.[.[.[.].]..X].E.E.E.o.o.o.o.o.R.R.R.R.R.R.R.R.R.R.R.R.R.E.E.]..XXX$X$X|.|. X X|.|. X X X X X X X X X X X X X X X X X X X X X X X X X X|.|.|.|.|.|.|.|.[.].].].E.E. . . . . . . . . . . . . . . . . . . . . ...T.'.].].].].XXXX.XE.E.+.o.o.o.o.o.o.o.o.o.o.o.o.o.o.o.o.o.o.i.i.( ^ C f a y s l / p.OX2X8XaXsXsXpXpXpXpXSXSXAX0X;XOXi.T K n ",
"=.t.k.>XlXmXGXDXDXpXpXpXpXpXpXiX3X1X(.` A k u u f f B L ^ ( 0.X.X.o.o.o.o.o.o.o.o.o.o.o.o.o.o.p.+.E.!..XXXXXXXoXoXoXXX].'.E.E... . . . .o.o.o.o.o.o.E.E.E..XXXoX[.$X|.|.[.[.[.[.`.`.`.`.[.[.[.[.[.[.[.[.[.[.[.[.[.[.[.[.[.[.[.[.[.[.[.[.[.[.[.[.[.].].]..X].E.E.E.R.R.o.o.o.R.R.R.R.R.R.R.R.R.R.R.R.R.E.E.].XXXXoX|.|. X X X X X X X X X X X X X X X X X X X X X X X X X X X X X X X X X X|.|.|.|.|.[.].].].E.E. . . . . . . . . . . . . . . . . . . . . .T.T.'.].].].].XXXX.XE.E.+.o. .o.o. . . . .o.o.o.o.o.o.o.o.o.o.i.i.( ^ C f a y s l / p.OX2X8XiXsXsXpXpXpXpXpXSXiX5X;X^.e.L m n ",
"=.t.k.>XlXnXGXDXDXpXpXpXpXpXpXtX3X1X(.` A k u u f f B L ^ ( 0.X.X.o.o.o.o.o.o.o.o.o.o.o.o.o.o.o.+.E.!..XXXXXXXoXoXXXXX].'.E.E... . . . . . .o.o.o.o.R.E.E.].XXoX[.|.|.|.[.[.[.[.`.`.[.[.[.[.[.[.[.[.[.[.[.[.[.[.[.[.[.[.[.[.[.[.[.[.[.[.[.[.[.[.|.[.].].XX].W.E.E.R.R.o.o.o.R.R.R.R.R.R.R.R.R.R.R.R.R.E.E.].XXXXoX|.|. X[.[. X X X X X X X X X X X X X X X X X X X X X X X X X X X X|.|. X X|.|.|.|.[.[.].].E.E.T. . . . . . . . . . . . . . . . . . . . .E.E.'.].].].].XXXX.XE.E.+.o. .o.o. . . . .o.o.o.o.o.o.o.o.o.o.i.i.( ^ C f a y s l / p.OX2X8XiXsXsXpXpXpXpXpXSXiX5X;X^.e.L B n ",
"=.t.k.>XlXnXGXDXDXpXpXpXpXpXpXtX3X1X(.` c k u u f f B L / ( ` X.X.p.o.o.o.o.o.o.o.o.o.o.o.o.o.o.+.E.!..XXXXXXXoXoXXXXX].'.E.E... . . . . . .o.o.o.o.R.E.E.].XXoX[.$X|.|.[.[.[.[.`.`.[.[.[.[.[.[.[.[.[.[.[.[.[.[.[.[.[.[.[.[.[.[.[.[.[.[.[.[.[.[.|.[.[.].XX].].E.E.R.R.o.o.o.R.R.R.R.R.R.R.R.R.R.R.R.R.R.E.].XXXXoX|.|. X[.[. X X X X X X X X X X X X X X X X X X X X X X X X X X X X|.|. X X|.|.|.|.[.[.].].E.T.T. . . . . . . . . . . . . . . . . . . . .E.E.'.].].].].XXXX.XE.E.R.o. . . . . . . . . .+.+.o.o.o.o.o.o.i.i.( ^ C f y y s l / p.OX2X8XiXsXsXpXpXpXpXpXSXiX5X;X^.e.L B n ",
"=.t.k.>XlXnXGXDXDXpXpXpXpXpXpXiX3X1X(.` A k u u f f B L / ( ` X.X.o.o.o.o.o.o.o.o.o.o.o.o.o.o.o.+.E.!..XXXXXXXoXoXXXXX.X'.E.E... . . . . . .o.o.o.o.R.E.E.].XXoX[.|.|.|.[.[.[.[.`.[.`.[.[.[.[.[.[.[.[.[.[.[.[.[.[.[.[.[.[.[.[.[.[.[.[.[.[.[.|.|.|.[.[.].].].].E.E.R.R.o.o.o.R.R.R.R.R.R.R.R.R.R.R.R.R.E.E.].XX].].|. X X[.[. X X X X X X X X X X X X X X X X X X X X X X X X X X X X X X X X|.|.|.|.[.].].].E.E.T. . . . . . . . . . . . . . . . . . . . .T.T.E.].].].].].XX.XE.E.R.o. . . . . . . .o.o.+.+.o.o.o.o.o.o.i.i.( ^ C f y y s l / p.OX2X8XiXaXsXpXpXpXpXpXSXiX5X;X^.e.L B n ",
"=.t.k.>XlXnXGXDXFXpXpXgXgXpXSXiX3X6X(.` A k s s f f B L / ( i.X.X.o.o.o.o.o.o.o.o.o.o.o.o.o.o.o.+.E.!..XXXXXXXoXoXXXXX.X.XE.E... . . . . . .o.o.o.o.+.E.E.].XXoX[.[.[.[.[.[.[.[.[.`.[.`.[.[.[.[.[.[.[.[.[.[.[.[.[.[.[.[.[.[. X X X X X[. X X|.|.[.[.[.[.XX.XW.E.E.R.o.o.o.o.o.o.o.o.o.o.o.o.R.R.o.o.o.E.E.E..X].].[. X}. X X X X X X X X|. X X X|. X X|.|. X X X X X X X X X X X X X X X X X X X|.|.[.].].'.'.E.+.o. . . . . . . . . . . . . . . . . . . .E.T.W.].].].].XXXXXXW.E.R.R. . . . . . . .o.o.o.o.o.o.o.o.o.o.i.i.8.^ B f y y s l / p.OX2X8XiXaXsXpXpXpXpXpXSXFX5X2X).i.^ K n ",
"=.t.k.>XbXnXGXDXFXpXpXgXgXHXSXiX3X6X(.` A k s s f f B L ^ ( i.X.X.o.o.o.o.o.o.o.o.o.o.o.o.o.o.o.+.E.E..XXXXXXXoXoXXXXX.X'.E.E... . . . . . .o.o.o.o.+.E.E.].XXoX[.[.[.[.[.[.[.[.`.[.`.[.[.[.[.[.[.[.[.[.[.[.[.[.[.[.[.[.[.[. X X X X X X X X|.|.$X$X[.oXXX].E.E.E.R.o.o.o.o.o.o.o.o.o.o.o.o.R.R.o.o.o.E.E.E.].].].[. X X X X X X X X|.|.|.|. X X|.|.|.|.|.|. X X X X X X X X X X X X X X X X X X|.|.[.].].'.'.E.+.o.o. . . . . . . . . . . . . . . . . . .E.E.E.].].].].XXXXXXW.E.R.R. . . . . . . .o.o.o.o.o.o.o.o.o.o.i.i.8.^ B f y y s l / p.OX2X8XiXaXsXpXpXpXpXpXSXFX5X2X).i.^ K n ",
"=.t.k.>XlXnXGXDXFXpXpXgXgXHXSXiX3X6X(.` A k s s f f B L / ( i.X.X.o.o.o.o.o.o.o.o.o.o.o.o.o.o.+.+.E.E..XXXXXXXoXoXXXXX.X'.E.E... . . . . . .o.o.o.o.+.E.E.].XXoX[.[.[.[.[.[.[.[.[.`.`.[.[.[.[.[.[.[.[.[.[.[.[.[.[.[.[.[.[.[. X X X X X X X X|.|.$X$X[.oXXX].E.E.E.R.o.o.o.o.o.o.o.o.o.o.o.o.R.R.o.o.o.E.E.E.].].].[. X X X X X X X X|.|.|.|. X X|.|.|.|.|.|. X X X X X X X X X X X X X X X X X X X|.[.].].'.'.E.+.o.o. .o.o. . . . . . . . . . . . . . ...T.T.'.].].].].XXXX.XE.E.R.o.o. . .o.o.o.o.o.o.o.o.o.o.o.o.o.o.i.i.e./ B f y y s l / p.OX2X8XiXaXsXpXpXpXpXpXSXFX5X2X^.i.^ K n ",
"Y t.k.-X9XnXGXDXSXSXpXgXgXHXSXiX3X1X(.` A k s s f f B L / 8.i.X.X.o.o.o.o.o.o.o.o.o.o.o.o.o.o.+.+.E.E..XXXXXXXoXoXXXXX.X'.E.E... . . . . .o.o.o.o.o.+.E.E.].XXoX[.oX[.[.[.[.[.[.[.`.[.`.[.[.[.[.[.[.[.[.[.[.[.[.[.[.[.[.[.[.|.|.|.|.[. X X|.|.|.$X$X[.].XX].E.E.E.R.o.o.o.o.o.o.o.o.o.o.o.o.R.R.o.o.o.E.E.E.].].].[. X X X X X X X X X X|.|. X X|. X X|.|.|. X X X X X X X X X X X X X X X X X X X X[.].].'.'.E.+.+... .o.o. . . . . . .o. .o.o. . . . .o.+.E.'.].].].XXXXXX.XE.E.o.o.o.o.o.o.o.o.o.o.o.o.o.o.o.o.o.o.o.i.i.e.^ B f y y s l ~ p.OX2X8XiXaXsXpXpXpXpXSXSXFX5X2X^.i.^ K n ",
"=.t.h.-X9XnXDXDXSXpXgXgXgXHXSXpX3X1X(.' A z s s f f m L / { i.X.X.o.o.o.o.o.o.o.o.o.o.o.o.o.o.+.+.E.!..XXXXXXXXXXXXXXX.X'.E.E.+.o. .o. .o.o.o.o.o.o.+.E.E.].XXoX[.oX[.[.[.[.[.[.`.[.`.[.[.[.[.[.[.[.[.[.[.[.[.[.[.[.[.[.[.[. X X|.|.[. X X X|.|.$X$X[.].XX].E.E.E.R.o.o.o.o.o.o.p.p.p.p.o.o.R.R.o.o.o.E.E.E.].].].[. X X X X X X X X X X|.|. X X|. X X X X X X X X X X X X X X X X X X X X X X X X|.[.[.].'.'.E.+.+.o.o.o.o.o.o.o.o.o.o.o.o.o.o.o.o.o.o.o.....'.].].XXXXXXXX.XE.+.o.o.o.o.o.o.o.o.o.o.o.o.o.o.o.o.o.o.o.i.i.( ^ B f y y s l ! p.OX;X8XiXaXsXpXpXpXpXpXSXAX5X2X/.i.^ K n ",
"=.t.h.-X9XnXGXDXSXpXgXgXgXgXSXiX3X1X(.' A z s s f f B L / { i.X.X.o.o.o.o.o.o.o.o.o.o.o.o.o.o.+.+.E.E..XXXXXXXXXXXXXXX.X'.E.E.+.o. .o. .o.o.o.o.o.o.+.E.E.].XXoX[.oX[.[.[.[.[.[.[.`.`.`.[.[.[.[.[.[.[.[.[.[.[.[.[.[.[.[.[.[. X X X|. X X X X|.|.$X|.[.].]..XE.E.E.R.o.o.o.o.o.o.p.p.p.p.o.o.R.R. . .o.E.E.E.].].|.|. X X X X X X X X X X|.|. X X X X X X X X X X X X X X X X X X X X X X X X X X X X[.].].'.'.E.+.+.o.o.o.o.o.o.o.o.o.o.o.o.o.o.o.o.o.o.o.o.+.'.].].XXXXXXXX.X!.+.o.o.o.o.o.o.o.o.o.o.o.o.o.o.o.o.o.p.i.i.i.( ^ B f y y s l ! p.OX2X8XiXaXsXpXpXpXpXSXSXAX5X2X/.i.^ K n ",
"=.t.h.-X9XnXDXDXSXpXpXgXgXgXSXiX3X1X(.' A z s s f f B L / e.i.X.X.o.o.o.o.o.o.o.o.o.o.o.o.o.o.o.+.E.E..XXXXXXXXXXXXXXX.X'.E.E.+.o. .o. . .o.o.o.o.o.+.E.E.].XXoX[.oX[.[.[.[.[.[.`.[.[.[.[.[.[.[.[.[.[.[.[.[.[.[.[.[.[.[.[.[. X X X X X X X X|.|.|.|.[.].].].W.E.E.R.o.o.o.o.o.o.p.p.p.p.o.o.R.R. . .o.E.E.E.].].|.|. X X X X X X X X X X|.|. X X X X X X X X X X X X X X X X X X X X X X X X X X X X[.[.].'.'.E.+.+.o.o...o.o.o.o.o.o.o.o.o.o.o.o.o.o.o.o.o.+.'.]..XoXoXXXXX.X.Xs.s.o.p.p.p.o.o.o.X.o.o.O.O.O.O.o.o.s.i.i.i.e./ C f a y s l ! p.OX;X8XiXaXsXpXpXpXpXSXSXAX5X2X).i.^ K n ",
"=.t.h.-X9XnXDXDXFXpXpXgXgXSXSXiX3X1X(.' A z s s f h m L / ( i.X.X.o.o.o.o.o.o.o.o.o.o.o.o.o.o.o.+.E.!..XXXXXXXXXXXXXXXXX.XE.E.+.o. .o. . . .o.o.o.o.+.E.E.].XXoX[.oX[.[.[.[.[.[.[.[.[.[.[.[.[.[.[.[.[.[.[.[.[.[.[.[.[.[.[. X X X X|.[. X X X|.|.|.|.[.].].].E.E.E.R.o.o.o.o.o.o.p.p.p.p.o.o.R.R. . .o.E.E.E.].].[.[. X|.|. X X X X X X X X X|.|. X X X X X X X X X X X X X X X X X X X X X X X X[.[.[.].].'.'.E.+.+.o.o.o.o.o.o.o.o.o.o.O.| | | O.O.| | o.o.+.'..X.XoXXX@X@X@X.Xs.s.X.X.X.X.X.X.X.| X.| O.O.O.O.O.O.s.i.i.i.e./ C f a y s l ! p.OX2X8XiXaXFXpXpXpXpXpXSXFX5X2X).i.^ K n ",
"Y t.v.>X9XmXDXDXaXpXpXpXpXSXSXiX3X1X(.` A z s s f h m L / ( i.X.X.o.o.o.o.o.o.o.o.o.o.o.o.o.o.o.+.E.!..XXXXXXXXXXXXXXXXX.XE.E.+.o. . . . . .o.o.o.o.+.E.E.].XXoX[.oX[.[.[.[.[.[.[.[.[.[.[.[.[.[.[.[.[.[.[.[. X X X X X X X X X X X X[. X[.[.|.|.|.[.[.].].].E.E.R.o.o.o.o.o.o.o.o.p.Q.Q.R.R.R.R.Y.Y.R.R.E.E.].].[.[. X|.|. X|.|. X X X X X X|.|. X X X X X X X X X X X X X X X X X X X X X X X X[.[.[.[.].'.'.E.+.+.+.o.o.o.o.o.o.O.O.| | | | | | | | | | O.+..X.X@X@X@X@X@X@Xx.s.s.i.X.X.X.X.X.X.X.X.X.O.O.X.| O.O.s.i.i.i.e./ L f a y s x / s.OX2X8XaXaXFXpXpXpXpXSXSXFX5X2X).i.^ K n ",
"Y t.v.>X9XmXDXDXaXpXpXpXgXSXSXiX3X1X(.` A z s s f h m L / ( i.i.i.p.o.o.o.o.o.o.o.o.o.o.o.o.o.+.+.E.!..XXXXXXXXXXXXXXXXX'.E.E.+.o. . . . . .o.o.o.o.+.E.E.].XXoX[.oX[.[.[.[.[.[.`.[.[.[.[.[.[.[.[.[.[.[.[.[. X X X X X X X X X X X X X X[.[.|.|.|.[.[.].].].E.E.R.o.o.o.o.o.o.o.Q.p.Q.Q.R.R.R.R.Y.R.R.R.E.E.].XXoX[.|. X|.|.|.|. X X X X X X|.|. X X X X X X X X X X X X X X X X X X[. X X X X X[.[.[.[.].'.'.'.E.+.o.o...o.o.O.o.O.| | | | | X.X.X.X.| | | o.E..X@X@X@X@X@X.Xs.s.g.i.i.i.i.i.i.X.X.X.} X.X.X.X.O.O.X.i.i.i.e./ L f a y s x / f.OX2X8XaXaXFXpXpXHXHXSXSXFX5X2X^.i.T K n ",
"Y t.v.>X9XmXDXDXaXpXpXpXpXSXSXiX3X1X(.` A z s s f h m L / ( i.i.i.p.o.o.o.o.o.o.o.o.o.o.o.o.o.+.+.E.!..XXXXXXXXXXXXXXX.X'.E.E.+.+. . . . . .o.o.o.o.+.E.E.].XXoX[.oX[.[.[.[.[.[.`.[.[.[.[.[.[.[.[.[.[.[.[.[. X X X X X X X X|.|. X X X X[.[.[.[.[.[.[.].].].E.E.R.o.o.o.o.o.o.o.Q.Q.Q.Q.R.R.R.R.Y.Y.R.R.E.E.].XXoX[.|. X|.|.|.|. X X X X X X X X X X X X X X X X X X X X X X X X X X X[. X X[.[.[.[.[.[.].].].'.'.+.+.o.O.O.O.O.O.O.O.X.X.X.X.X.X.X.X.X.X.| o.+..X@X@X@X@X@Xx.x.s.g.i.e.e.e.e.e.{ { } } } } X.X.O.a.X.i.i.i.e./ U f a y s x / f.*X2X8XaXaXFXpXpXHXHXSXSXAX5X;X^.e.T K n ",
"Y t.v.>X9XmXDXDXaXpXpXpXpXpXpXiX3X&X(.` A z s s f f B L / ( i.i.i.p.o.o.o.o.o.o.o.o.o.o.o.o.o.+.+.E.E..XXXXXXXoXXXXXXX.X'.E.E.+. . . . . . .o.o.o.o.+.E.E.].XXoX[.oX[.[.[.[.[.[.`.`.[.[.[.[.[.[.[.[.[.[.[.[. X X X X X X X X|.|.|.|. X X[.[.[.[.[.[.[.].].].E.E.R.o.o.o.o.o.R.R.o.o.Q.Q.R.R.R.R.R.R.R.R.E.E.].XX[.[.|. X X|.|.|. X X X X X X X X X X X X X X X X X X X X X X X X X|. X X|.|.[.[.[.[.[.[.].].].'.'.+.o.o.O.O.O.a.O.X.X.X.X.X.X.X.X.i.i.X.X.X.O.s.x..X@Xx.x.x.x.h.g.a.d.i.e.e.e.e.e.e.e.e.i.i.i.i.i.i.X.i.i.i.e./ L f a y s x / f.OX2X8XaXaXFXpXpXHXHXpXSXFX0X;X^.e.T K n ",
"Y t.v.>X9XmXDXDXaXpXpXpXhXpXpXiX3X&X(.` A z s s f f m L / ( i.i.i.p.o.o.o.o.o.o.o.o.o.o.o.o.o.o.+.E.!.OXXXXXXXoX+XXXXX.X'.E.E.+.o. . . . . .o.o.o.o.+.E.E.].XXoX[.oX[.[.[.[.[.[.[.[.[.[.[.[.[.[.[.[.[.[.[.[. X X X X X X X X X|.|.|. X X[.[.[.[.[.[.[.].].].E.E.R.o.o.o.o.o.R.R.o.o.Q.Q.Q.R.R.R.R.R.R.R.E.W.].XX|.|.|. X|.|. X X X X X X X X X X X X X X X X X X|.|. X X X X X X X X|.|.|.|.[.[.[.[.[.[.].].]..X.Xs.+.s.O.O.a.i.X.{ { ( ( ( ( ( ( ( ( { { X.X.i.a.a.a.a.a.g.a.d.e.e.e.e.e.e.8.e.e.e.e.e.e.e.d.d.d.i.i.i.i.i.8./ L f a y s x / f.*X2X8XaXFXSXpXpXpXpXpXSXFX0X;XOXe.T K n ",
"Y t.v.>X9XmXDXDXaXpXpXpXpXpXpXtX3X&X(.` S z s s f f m U / 8.i.i.i.p.o.o.o.o.o.o.o.o.o.o.o.o.o.o.+.E.!.OXXXXXXX+X+XXXXX.X'.E.E.+. . . . . . .o.o.o.o.+.E..X.XXXoXoXoX[.[.[.[.[.[.[.[.`.`.[.[.[.[.[.[.[.[.[.[. X X X X X X X X X X|.|.|.|.[.[.[.[.[.[.[.].].].E.E.R.o.o.o.o.o.R.R.o.o.Q.Q.Q.Q.R.R.R.R.R.R.E.W.].XX#X|.|. X|.|. X X X X X X X X X X X X X X X X|. X|.|. X X X X X X X X|.|.|.|.[.[.[.[.[.].].]..X'..Xx.s.s.s.a.i.X.{ ( / / Q L Q ^ ^ ^ ^ / / ( ( ( { { { { { [ w./ 7.7.7.9.9.9.9.8.e.e.y.e.e.e.e.e.i.i.i.i.a.i.8./ L f a y s x / f.*X2X8XaXFXSXpXpXpXpXpXSXFX0X;XOXe.T K n ",
"Y t.v.>XbXmXDXDXaXpXpXpXpXpXpXtX3X%X(.` A z s s f f m U / 8.i.i.i.p.o.o.o.o.o.o.o.o.o.o.o.o.o.+.+.E.!.OXXXXXXX+X+X+XXX.XE.E.E.+. . . . . . .o.o.o.o.+.E..XXXXXoXoXoX[.[.[.[.[.[.[.[.`.`.[.[.[.[.[.[.[.[.[.[. X X X X X X X X X X|.|.|.|.[.[.[.[.[.[.[.].].].E.E.R.o.o.o.o.o.o.o.o.o.Q.Q.Q.Q.R.R.R.R.R.R.E.W.].XX#X|.|.|.|.|. X X X X X X X X X X X X X X X X|.|.|.|. X X X X X X X|.|.|.|.|.[.[.[.[.[.[.oXoX.X'..Xx.x.s.s.a.X.{ ( / Q L L V V V V V L L L L L L P P P P P P L K I U I U U U U 9.8.8.t.e.y.r.e.e.d.i.a.a.a.i.8./ L f a y s x / f.*X2X8XaXFXSXpXpXpXpXpXSXaX5X;XOXe.T m n ",
"Y t.v.>X9XmXDXDXaXpXpXpXpXpXpXtX3X6X(.` A z s s f f B U / 8.i.i.i.o.o.o.o.o.o.o.o.o.o.o.o.o.o.o.+.E.!..XXXXX+X+X+X+XXXXX'.E.E.+.o. . . . . .o.o.o.o.+.E.!..XXXoXoXoX[.[.[.[.[.[.[.[.[.[.[.[.[.[.[.[.[.[.[.[. X X X X X X X X X X X X X X[.[.[.[.[.[.|.].].].E.E.R.o.o.o.o.o.R.R.R.p.Q.Q.Q.Q.R.R.R.Y.Y.R.E.W.].].|.|. X X|.|. X X X X X X X X X X X X X X X X X X X X X X X X X X X X|.|.|.|.[.[.[.[.[.[.oXXX@X@X@X@Xx.s.s.g.i.{ / Q L V x l x x x x B B B x x x x x x x x x B m m m m m C C I I -.-.7.8.t.e.t.e.i.i.d.i.d.i.8.9.L f a y s x ( f.*X2X8XaXDXSXpXpXpXpXpXpXaX5X;XOXe.T m n ",
"Y t.h.-X9XnXDXDXsXpXpXgXgXpXpXtX3X6X(.' A k s s f f B U / ( e.X.X.o.o.+.+.+.o.o.o.o.o.o.o.o.o.o.+.E.!..XXXXXXXXXXXXXXX.XE.E.+.+. . . . . . .o.o.o.o.+.E.!..XXXoXoXoX[.[.[.[.[.[.[.[.[.[.[.[.[.[.[.[.[.[.[.[.[.[.[.[.[.[.[.[. X X[.[.[.[.[.[.[.[.[.[.].].].].E.E.R.o.o.o.o.o.R.R.o.o.Q.Q.Q.Q.R.R.R.R.Y.R.E.W.].].|.|. X X X X X X X X|.|. X X X X X X X X X X X X X X X X X X X X X X[.[.[.[.[.[.[.[.[.[.oXXX@X@X@X@XOXx.x.h.a.{ Q L x x z f z z z k f f f s s s f j j j j f f d g d n f N m B I I -.-.-.7.8.e.e.d.i.i.i.i.e.8./ C f a y s c ( h.=X2X8X8XaXpXpXpXpXpXpXpXaX5X;Xh.e.L H n ",
"=.t.h.-X9XmXGXDXsXpXpXhXgXpXpXtX3X6X(.' A z s s f f B I / ( e.X.X.p.o.+.+.+.o.o.o.o.o.o.o.o.o.o.+.E.!.OXXXXXXXXXXXXXXX.XE.E.+....... . . . .o.o.o.o.+.E.!..XXXoXoXoX[.[.[.[.[.[.[.[.[.[.[.[.[.[.[.[.[.[.[.[.[.[.[.[.[.[.[.[. X X[.[.[.[.[.[.[.[.[.].].].].].E.E.R.o.o.o.o.o.o.o.o.p.Q.Q.Q.Q.R.R.R.R.R.R.E.W.].].|.|. X X X X X X X X|.|. X X X X X X X X X X X X X X X X X X X X X X[.[.[.[.[.[.[.[.[.oXoX@X@X@X@X@X-X-X*Xz.g.( L x f f s s k k Z u p p p p u s s s s j s s a a d X i d n N C I I ;.-.-.7.7.w.y.e.d.i.i.i.e.8.9.C h d u s V ( f.*X4X0X0XaXpXpXpXpXpXpXpXaX5X;X^.e.L K n ",
"=.t.h.-X9XnXDXDXsXpXpXhXgXpXpXtX3X6X(.' A z s s f f B I / ( e.X.X.p.o.+.+.+.o.o.o.o.o.o.o.o.o.+.+.E.!.OXXXXXXXXXXXXXXX.XE.E.+....... . . . .o.o.o.o.+.E.!..XXXoXoXoX[.[.[.[.[.[.[.[.[.[.[.[.[.[.[.[.[.[.[.[.[.[.[.[.[.[.[.[. X X[.[.[.[.[.[.[.[.].[.].].].].E.E.R.o.o.o.o.o.R.o.o.o.Q.Q.Q.Q.R.R.R.R.R.R.E.W.].].|.|. X X X X X X X X|.|. X X X X X X X X X X X X X X X X X X X X X X[.[.[.[.[.[.[.[.[.oXoX@X@X@X@X@X-X-Xv.z.d./ L h f f s s k k z z z z z z k k z k z z z f a a d i X i d n m B =.;.-.-.t.7.w.y.e.d.d.d.d.e.8.9.C h d u s V ( f.*X4X0X0XaXpXpXpXpXpXpXpXiX4X;X^.e.L m n ",
"=.t.h.-X9XnXDXDXSXpXpXgXgXgXpXtX3X&X(.' A z s s f h m I / ( e.X.X.p.o.o.+.+.o.o.o.o.o.o.o.o.o.+.+.E.!.OXXXXXXXXXXXXXXX.XE.+.+... . . . . . .o.o.o.o.+.E.!..XXXoXoX[.[.[.[.[.[.[.[.[.[.[.[.[.[.[.[.[.[.[.[.[.[.[.[.[.[.[.[.[. X X[.[.[.[.[.[.[.].[.[.].].].].E.E.R.o.o.o.o.o.o.o.o.o.Q.Q.Q.Q.R.R.R.R.R.R.E.W.].].|.|.|.|. X X X X X X}.}. X X X X X X X X X X X X X X X X X X X X X X[.[.[.[.[.[.[.[.[.oXoX@X@X@Xx.x.x.x.g.g.8.T B f s s s z z c V V V V V V V c c c c c c c x f f d X   i d N m I =.;.-.t.7.8.8.8.e.i.d.i.e.8./ U h d u s V ( f.*X4X5XiXaXaXpXpXpXpXpXpXiX5X;X^.e.L m n ",
"=.t.h.-X9XnXDXDXSXpXgXhXgXgXpXtX3X&X(.' A z s s f h m I / ( e.X.X.p.o.o.+.+.o.o.o.o.o.o.o.o.o.+.+.E.!.OXXXXXXXXXXXXXXX.XE.E.+... . . . . . .o.o.o.o.+.E.!..XXXoXoXoX[.[.[.[.[.[.[.[.[.[.[.[.[.[.[.[.[.[.[.[.[.[.[.[.[.[.[.[.[.[.[.[.[.[.[.[.[.].[.[.].].].].E.E.R.o.o.o.o.o.o.o.o.p.Q.Q.Q.Q.R.R.R.R.R.R.E.W.].|.|.|.|. X X X X X X X}.}. X X X X X X X X X X X[.[.[.[.[.[.[.[.[.[.[.[.[.[.[.[.[.[. XoXoX.X@Xx.x.x.a.r.e.e.8.9.C f f y f f x V V ) 0.q.0.0.0.0.( ( ` ` ( ( ^ L x f d       X d N N I =.-.-.9.9.8.8.e.i.d.d.e.8.9.U f d u s V ( f.*X4X5X0XaXaXpXpXpXpXpXpXiX5X;X^.e.L m g ",
"=.t.z.-X9XnXDXaXsXpXhXhXgXgXpXtX3X&X(.' A z s s f f B L ^ ( { X.X.o.o.+.+.+.o.o.o.o.o.o.o.o.o.o.+.E.!.OXXXXXXXXXXXXXXX.XE.E.+... . . . . . .o.o.o.o.+.!.!..XXXoXoX[.[.[.[.[.[.[.[.[.[.[.[.[.[.[.[.[.[.[.[.[.[.[.[.[.[.[.[.[.[.[.[.[.[.[.[.[.[.].[.[.].].].].E.E.R.o.o.o.o.o.o.o.o.o.Q.Q.Q.Q.R.R.R.R.R.R.E.W.].|.|. X X X X X X X X X}.}. X X X X X X X X X X[.[.[.[.[.[.[.[.[.[.[.[.[.[.[.[.[.[.[.oXoXoX.Xm.O.} { [ / / / ^ C h f f a f x V L / 0.f.h.h.h.f.f.f.f.s.s.f.i.i.( V f y         i n N m m C I -.9.9.8.8.d.d.d.y.8.9.U f a u s V ( f.*X4X5X0XaXaXpXpXpXpXpXpXiX5X;X^.e.P m g ",
"=.t.h.-X9XnXDXaXsXpXhXhXgXgXpXtX3X&X(.' A z s s f f m L / ( { X.X.o.o.+.+.+.o.o.o.o.o.o.o.o.o.o.+.E.E..XXXXXXXXXXXXXXX].E.E.E... . . . . . .o.o.o.o.+.!.!..XXXoXoX[.[.[.[.[.[.[.[.[.[.[.[.[.[.[.[.[.[.[.[.[.[.[.[.[.[.[.[.[.[.[.[.[.[.[.[.[.[.].[.].].].].].E.E.R.o.o.o.o.o.o.o.p.p.Q.Q.Q.Q.R.R.R.R.R.R.E.W.].|.|. X X X X X X X X X}.}. X X X X X X X X X X X[.[.[.[.[.[.[.[.[.[.[.[.[.[.[.[.[.[.oX].].'...] ! P F G B B B h f f i a f B L ^ 8.h.>X>X>X>X>X;X>X=X=X=X=XOX^.a.Q x y           d N m m B B C U 9.8.8.d.g.d.y.8.9.U f a u s V ( f.*X5X0X0XaXaXpXpXpXpXpXpXiX5X;X^.e.P m n ",
"=.w.h.-X9XqXDXaXsXsXpXpXhXpXpXtX3X%X(.' A z s s f f B L ^ ( { X.X.o.o.+.+.+.o.o.o.o.o.o.o.o.o.o.+.E.!..XXXXXXXXXXXXXXX.XE.E.E.+. . . . . . .o.o.o.o.+.!.!..XXXoXoX[.[.[.[.[.[.[.[.[.[.[.[.[.[.[.[.[.[.[.[.[.[.[.[.[.[.[.[.[.[.[.[.[.[.[.[.[.[.].].[.].].].].E.E.R.o.o.o.o.o.o.R.p.p.Q.Q.Q.Q.R.R.R.R.Y.R.W.W.].|.|.|. X X X X X X X X|. X X X X X X X X X X X[.[.[.[.[.[.[.[.[.[.[.[.[.[.[.[.[.[.[.[.].]...| W F G h h h f f f f d d d f B U / g.:XlXbXbXbXbXbX4X4X4X4X4X2X=Xf.( x s y         X g n N m C C C U / 8.i.g.g.e.8.9.C f y y s V ( f.*X4X5X0XaXaXpXpXpXpXpXpXiX5X;X^.e.P m n ",
"=.t.h.-X9XqXDXaXaXsXpXpXpXpXpXtX3X%X(.` A z s s f f B L / ( i.X.X.o.o.o.o.o.o.o.o.o.o.o.o.o.o.+.+.E.!..XXXXXXXXXXXXXXXXX'.E.E.+. . . . . . .o.o.o.o.+.!.!..XXXoXoXoX[.[.[.[.[.[.[.[.[.[.[.[.[.[.[.[.[.[.[.[.[.[.[.[.[.[.[.[.[.[.[.[.[.[.[.[.[.].].].].].].].E.E.R.o.o.o.o.o.o.R.p.p.Q.Q.Q.Q.R.R.R.Y.R.R.W.W.].|.|.|. X X X X X X X X|. X X X X X|.|.[.[.[.[.[.[.[.[.[.[.[.[. X X X X X X|.|.|. X X[.oX]...| E F l s a a a a f f d d d h K T 7.g.,XbXVXVXVXVXmXnXnXqX0X8X4X4Xh.{ F s a a       X . d n N m B B L 9.8.e.g.e.e.8./ B f p y s V ) f.*X4X5X0XaXaXpXpXpXpXpXpXiX5X;X^.e.L m n ",
"=.t.h.;X9XqXDXaXaXsXpXpXgXpXpXtX3X%X(.` A z s s f f B L / { X.X.X.o.o.o.o.o.o.o.o.o.o.o.o.o.o.+.+.E.!..XXXXXXXXXXXoXoXXX'.E.E.+. . . . . . .o.o.o.o.+.!.!..XXXoXoXoX[.[.[.[.[.[.[.[.[.[.[.[.[.[.[.[.[.[.[.[.[.[.[.[.[.[.[.[.[.[.[.[.[.[.[.[.[.[.[.[.].].].].E.E.R.o.o.o.o.o.R.R.p.Q.Q.Q.Q.R.R.R.Y.Y.Y.R.W.W.].|.|.|. X X X X X X X X X X X X X X|.|.[.[.[.[.[.[.[.[.[.[.[.[. X X X X X X|.|.|.|. X X$XXX..] W F l s a a a a i i i i d h K T e.g.,XVXBXGXGXGXAXAXAXAXqX8X4X4Xh.{ F k s a a   a X X d d d f h B T 9.8.y.g.y.e.8.^ C f p y p V ) f.*X2X5X0XaXaXpXpXpXpXpXpXiX5X;Xh.e.L m n ",
"=.t.h.;X9X0XaXaXaXsXsXpXpXpXpXiX3X&X(.` A z s s f f B L / { X.X.X.o.o.o.o.o.o.o.o.o.o.o.o.o.o.+.+.E.E..XXXXXXXoXoXoXoXXX'.E.E.+. . . . . . .o.o.o.o.+.!.!..XXXoXoXoX[.[.[.[.[.[.[.[.[.[.[.[.[.[.[.[.[.[.[.[.[.[.[.[.[.[.[.[.[.[.[.[.[.[.[.[.[.[.[.[.].].].].E.E.R.o.o.o.o.o.R.R.Q.Q.Q.Q.Q.R.R.R.Y.Y.Y.R.W.W.].|.|.|. X X X X X X X X X X X X X[.[.[.[.[.[.[.[.[.[.[.[.[.[.[. X X X X X X X X|.|. X X$XXX..] W F l s s a a a a d d y d h K / e.h.>XnXAXGXGXGXAXAXAXAXAXqX8X4X^.X.E k j s a a a d d d d d d f B U 9.8.y.y.y.e.8.^ C f p y p V / f.*X2X5X0XaXaXpXpXpXpXpXpXiX4X;Xh.e.L m n ",
"=.t.h.;X9X8XaXaXaXsXsXpXpXpXpXiX3X%X(.` A z s s f h m L ^ { X.X.X.o.o.o.o.o.o.o.o.o.o.o.o.o.o.+.+.E.E..XXXXXXXoXoXoXXXXX'.E.E... . . . .o.o.o.o.o.o.+.E.!..XXXoXoX[.[.[.[.[.[.[.[.[.[.[.[.[.[.[.[.[.[.[.[.[.[.[.[.[.[.[.[.[.[.[.[.[.[.[.[.[.[.[.[.[.].].].].E.E.R.o.o.o.o.o.R.R.o.o.Q.Q.Q.R.R.R.R.R.R.R.W.W.].|.|.|. X X X X X X X X|.|. X X[.[.[.[.[.[.[.[.[.[.[.[.[.[.[.[. X X X X X X|.|. X X X XoX]...] W F l s s a a a d y d y a h K ^ { f.,XnXAXAXAXAXAXFXFXaXaXaX8X8X^.X.E l k j s s a d g g d d d f B U / w.y.y.y.e.8.^ C f p y p V / f.*X2X5X0XaXaXpXpXpXpXpXpXiX5X;X^.e.L B n ",
"=.t.h.;X9XqXaXaXsXsXpXpXpXpXpXiX3X%X(.` A z s s f h B L ^ ( X.X.X.p.o.o.o.o.o.o.o.o.o.o.o.o.o.+.+.E.E..XXXXXXXoXoXXXXXXX'.E.E... . . . . .o.o.o.o.o.+.E.!..XXXoXoX[.[.[.[.[.|.|. X X[.[.[.[.[.[.[.[.[.[.[.[.[.[.[.[.[.[.[.[.[.[.[.[.[.[.[.[.[.[.[.[.].].].].E.E.R.o.o.o.o.o.R.R.o.o.Q.Q.Q.R.R.R.R.R.R.R.W.W.].|.|.|. X X X X X X X X|. X X X[.[.[.[.[.[.[.[.[.[.[.[.[.[.[.[. X X X X X X|. X X[.[.[.oX].+.] W F l s a a a a f f s s s x F P i.^.2X0XDXAXAXFXFXFXaXaXaXsXiX8X+Xo.~ A v k k j h h m h f f f f B T 9.t.y.y.y.t.8.^ C f u y p V / f.*X2X5X0XaXaXpXpXpXpXpXpXiX5X;X^.e.P m g ",
"=.t.h.;X9XqXaXaXsXsXpXpXpXpXSXiX3X1X(.` A z s s f h B L / ( i.i.i.p.o.o.o.o.o.o.o.o.o.o.o.o.o.+.+.E.E..XXXXXXXoXoXXXXXXX'.E.E... . . . . . .o.o.o.o.+.E.!..XXXoXoXoX[.[.[.[.|.|. X X[.[.[.[.[.[.[.[.[.[.[.[.[.[.[.[.[.[.[.[.[.[.[.[.[.[.[.[.[.[.[.[.].].].].E.E.R.o.o.o.o.o.o.o.o.o.Q.Q.Q.Q.R.R.R.R.R.R.W.W.].|.|. X X X X X X X X X|.|. X X[.[.[.[.[.[.[.[.[.[.[.[.[.[.[.[. X X X X X X|. X[.[.[.[.[.].+.] W F l s a a a f h B B B L Q ( i.s.+X3X0XFXSXSXSXpXpXpXpXpXpXdX3X%X~.o.~ ! ! Q L L K K C f f f f B T 9.8.y.y.y.e.8.^ C f u y s V / f.^.2X5X0XaXaXpXpXpXpXpXpXiX4X;X^.e.P m n ",
"=.t.h.;X9XqXaXaXsXsXpXpXpXpXSXiX3X1X(.` A z s s f h B L / ( i.i.i.p.o.o.o.o.o.o.o.o.o.o.o.o.+.+.E.E.E..XXXXXXXoXoXXXXXXX'.E.E.+. . . . . . .o.o.o.o.+.E.!..XXXoXoXoX[.[.[.[.|.|. X X[.[.[.[.[.[.[.[.[.[.[.[.[.[.[.[.[.[.[.[.[.[.[.[.[.[.[.[.[.[.[.[.].].].].E.E.R.o.o.o.o.o.o.o.o.o.Q.Q.Q.Q.R.R.R.R.R.R.E.W.].|.|. X X X X X X X X X|.|. X X[.[.[.[.[.[.[.[.[.[.[.[.[.[.[.[. X X X X X X|. X[.[.[.[.[.].+.] W F l s a a a f U T 7.e.y.g.z.*X;X3X8XaXSXSXSXpXpXpXpXpXpXpXtXtX3X%X~.!.s.s.f.i.8./ U U B f f f B T 9.t.y.y.y.t.8.^ C f u y u V / f.^.2X5XiXaXaXpXpXpXpXpXaXiX5X;X^.e.L m n ",
"=.t.z.;X9X0XDXaXaXsXpXpXgXHXSXiX3X6X(.` A z s s f f B L / ( i.i.i.p.o.o.o.o.o.o.o.o.o.o.o.o.+.+.E.E.E..XXXXXXXoXoXXXXXXX'.E.E.+. . . . . . .o.o.o.o.+.E.!..XXXoX[.[.[.[.[.[. X X|.|.[.[.[.[.[.[.[.[.[.[.[.[.[.[.[.[.[.[.[.[.[.[.[.[.[.[.[.[.[.[.[.[.].].].].E.E.R.o.o.o.o.o.o.o.R.R.Q.Q.Q.Q.R.R.R.R.R.R.W.W.].|.|. X X X X X X X X X X[.[. X[.[.[.[.[.[.[.[.[.[.[.[.[.[.[.[. X X X X X X X X[.[.[.|.[.].+.] W F x s a a a f -.e.g.v.*X-X,XwX8X0XiXaXpXpXpXpXpXyXpXyXyXyXtXtXtX3X6X+X=X=X=X).h.y.9.U B f f f B T 9.t.y.y.y.e.8.^ C f u y s c ^ f.*X2X8X0XaXaXpXpXpXpXpXpXiX5X;X^.e.L m n ",
"=.t.v.-X9XqXDXaXsXsXgXgXgXHXSXiX3X6X(.' A z s s f f B U / e.i.i.p.p.+.+.o.o.o.o.o.o.o.+.+.+.+.+.E.E.E..XXXXXoXoXoXoXXXXX'.E.E.E. ... . . . .o.o.o.o.+.E.!..XXXoX|.|.|. X X X X X X X|.|. X X X X X X X X}.}.}. X X X[.[.[.[.[.[.[.[.[.[.[.[.[.[.[.[.].].].].E.E.E.R.o.o.o.o.o.o.p.p.p.p.p.Q.R.R.R.R.R.E.E.W.].].|.|. X|. X X|.|. X X[.[. X X X X X X X X X X X X X X X X X X X X X X X X X X X[.[.|.[.].+.] W F x f a a a f 7.u.c.<X<X,XbX0XqXqXaXpXpXpXpXpXpXyXyXyXyXyXtXtXiXiX5X5X5X4X4X4X*Xf.9.C B f f f B U 9.e.y.y.y.t.8./ C f y y s V / f.*X2X8X0XaXaXpXpXpXpXpXpXiX5X;X^.e.L m n ",
"=.t.v.-X9XqXDXaXsXsXgXgXgXHXSXpX3X1X(.' A z s s f f B U / e.i.i.p.p.o.o.s.p.o.o.o.o.+.+.+.+.+.+.E.E.E..XXXXXoXoXoXoXXXXX'.E.E.E. ... . . . .o.o.o.o.+.E.!..XXX$X|.|.|. X|. X X X X X X X X X X X X X X X}.}. X X X}.[.[.[.[.[.[.[.[.[.[.[.[.[.[.[.[.].].].].E.E.E.R.o.o.o.o.o.o.p.p.p.p.p.p.R.R.R.R.R.R.E.W.].].|.|. X|.|.|.|.|. X X X X X X X X X X X X X X X X X X X X X X X X X X X X X X X[.[.|.[.].+.] W F x f a a a f T u.c.<X7XbXbX0XqXaXaXtXtXtXpXpXyXyXyXyXyXyXtXpXpXaXiX5X5X5X5X4X>Xf.8.C z f f f B U 9.e.y.y.y.y.8./ K f a y s V ) f.*X2X8X0XaXaXpXpXpXpXpXpXiX5X;Xh.e.L m g ",
"=.t.v.-XwXqXDXaXsXsXgXgXgXHXSXiX3X1X(.' A z s s f f B U / e.i.i.p.p.o.o.s.p.o.o.o.o.+.+.+.+.+.E.E.E.'.XXXXoXoXoXoXoXXXXX'.E.E.E. ... . . . .o.o.o.o.+.E.!..XXX$X|.|.|. X|. X X X X X X X X X X X X X X X}.}. X X X}.[.[.[.[.[.[.[.[.[.[.[.[.[.].[.[.].].].].E.E.E.R.o.o.o.o.o.o.p.p.p.p.p.p.R.R.R.R.R.R.E.W.].].|.|. X|. X X|.|. X X X X X X X X X X X X X X X X X X X X X X X X X X X|. X X X X X XoX].+.] W F x f a a a h T u.c.<XxXbXnXnXqXaXaXtXpXpXpXpXyXyXyXyXyXyXyXpXpXaXiXiXAXAXnXzX>Xk.8.L B f f f B T 9.e.y.y.y.y.8./ K f a u s V ^ f.*X2X0XaXDXsXsXsXpXpXpXpXaX5X;XOXe.P m n ",
"=.t.z.;XwXqXaXaXsXsXgXgXgXHXSXiX3X1X(.' A z s s f h B L / ( i.i.p.o.o.o.o.o.o.o.o.o.o.o.o.o.+.+.E.E.E..XXXXXoXoXoXXXXX].'.E.E.T. . . . . . .o.o.o.o.+.E.!..XXX$X[.|. X X|. X X X X X X X|.|. X X X X X X X X X X}.}.[.[.[.[.[.[.[.[.[.[.[.[.[.].[.[.].].].].E.E.E.R.o.o.o.o.o.o.p.p.p.p.p.p.R.R.R.R.Y.T.E.W.].].|.|. X X X X|.|.[.[.[. X X X X X X X X X X X X X X X X X X X X X X X X X|. X X X[.|.oXXX+.] W F l s a a a h T u.c.<XxXbXBXGXDXaXaXpXtXtXpXpXyXyXyXyXyXyXyXpXpXaXiXiXAXAXnXzX>Xk.8.L B f f f B T 9.t.y.y.y.t.8./ B f y u s V ^ f.*X4X0XaXFXpXsXsXpXpXpXpXaX5X;XOXi.T m n ",
"=.t.z.;XwXqXaXaXsXsXgXgXgXHXSXiX3X1X(.' A z s s f f B L / ( i.i.p.o.o.o.o.o.o.o.o.o.o.o.o.o.+.+.E.E.E..XXXXXoXoXoXXXXX].'.E.E.T. . . . . . .o.o.o.o.E.E.!..XXXoX[.|. X X|.|.|.|.|.|. X X|.|. X X X X X X X X X X X X[.[.[.[.[.[.[.[.[.[.[.[.[.[.[.[.].].].].W.E.E.R.o.o.o.o.o.o.p.p.p.p.p.p.R.R.R.R.Y.E.E.W.].].|.|.|.|.|.|.|.|.[.[. X X X X X X X X X X X X X X X X X X X X X X X X X X|. X X X|.|.[.XX+.] W F x f s d d h T u.c.<XxXbXBXGXGXaXaXpXpXpXpXpXyXyXyXyXyXyXpXpXpXaXaXiX0XAXnXzX>Xk.y.U B f f f B T 9.t.y.y.y.y.8./ B f y y s V ^ f.*X4X0XaXFXpXpXpXpXpXpXpXaX5X;XOXe.T m n ",
"Y t.z.;XwXqXaXaXsXsXgXgXgXHXSXpXrX1X(.' A z s a d f m U / ( 0.i.p.p.p.o.o.o.o.o.o.o.o.o.o.o.o.+.E.E.E..XXXXXXXXXXXXXXX'.E.E.E.T. . . . . . .o.o.o.o.E.E.!..XXXoX[.|. X X X X|.|.|.|. X X|. X X X X X X X}.}. X X X X[.[.[.[.[.[.[.[.[.[.[.[.[.[.].].].].].].E.E.E.R.o.o.o.o.o.o.p.p.p.p.p.p.R.R.R.R.Y.T.E.W.].].|.|.|.|.|.|.|.|. X[. X X X X X X X X X X X X X X X X X X X X X X X X X X|.|. X X X X[.oX+.] W F x s a a d h T u.c.kXxXMXVXGXDXFXSXpXpXpXpXpXpXyXyXyXyXyXpXpXpXaXaXiX0XnXnXlX>Xk.y.^ B f f f B T 9.t.y.y.y.y.8./ B f y u s V ^ f.*X,X0XaXFXpXpXpXpXpXpXpXiX5X;XOXe.T B n ",
"Y t.z.;XwXqXaXaXsXsXgXgXgXHXSXpXrX1X(.' A z s a d f m U / ( 0.i.p.p.p.o.o.o.o.o.o.o.o.o.o.o.o.+.+.E.E..XXXXXXXXXXXXXXX'.E.E.E.+. . . . . . .o.o.o.o.E.E.!..XXXoX[.|. X X X X|.|.|.|. X X|.|. X X X X X X}.}. X X X X[.[.[.[.[.[.[.[.[.[.[.[.[.[.[.].].].].].E.E.E.R.o.o.o.o.o.o.p.p.p.p.p.p.R.R.R.R.Y.T.E.W.].].|.|.|.[.[.[.|.|. X X X X X X X X X X X X X X X X X X X X X X X X X X X X|.|. X X X|.[.oX+.] W F x s a a d h -.u.b.kXxXMXVXmXDXDXSXSXpXpXpXpXpXyXyXyXyXyXpXsXpXaXFXFXiXnXnXlX>Xk.q.^ B f f z C 9.9.y.y.y.y.y.8./ B f y y s V ^ f.*X4X0XAXDXFXsXsXsXsXsXpXaX0X;X*Xd.^ K n ",
"=.t.v.-XwXqXaXaXsXsXgXgXgXHXSXpXrX1X(.' A z s s f f B U / ( 0.i.p.p.p.o.o.o.o.o.o.o.o.o.o.o.o.+.+.E.E.'.XXXXXXXXXXXXXX'.E.E.+.+. . . . . . .o.o.o.o.E.E.!..XXXoX[.|. X X|.|. X X X X|.|. X X X X X X X X}.}. X X X X[.[.[.[.[.[.[.[.[.[.[.[.[.[.[.[.[.].].].E.E.E.R.o.o.o.o.o.o.p.p.p.p.p.Q.R.R.R.R.R.E.E.W.].].|.|.|.[.[.[.|.|. X X X[.[.[. X X X X X X X X X X X X X X X X X X X X X X X X X X X[.oXoX+.] W F l f d a a h -.l.b.kXxXbXBXmXGXDXDXpXpXpXpXpXpXyXyXyXyXyXpXsXpXaXDXFX0XnXbX4X>Xf.y.U B f f z B 9.9.y.y.y.y.y.8./ B f y u s V ^ f.*X2X0XAXDXFXsXsXsXsXsXsXaX0X4X*Xr.T K n ",
"=.t.v.;XwXqXaXaXsXsXgXgXgXHXSXpXrX1X(.' A z s s f f B U / ( e.i.p.p.p.o.o.o.o.o.o.o.o.o.o.o.o.+.+.E.E.'.XXXXXXoXoXXX.X].E.+.+.+. . . . . . .o.o.o.R.R.E.~.XXXX#X|.|.|.|. X X X X X X X X X X X X X X X X X X X X X X[.[.[.[.[.[.[.[.[.[.[.[.[.[.[.[.[.].].].E.E.E.R.o.o.o.o.R.R.Q.Q.Q.Q.Q.Q.R.R.R.R.R.E.E.E.].].|.|.|.[.[.[.|.|. X X[.[. X X X X X X X X X X X X X X X X X X X X X X X X|.|. X X[.[.oX.X+.] ! F l f d a d h 7.l.b.kXxXbXVXmXGXDXDXaXpXpXpXpXpXyXyXyXyXyXpXsXsXsXFXDXAXnXbX4X*Xf.8.L B f s z C ^ 9.y.y.y.y.y.8./ B f y u s V ^ f.*X2X0XaXDXFXsXsXpXpXpXpXaX5X;X*Xe.U K n ",
"=.t.v.-XwXqXaXaXsXsXgXgXgXHXSXpXrX1X(.' A z s a d f m U / ( e.i.i.p.o.X.o.o.o.o.o.o.o.o.o.o.o.+.+.E.E.'.].XXoXoXoXXXXX'.'.T.+.+. . . . . . .o.o.o.R.R.E.~.XXXX#X#X$X|.|. X X X X X X X X X X X X X X X X X X X X X X[.[.[.[.[.[.[.[.[.[.[.[.[.[.].[.].].].].E.E.E.R.o.o.o.o.R.R.Q.Q.Q.Q.Q.R.R.R.R.Y.R.R.E.W.].].|.|.[.[.[.[.|.|. X X X X X X X X X X X X X X X X X X X X X X X X X X X X|.|. X X[.[.oX.Xm.] ! F h f d d d h 7.l.b.kXcXNXVXBXmXGXDXFXpXpXpXpXpXyXfXfXfXpXpXsXsXDXDXDXAXnXnX4X:Xg.8.U B f s z B ^ 9.y.y.y.y.y.8./ K f y y s V ( f.*X4X0XaXDXsXsXsXpXpXpXpXaX5X;XOXe.U K n ",
"=.t.v.-XwXqXaXaXsXsXgXgXgXHXSXpXrX1X(.' A z s a d f m I / ( e.i.i.p.X.X.o.o.o.o.o.o.o.o.o.o.o.+.+.E.E.'.].XXoXoXoXXX].'.'.E.+.+..... . . . .o.o.o.R.R.E.~.XXXX#X#X$X|.|. X X X X X X X X X X X X X X X X X X X X X X[.[.[.[.[.[.[.[.[.[.[.[.[.[.].].].].].].E.E.E.R.o.o.o.o.R.R.Q.Q.Q.Q.Q.R.R.R.Y.Y.R.R.E.W.].].[.[.[.[.[.[.|.|. X X X X X X X X X X X X X X X X X X X X X X X X X X X X|.|.|. X[.[.[..Xm.] ! F h s d d a h w.l.b.vXcXNXMXBXmXmXDXFXSXpXpXpXpXpXpXpXpXsXsXsXaXDXDXGXGXmXVXbX:Xk.y.9.m f f f B T 9.y.y.y.y.y.8./ K f y y s V ) f.*X;X0XaXDXsXsXsXpXpXpXpXaX5X;XOXe.U K n ",
"=.t.v.-XwXqXaXaXsXsXgXgXgXHXSXpXrX1X(.' A z s a f f m K ^ ( { X.X.o.o.o.o.o.o.o.o.o.o.o.o.o.o.+.+.E.E.'.].XXXXoXoXoX].].'.T.+... . . . . . .R.R.R.R.R.E.~.XXXX#X#X|.|.|.|.|. X X X X X X X X X X X X X X X X X X X X[.[.[.[.[.[.[.[.[.[.[.[.[.].[.[.].].].].E.E.E.R.o.o.o.o.R.R.Q.Q.Q.Q.R.R.R.R.Y.Y.Y.R.E.W.].].[.[.|.[.[.[.|.|.[.[.[. X X X X X X X X X X X X X X X X X X X X X X X X X|.|. X X[.[.[.'.m.] W G h f a d d h 7.l.b.kXxXNXMXVXBXmXGXDXFXSXSXpXpXpXsXsXsXsXsXsXDXDXGXGXGXGXBXbXkXc.y.9.B f f f B T 9.t.y.y.y.y.8./ B f y y s V ^ d.*X;X0XaXaXsXsXsXpXpXpXpXaX5X;XOXe.T K n ",
"=.t.v.-XwXqXDXaXaXsXgXgXgXHXSXpXrX1X(.' A z s a f f m L ^ ( ` X.X.o.o.o.o.o.o.o.o.o.o.o.o.o.o.+.+.E.E.'.].XX].oXoXoXXX].'.T.+... . . . .o. .o.o.o.o.R.E.~.XXXX#X$X|.|.|.|.|. X X X X X X X X X X X X X X X X X X X X[.[.[.[.[.[.[.[.[.[.[.[.[.].[.[.].].].].E.E.E.R.o.o.o.o.R.R.Q.Q.Q.Q.R.R.R.R.Y.Y.Y.R.E.E.].].[.[.|.[.[.[.|.|.[.[. X X X X X X X X X X X X X X X X X X X X X X X X X X X|. X X[.[.oX.Xm.] ! G h s d d d N -.j.c.b.kXxXxXbXVXBXGXGXFXFXFXSXpXpXpXsXsXsXaXaXAXnX0XnXnXbXbX,X:Xl.t.-.B f f f B T 9.e.y.y.y.t.8.9.B f y y s V / d.*X;X8XaXaXsXsXsXpXpXpXpXaX5X;XOXe.T K n ",
"=.t.v.-X9XqXDXaXsXsXgXgXgXHXSXpXrX1X(.' A z s s f f B L ^ ( i.X.X.o.o.o.o.o.o.o.o.o.o.o.o.o.o.o.+.E.E.'.].XX.XoXoXXXXX].E.+.+... . . . . . .o.o.o.o.R.!.~.XXXX#X$X|.|.|.|. X X X X X X X X X X X X X X X X X X X X X[.[.[.[.[.[.[.[.[.[.[.[.[.].[.[.].].].].E.E.E.R.o.o.o.o.R.R.Q.Q.Q.Q.R.R.R.R.R.R.Y.R.E.E..XXXXX[.|.[.[.[.|.|. X[. X X X X X X X X X X X X X X X X X X X X X X X X|. X X X X X[.[.oX.X+.] ! G h f a d d f I t.u.l.c.b.<X>XbXVXBXGXGXAXAXFXFXFXaXaXDXaXaX0X0X4X;X-X>X:X:Xc.g.7.U C m f f f B U / e.y.y.y.t.8.9.B f y u s V ^ d.*X2X8XaXaXsXsXsXpXpXpXpXaX5X;XOXe.T K n ",
"=.w.v.-X9XqXDXaXaXpXpXgXgXHXSXpXrX1X(.' A z s s f f B L ^ ( 0.i.X.o.o.o.o.o.o.o.o.o.o.o.o.o.o.o.+.E.E.'.].XX.XoXoXXXXX].'...+... . . . . . .o.o.o.o.R.!.~.XXXX#X$X|.|.|.|. X X X X X X X X X X X X X X X X X X X X X[.[.[.[.[.[.[.[.[.[.[.[.[.].[.[.].].].].E.E.E.R.o.o.o.o.R.R.Q.Q.Q.Q.R.R.R.R.R.R.R.R.E.E..XXXoX[.|.[.[.[.|.|. X X X X X X X X X X X X X X X X X X X X X X X X X X|.|. X X X X[.[.oX.X+.] ! G h f a y y N I -.-.7.y.g.g.h.:XbXmXGXGXAXAXAXAXAXDXDXFXAX0X4X;X=Xh.h.a.a.g.e./ U C m f f f f B U T w.y.y.y.t.8.9.B f u u s V ^ f.*X2X8XaXaXsXsXsXpXpXpXpXaX5X;X*Xe.T K n ",
"=.w.z.;XwXqXaXaXaXsXsXgXgXHXSXiX3X1X(.' A z s a f f B L / ( 0.i.X.X.o.o.o.o.o.o.o.o.o.o.o.o.o.+.+.E.E.'.XXXXXXoXoXXX.X'.E.+.+.+... . . . . .o.o.o.o.R.E.~.XXXX#X$X$X$X|.|.|.|. X X X X X X X X X X X X X X X X X X X[.[.[.[.[.[.[.[.[.[.[.[.[.[.[.[.].].].].E.E.E.R.o.o.o.o.R.R.Q.Q.Q.Q.R.R.R.R.R.R.R.R.E.E.].XXoX[.|.[.[.[.|.|. X X X X X X X X X X X X X X X X X X X X X X X X X X|.|.|.|.|.|.[.[.oX.X+.} ! G h d a y y f m I I I T 7.e.e.k.>XbXVXGXGXGXGXGXGXGXGXmXnXbX4X=Xh.i.( ( ( / Q L L B m f f f f B U T w.y.y.y.t.8.-.B f u y s V ^ f.*X2X8XaXaXsXsXsXpXpXpXpXaX5X;XOXe.T K n ",
"=.w.z.;X9XqXaXaXaXsXsXpXpXpXpXtX3X1X(.` S v s s f f B L / ( 0.i.X.X.o.o.o.o.o.o.o.o.o.o.o.o.o.o.+.E.E.'.].XXXXXXXXXX].'.E...+.+. . . . . . .o.o.o.o.E.E.~..XXXXXoX$X$X$X X X X X X X}.}. X X X X X X X X X X X X X X[.[.[.[.[.[.[.[.[.[.[.[.[.[.[.[.].].].].E.E.E.R.o.o.o.o.o.o.o.o.o.o.o.o.R.R.o.o.R.E.E.E.].XXoXoX[.[.[.[.[.[.[.[.[.[.`.`.`.`.[.[.[.[.[.[.[.[. X X X X X X X X X X X X[. X X X[.[.oX.X+.] P G h a a y y f N m m C K U / / h.:XlXVXBXBXBXBXBXBXBXBXBXVXbXbXOXd.( S V Q Q L V B x f f f f f B U / e.y.y.y.e.8.9.C f y y s V ^ f.*X2X5X8XaXaXpXpXpXpXpXpXiX5X;Xh.e.P m n ",
"=.t.z.;XwXqXDXaXaXsXsXpXgXpXpXtX3X1X/.' S v s s f f B L ^ ( ` X.X.X.o.o.o.o.o.o.o.o.o.o.o.o.o.o.+.E.E.'.].XXXXXXXXXX].'.E.E.+.+. . . . . . .o.o.o.o.E.E.~..XXX#XoX$X$X$X X X X X X X}.}. X X X X X X X X X X X X X X[.[.[.[.[.[.[.[.[.[.[.[.[.[.].].].].].].E.E.E.T.o.o.o.o.o.o.o.o.o.o.o.o.R.R.o.o.R.E.E.E..XXXoXoX[.[.[.[.[.[.[.[.[.[.`.`.`.`.`.[.[.[.[.[.[.[.[.[. X X X X X X X X X X[.[. X X[.oXoX.X+.] ! G h d d y i d f f f N m K U / h.:XlXMXBXBXBXBXBXBXBXBXBXVXbXbXk.a.) V V V V V V z s f f f f f B U / e.y.y.y.e.8.9.C f y y s V / f.*X2X8X8XaXaXpXpXpXpXpXpXiX5X;X^.e.L K n ",
"=.t.z.;X9XqXDXaXaXsXsXsXpXpXpXtX3X1X/.' S v s s f f B L ^ ( ` X.X.X.o.o.o.o.o.o.o.o.o.o.o.o.o.o.+.E.E.'.].XXXXXXXXXX].'.E.E.+.+. . . . . . .o.o.o.o.E.E.~..XXX#XoX$X$X$X X X X|. X X}.}. X X X X X X X X X X X X X X[.[.[.[.[.[.[.[.[.[.[.[.[.[.].].].].].].E.E.E.T.o.o.o.o.o.o.o.o.o.o.o.o.R.R.o.o.R.E.E.E.].XXoXoX[.[.[.[.[.[.[.[.[.[.`.`.`.`.`.[.[.[.[.[.[.[.[.[. X X X X X X X X X X X X X X[.oXoX.X+.] ! G h d a y y d f g f f m B L / f.:XkXbXMXMXMXMXMXMXMXMXMXbXlX,X:Xd.^ V V S S V V z k s s f s s B U / e.r.y.y.e.8.9.C f y y s V / f.*X2X8X8XaXaXpXpXpXpXpXpXiX5X;Xh.e.L K n ",
"=.t.z.-XwXqXaXaXaXsXpXpXpXSXSXiX3X1X/.' S z s s f f B L ^ ( ` X.X.X.o.o.o.o.o.o.o.o.o.o.o.o.o.o.+.E.E.'.].XXXXXXXXXX].'.E.E.+.+. . . . . . .o.o.o.o.E.E.!..XXX#XoX$X$X$X$X X X|. X X X}. X X X X X X X X X X X X X X[.[.[.[.[.[.[.[.[.[.[.[.[.].[.[.].].].].E.E.T.T.o.o.o.o.o.o.o.o.o.o.o.o.R.R.o.o.R.E.E.E.].XXoXoXoX[.[.[.[.[.[.[.[.[.`.`.[.[.`.`.[.[.[.[.[.[.[.[. X X X X X X X X X X X X X X[.oXoX@X+.{ ! G f d i y y d f f N f f B U ^ g.k.,XbXMXMXMXMXMXMXMXMXMXbXlX,X:Xd.^ S V S S V V z k s s s f s B U / e.e.y.y.e.8.9.C f i y u c ^ f.*X2X8X8XiXaXpXpXpXpXpXpXiX5X;X^.e.L m n ",
"=.t.z.;XwXqXaXaXaXsXpXpXpXSXSXiX3X1X/.' S z s s f f B L ^ ( X.X.X.X.o.o.o.o.o.o.o.o.o.o.o.o.o.o.+.E.E.'.].XXXXXXXXXX.X'.E.E.+.+. . . . . . .o.o.o.o.E.E.!..XXXXXoX$X$X$X$X|. X X X X}.}. X X X X X X X X X X X X X X[.[.[.[.[.[.[.[.[.[.[.[.[.].[.[.].].].].E.E.E.T. . .o.o.o.o.o.o.o.o.o.o.o.o.o.o.R.E.E.E.].XXoXoXoX[.[.[.[.[.[.[.`.`.`.`.[.[.[.`. X X X X X X X X X X X X X X X X X X X X X X[.[.oX.Xs.{ Q G f d y i i d m B I I I I / 7.g.k.:XlXMXMXMXMXMXMXbXxXlXkX,X:X).f.( Q Q ) ) ^ Q c z k s s s f x U / e.e.y.r.e.8.9.C h i y u c ^ f.*X2X8X8XiXaXpXpXpXpXpXpXiX5X;X^.e.L B n ",
"=.t.z.;XwXqXaXaXsXsXpXpXpXSXSXiX3X1X(.' S z s s f f x L ^ ( 0.X.X.o.o.o.o.o.o.o.o.o.o.o.o.o.o.o.+.E.E.'.].XXXXXXXXXX.X'.E.E.+.+. . . . . . .o.o.o.o.R.E.!..XXXXXoX$X$X$X$X$X X X X}.}.}. X X X X X X X X X X X X X X[.[.[.[.[.[.[.[.[.[.[.[.[.[.[.[.].].].].W.E.E.T. . .o.o.o.o.o.o.o.o.o.o.o.o.o.o.R.E.E.E.].XXoXoXoX[.[.[.[.[.[.[.`.`.`.`.[.[.[.[. X X X X X X X X X X X X X X X X X X X X X X[.[.oX.Xs.} P G f d i i i n m ;.7.-.7.t.y.y.l.k.:X:X:X:X:X:X:X:X:X:X:X:X).k.k.h.f.i.i.d.d.0.( C c z s s s f B U / e.e.r.e.t.8.9.C h i y s x / a.*X2X8X8XaXaXpXpXpXpXpXpXiX5X;XOXe.P m n ",
"=.t.z.-XwXqXaXaXaXsXpXsXpXSXSXiX3X1X(.' S k s s f f x L / ( 0.X.X.o.o.o.o.o.o.o.o.o.o.o.o.o.o.o.+.E.E.'.].XXXXXXXXXX.X'.E.+.+.+. . . . . . .o.o.o.o.E.E.!..XXXXXoX$X$X$X$X$X X X X}.}.}. X X X X X X X X X X X X X X[.[.[.[.[.[.[.[.[.[.[.[.[.[.[.[.].].].].E.E.E.T. . .o.o.o.o.o.o.o.o.o.o.o.o.o.o.R.E.E.E.].XXoXoXoX[.[.[.[.[.[.[.`.`.`.`.[.[.[.[.[.[.[.[. X X X X X X X X X X X X X X X X X X[.[.oX.Xs.{ Q G h d i i i N I t.j.j.c.l.l.l.d.d.d.d.d.d.d.d.d.d.d.d.d.q.0.d.f.k.).).).).).k.d./ L x s s s f B U / e.e.r.y.t.8.9.C f i y s x / a.OX;X8X8XaXaXpXpXpXpXpXpXiX5X;X^.e.P H n ",
"=.t.z.-X9XqXDXaXaXsXsXsXpXpXpXtX3X%X(.' A z s s f f B L / ( 0.i.X.o.o.o.o.o.o.o.o.o.o.o.o.o.o.o.+.+.E.'.].XXXXXXXXXX.X'.E.E.+.+. . . . . . .o.o.o.o.E.E.!..XXX#XoX$X$X$X$X$X|.|. X}.}.}. X X X X X X X X X X X X X X[.[.[.[.[.[.[.[.[.[.[.[.[.[.[.[.].].].].E.E.E.T. . .o.o.o.o.o.o.o.o.o.o.o.o.o.o.R.E.E.E.].XXoXoX[.[.[.[.[.[.[.[.`.`.`.`.[.[.`.`.[.[.[.[. X X X X X X X X X X X X X X X X X X[.[.oX.Xs.{ ! G h d i i i N -.j.b.U.kXkXb.l.g.y.8.9.9.^ ^ ^ / / ^ ^ ^ ^ ^ / d.k.).*X:X:X>X>X*Xd.) V z s s s x U / e.r.r.r.t.8.9.C h i y s x / g.OX;XwX8XaXaXpXpXpXpXpXpXiX5X;X^.e.L B n ",
"=.t.z.-X9XqXaXaXaXsXsXsXpXpXpXtX3X%X~.' A v s s f f B L / ( 0.i.X.o.o.o.o.o.o.o.o.o.o.o.o.o.o.o.+.+.E.'.].XXXXXXXXXX.X'.E.+.+.o.o. . . . . .o.o.o.o.E.E.!..XXX#XoX$X$X$X$X$X|.|. X}.}.}. X X X X X X X X X X X X X X[.[.[.[.[.[.[.[.[.[.[.[.[.[.[.[.].].].].E.E.E.T. . .o.o.o.o.o.o.o.p.o.o.o.o.o.o.R.E.E.E.].XXoX[.|.[.[.[.|. X[.`.`.`.`.`.[.[.[.[.[.[.[.[. X X X X X X X X X X X X X X X X X X[.[.oX.Xs.{ ! G h d i i i N -.l.kXvXZXcXkXb.y.9.C z z Z Z Z Z k Z Z Z z V D q.h.:XlXVXBXbXlX:Xf.8.C x k s s x L ^ e.r.r.r.t.8.9.C h i y s x / g.OX;XwX8XaXaXpXpXpXpXpXpXiX5X;X^.e.L m n ",
"=.t.z.-X9XqXDXaXaXsXsXsXpXpXpXtX3X%X~.' A v s s f f B L / ( ` i.X.X.o.o.o.o.o.o.o.o.o.o.o.o.o.o.+.E.E.'.].XXXXXXXXXX.X'.E.+.+.o.+. . . . . .o.o.o.o.E.E.!..XXX#XoX$X$X$X$X$X|.|. X}. X X X X X X X X X X X X X X X X[.[.[.[.[.[.[.[.[.[.[.[.[.[.[.[.].].].].E.E.T.T. . .o.o.o.o.o.o.o.o.o.o.o.o.o.o.R.E.E.E..XXXoX[.|.[.[.[. X X`.`.`.`.`.`.[.[.[.[.[.[.[.[. X X X X X X X X X X X X X X X X X X[.[.oX.Xs.{ ! G h d y i i N -.c.vXcXZXcXkXU.y.9.C x Z Z Z Z k Z Z Z Z z V D q.k.>XbXVXVXbXbX>Xf.8.V x k s s x L ^ e.e.r.y.t.8.9.C f y y s x / g.OX;XwX8XaXaXpXpXpXpXpXpXiX5X;Xh.e.P m n ",
"=.t.z.-XwXqXDXaXaXsXsXsXpXpXpXtX3X%X~.' A v s s f f B L / ( ` X.X.X.o.o.o.o.o.o.o.o.o.o.o.o.o.o.+.E.E.'.].XXXXXXXXXX.X'.E.+.+.o.+. . . . . .o.o.o.o.E.E.!..XXX#XoX$X$X$X$X$X|.|. X}. X X X X X X X X X X X X X X X X[.[.[.[.[.[.[.[.[.[.[.[.[.[.[.[.].].].].E.E.E.T. . .o.o.o.o.o.o.o.o.o.o.o.o.o.o.R.E.E.E.].XXoX[.|.[.[.[. X X`.`.`.`.`.`.[.[.[.[.[.[.[.[. X X X X X X X X X X X X X X X X X X[.[.oX.Xs.{ ! G h d y y d N -.c.vXcXCXcXkX:Xd.9.V z Z Z Z Z k k Z Z Z z V D f.).,XbXVXBXnXlX>Xh.8.C x k s s x U ^ e.r.r.y.t.8.9.C f y y s x ! g.OX;XwX8XaXaXpXpXpXpXpXSXiX4X;Xh.e.L m n ",
"=.w.z.-XwXqXaXaXaXsXpXpXpXSXSXiX3X&X~.' A k s s f f B L / ( ` X.X.X.o.o.o.o.o.o.o.o.o.o.o.o.o.o.+.E.E.'.].XXXXXXXXXX.X'.E...+. .o. . . . . .o.o.o.o.E.E.!..XXX#XoX$X$X$X$X X X X X X X X X X X X X X X X X X X X X X[.[.[.[.[.[.[.[.[.[.[.[.[.[.[.[.].].].].E.E.E.T. . .o.o.o.o.o.o.o.o.o.o.o.o.o.o.R.E.E.W.].XXXX[.|.[.[.[. X X`.`.`.`.`.`.[.[.[.[.[.[.[.[. X X X X X X X X X X X X X X X X X X[.oXoX.Xs.{ Q G h d y y a h -.c.kXvXCXcXkX:Xd.9.S z Z Z k k k k k Z Z z V D f.).,XVXBXBXbXzX>Xf.8.C x k s s x U / e.e.r.y.e.8.9.C f y y s x ! a.@X2XwX8XaXaXpXpXpXpXpXpXiX5X;X^.e.U m g ",
"=.w.z.-XwXqXaXaXaXsXsXpXsXFXSXiX3X&X(.` A k s s f f B L / ( ` X.X.X.o.o.o.o.o.o.o.o.o.o.o.o.o.o.+.E.E.'.].XXXXXXXXXX.X'.E.E.+. .o.o. . . . .o.o.o.o.E.E.!..XXX#XoX$X$X$X$X X X X X}. X X X X X X X X X X X X X X X X[.[.[.[.[.[.[.[.[.[.[.[.[.[.[.[.].].].].E.E.E.T. . .o.o.o.o.o.o.o.o.o.o.o.o.o.o.R.E.E.W.].XXXX[.|.[.[.[. X X[.[.[.[.[.[.[.[.[.[.[.[.[.[. X X X X X X X X X X X X X X X X X X[.[.oX@Xs.{ Q G h d a   a h -.l.kXvXCXcXxX:Xd.8.^ V z z z z z z z z z c Q ) f.).4XVXmXBXnX4X>Xh.8.D c k s s x L / e.e.r.e.e.8.9.C f y y s x ! a.OX2XwX8XaXaXpXpXpXpXpXpXiX5X;X^.e.U H g ",
"=.t.z.-XwXqXaXaXaXsXpXpXsXFXSXiX3X%X(.' A k s s f f B L / ( 0.i.p.p.X.o.o.o.o.o.o.o.o.o.o.o.o.o.+.+.E..X.XXXXXXXXXXX.X'.E.E.+. . .o. . . . .o.o.o.o.E.E.!..XXXXXoX$X$X$X X X X X}.}.}.}. X X X X X X X X X X X X X X[.[.[.[.[.[.[.[.[.[.[.[.[.[.].].].].].].W.E.E.T. . . .o.o.o.o.o.o.o.o.o.o.o.o.o.R.E.E.E.].XXXX].|.[.[.[. X X[.[.[.[.[.[.[.[.[.[.[.[.[.[. X X X X X X X X X X X X X X X X X X|.oXoX@Xs.{ P x h a a   a h T l.<XvXNXNXxX:Xk.i.0.) S S S A A A A c S Q ( 0.(.=XbXmXmXmXnX4X-Xh.8.Q c k s s x L / 8.e.r.e.e.7.9.C f y y s l ! a.OX2X8X8XaXaXpXpXpXpXpXpXiX4X;X^.e.L H g ",
"=.t.z.-XwXqXaXaXsXsXpXsXsXFXSXiX3X%X(.' A k s s f f B L / ( 0.i.p.p.X.o.o.o.o.o.o.o.o.o.o.o.o.o.+.+.E..X.XXXXXXXXXXX.X'.E.E.+.+. . . . . . .o.o.o.o.E.E.!..XXXXXoX$X$X$X X X X X}.}.}.}. X X X X X X X X X X X X X X[.[.[.[.[.[.[.[.[.[.[.[.[.[.].].].].].].W.E.E.T. . .o.o.o.o.o.o.o.o.o.o.o.o.o.o.R.E.E.E.].XXoX[.|.[.[.[. X X[.[.[.[.[.[.[.[.[.[.[.[.[. X X X X X X X X X X X X X X X X X X X|.oXoX.X+.{ P x h a a   a h T g.<XxXNXNXbX>X*X).i.0.) ( ( ~ ~ ~ ~ ) ( ( i.s./.;X0XmXmXmXnX9X-Xh.8.Q c z s z B L / e.r.r.r.e.8.9.C f y y s l ! a.OX2X8X8XaXaXpXpXpXpXpXaXiX5X;X^.e.P H g ",
"=.t.z.-XwXqXaXaXaXsXsXsXsXsXSXiX3X%X(.' A v s s f f B U / 8.0.i.p.p.o.o.o.o.o.o.o.o.o.o.o.o.o.o.+.E.E..X.XXXXXXXXXXX].'.E.E.+.+.o.o. . . . .o.o.o.o.E.E.!..XXXXXoX$X$X$X X X X X X}. X X X X X X X X X X X X X X X X[.[.[.[.[.[.[.[.[.[.[.[.[.].].].].].].].E.E.E.T. . .o.o.o.o.o.o.o.o.o.o.o.o.o.o.R.E.E.W.].XXXX].|.[.[.[. X X[.[.[.[.[.[.[.[.[.[.[.[.[.[. X X X X X X X X X X X X X X X X X X|.[.oX.X+.{ P G h d     a h T g.<XxXNXNXbX,X,X>X^.f.f.f.f.f.f.f.f.i.X.i.h.^.+X=X5X0XmXmXnX4X;Xh.8.Q c z s z V U / e.r.r.r.e.8.9.C f y y s x / a.OX;XwX8XaXaXpXpXpXpXpXSXiX4X;Xh.e.L H g ",
"=.w.z.;XwXqXDXaXaXaXsXsXsXsXpXtX3X%X(.` A l s s s f x L / ( e.i.p.p.X.o.o.o.o.o.o.o.o.o.o.o.o.o.+.E.E..XXXXXXXXXXXXXXX'.'.E.+.+.o. . . . . .o.o.o.o.E.E.!..XXXXXoX|.$X$X|.|.[.[.[.[.[.[.[.[.[.[.[.[.[.[.[.[. X X X X[.[.[.[.[.[.[.[.[.[.[.[.[.].[.].XX].].].E.E.T.T. . .o.o.o.o.o.o.o.o.o.o.o.o.o.o.R.E.E.W.].XXoX[.[.[.[.[.[.[.[.[.[.[.[.[.[.[.[.[.[.[.[.[. X X X X X X X X X X X X X X X X X X|.[.oX.X+.{ P x h d a a a h T c.<XxXNXNXbXbXbX4X,X;X>X>X:X:X*X*X*X*X*X*X*X=X=X4X8XqXDXDXnXbX,Xh.8.Q V z s z B ^ / e.r.r.r.e.8.9.C h y y s x / s.OX4X8XqXaXsXFXpXSXSXSXSXaX5X;XOXe.P K n ",
"=.w.v.-XwXqXDXaXaXaXsXsXsXsXpXiX3X%X(.` A l s u s f x L / ( e.i.i.p.X.o.o.o.o.o.o.o.o.o.o.o.o.o.+.E.E..XXXXXXXXXXXXXXX'.'.E.+.+.o. . . . . .o.o.o.o.E.E.!..XXXXXoX|.$X$X|. X[.[.`.[.[.[.[.[.[.[.[.[.[.[.[.[. X X X X[.[.[.[.[.[.[.[.[.[.[.[.[.[.[.[.XX].].].E.E.T.T. . .o. .o.o.o.o.o.o.o.o.o.o.o.o.R.E.E.E.].XXoX[.[.[.[.[.[.[.`.`.[.`.[.[.[.[.[.[.[.[.[.[. X X X X X X X X X X X X X X X X X|.|.[.XX.X+.{ P G h d a   a h T c.<XxXMXMXbXVXmXnXbX4X4X4X4X4X4X4X4X4X,X,X4X4X4X8X8XaXAXAXnX9X>Xh.8.Q V z s z B ^ / e.r.r.r.e.8.9.C h y y s c ( f.OX4X8XaXaXsXsXpXpXpXSXSXaX5X;XOXe.P K n ",
"=.w.v.-XwXqXDXsXsXsXsXsXsXsXpXtX3X%X(.` A k s u s f x L / ( e.i.i.p.X.o.o.o.o.o.o.o.o.o.o.o.o.o.+.E.E..XXXXXXXoXoXXXXX'.'.E.E.+. . . . . . .o.o.o.o.E.E.~..XXXXXoX|.$X$X|.|.[.[.`.[.[.[.[.[.[.[.[.[.[.[.[.[. X X X X[.[.[.[.[.[.[.[.[.[.[.[.[.[.[.[.XX].].].E.E.T.T. . .o.o.o.o.o.o.o.o.o.o.o.o.o.o.R.E.E.E.].XXoX[.[.[.[.[.[.[.`.`.`.`.[.[.[.[.[.[.[.[.[.[. X X X X X X X X X X X X X X X X X|.|.[.XX.X+.] P G h d a   a h / c.<XxXNXMXMXVXmXAXGXmXVXVXVXVXnXnXbXbXbXbXnXnXqXqXaXaXAXAXnXzX>Xh.8.Q V z f z V ^ / e.g.g.y.y.e.9.C f y y s c ( f.OX4X8XaXaXsXsXpXpXSXSXSXaX5X;X^.e.P K n ",
"=.w.v.-X9XmXDXsXsXsXsXsXpXSXpXtX3X%X(._ A k s u f f B U / ( 8.i.p.p.X.o.o.o.o.o.o.o.o.o.o.o.o.o.+.E.!..XXXXXXXoXoXoXXX'.'.E.E.+. . . . . . .o.o.o.o.E.E.~..XXX#XoX|.$X$X X X[.[.`.`.[.[.[.[.[.[.[.[.[.[.[.[. X X X X[.[.[.[.[.[.[.[.[.[.[.[.[.[.[.[.].].].].E.T.T.T. .o.o.o.o.o.o.o.o.o.o.o.o.o.o.o.R.E.E.E.].XXoX[.[.[.[.[.[.[.`.`.[.[.[.[.[.[.[.[.[.[.[.[. X X X X X X X X X X X X X X X X X|.[.[.oX.X+.] P x h d a X d h / c.<XxXBXVXVXVXmXmXGXGXBXBXBXVXVXVXVXVXVXVXVXmXnX0X8XaXFXAXnX5X>Xh.8.Q V z f z V ^ ( e.g.g.y.y.e.9.C f y y s c ~ f.OX4X8XaXaXsXsXpXpXpXSXSXaX5X;XOXe.P K n ",
"=.w.v.-X9XmXDXsXsXsXsXsXpXFXpXtX3X%X(._ A k s u f f B U / ( 8.i.p.p.X.o.o.o.o.o.o.o.o.o.o.o.o.o.o.E.!..XXXXXXXoXoXXXXX'.E.E.E.+.o. . . . . .o.o.o.o.E.E.~..XXX#XoX|.|.|. X X[.[.`.`.[.[.[.[.[.[.[.[.[.[.[.[. X X X X[.[.[.[.[.[.[.[.[.[.[.[.[.[.[.[.].].].].W.T.T.T. .o.o.o.o.o.o.o.o.o.o.o.o.o.o.o.R.E.E.E.].XXoX[.[.[.[.[.[.[.[.[.[.[.[.[.[.[.[.[. X X X X[.[. X X X X X X X X X X X X X X|.|.[.[.oX.X+.] P x h a a X d m / c.<XxXBXVXVXVXbXbXnXnXbXbXbXbXbXbXbXbXbXbXzXbX0X0X8XiXFXAXnX0X>Xh.8.Q V z f z V ^ ( e.g.g.r.e.e.9.C f u y s c ~ f.OX4X8XaXDXFXSXSXpXpXSXSXaX5X;XOXe.P K n ",
"=.t.v.-X9XmXDXFXaXsXsXsXpXpXpXtX3X%X!._ A k s u f f B U / 8.8.i.p.p.X.o.o.o.o.o.o.o.o.o.o.o.o.o.o.E.!.OXXXXXXXoXoXXXXX'.E.E.E.+.o. . . . . .o.o.o.o.E.E.!..XXX#XoX|. X X X X[.[.`.`.`.[.[.[.[.[.[.[.[.[.[.[. X X X X[.[.[.[.[.[.[.[.[.[.[.[.[.[.[.[.].].].].E.T.T.T.o.o.o.o.o.o.o.o.o.o.o.o.o.o.o.o.R.E.E.E.].XXoX[.[.[.[.[.[.[.[.[.[.[.[.[.[.[.[.[. X X X X[.[. X X X X X X X X X X X X X|.|.|.[.[.oX.X+.] P x h d X X d h / c.<XxXBXMXbXbX4X4X5X6X>X>X,X,X>X>X>X>X>X>X;X;X3X5X8XiXAXAXqX9X;Xf.( Q V z z z V ^ ( e.d.a.r.r.e.9.C f y y u c ( f.+X2X8XaXDXFXSXSXpXpXpXpXaX5X;XOXe.P K n ",
"=.w.v.-X9XmXDXFXaXsXsXsXsXpXpXtX3X%X!._ E k s u f f B U / 8.e.i.p.p.X.o.o.o.o.o.o.o.o.o.o.o.o.o.o.E.!.OXXXXXXXoXoXXXXX'.E.E.E.+.o.o. . . . .o.o.o.o.E.E.!..XXX#XoX|. X X X X[.[.`.`.`.`.[.[.[.[.[.[.[.[.[.[.[.[.[.[.[.[.[.[.[.[.[.[.[.[.[.[.[.[.[.[.].].].].E.E.T.T.o.o.o.o.o.o.o.o.o.o.o.o.o.o.o.o.R.E.E.W..XXXoX[.[.[.[.[.[.[.[.[.[.[.[.[.[.[.[.[.[.[.[.[.[.[. X X X X X X X X X X X X X X X|.[.].oX.X+.] P x h a a X a h / l.<XxXMXbXbX4X,X*X/.(.f.p.s.s.f.f.f.f.f.f.f.p./.3X5X8XAXDXqX0X;Xf.( Q c x z z V ^ ( e.a.a.r.e.e./ C z u y u c ) f.*X2X8XaXaXsXFXSXpXpXpXpXaX8X;XOXe.P K n ",
"=.t.v.-X9XmXDXDXsXsXsXsXsXsXpXtX3X%X(.~ A k s u f f B U / ( e.X.X.X.o.o.o.o.o.o.o.o.o.o.o.o.o.o.o.E.!.OXXXXXXXoXoXXXXX'.E.E.E.+.+.+. . . . .o.o.o.o.E.E.!..XXXoX[.|. X X X X[.[.[.[.[.[.`.`.[.[.[.[.[.[.[.[.[.[.[.[.[.[.[.[.[.[.[.[.[.[.[.[.[.[.[.[.XX].].].E.E.T.T.o.o.o.o.o.o.o.o.o.o.o.o.o.o.o.o.R.E.E.E.].XXoX[.[.[.[.[.[.[.[.[.[.[.[.[.[.[.[.[.[.[.[.[.[.[.[.[. X X X X X X X X X X X X X X[.[.oX.X+.] P G h d X X a h / l.kXxXNXbX,X>X*X^.p.` ` ` ` ` ` ` ~ ~ ( ( ` ` o./.3X8XAXnXqXwX;Xf.( Q c z s z V ^ / e.r.a.r.r.e./ C f u y u c ( p.+X3X8XaXaXFXFXSXpXpXpXpXaX8X;XOXe.P K n ",
"=.t.v.-X9XmXDXDXsXsXsXsXsXsXaXtX3X%X(.( F z s u f f B U / ( 0.X.X.X.o.o.o.o.o.o.o.o.o.o.o.o.o.o.o.E.!..XXXXXoXoXoXoXXX'.E.E.+.+.+.+.o. . . .o.o.o.o.E.E.!..XXXoX[.|. X X X X X X X X X X X X X X[.[.[.[.[.[.[.[.[.[.[.[.[.[.[.[.[.[.[.[.[.[.[.[.[.[.XX].].].E.E.T.Y.o.o.o.o.o.o.o.o.o.o.o.o.o.o.o.o.R.E.E.E.].XX$X|.|. X[.[.[.[.[.[.[.[.[.[.[.[.[.[.[.[.[.[. X X X X X X X X X X X X|.|.|. X X X[.[.XX.X+.] P x h d X X a h 7.l.kXxXNXlX,X*X^.p._ A A A A A A A c c c S ) ) ' ~.3X8XqXqX0X9X-Xf.( Q c z s z V ^ / e.r.r.r.e.7./ C z u u s c ~ f.*X3X8XiXaXFXFXSXpXpXpXpXaX8X;XOXi.P H g ",
"*.t.v.>X9XmXDXDXaXsXsXsXsXsXpXtX3X%X(.( F z s a f f B L / ( 0.X.X.X.o.o.o.o.o.o.o.o.o.o.o.o.o.o.o.!.!..XXXXXoXoXoXoXXX'.E.E.+.+.+.o.o. . . .o.o.o.o.E.E.!..XXXXX[.|.|.|. X X X X X X X X X X X X[.[.[.[.[.[.[.[.[.[.[.[.[.[.[.[.[.[.[.[.[.[.[.[.[.].XX].].].E.E.T.T. .o.o.o.o.o.o.o.o.o.o.o.o.o.o.o.R.E.E.E..XXXoX[.|.[.[.[.[.[.[.[.[.[.[.[.[.[.[.[.[.[.[.[. X X X X X X X X X X X X|.|.|. X|. X[.[.XX.X+.] P x h d X X a h 7.c.kXxXNXxX>X*X^.0.) A v v v v v v v v c c Q ) ' /.3X0XAXmX0X9X-Xf.( Q c k s k x U / e.r.r.r.e.8.9.C f u u p V ( f.*X2X8XiXaXFXsXpXpXpXpXpXiX8X;XOXX.P K g ",
"*.:.v.>X9XmXDXDXaXsXsXsXsXsXpXtX3X%X(.( F z s a f f B L / ( 0.X.X.X.X.o. . . . . . .o.o.o.o.o.o.o.!.!..XXXXXoXoXoXoXXX'.E.E.+.+.+.+.o. . . .o.o.o.o.E.E.~..XXXXX[.|.|. X X X X X X X}.}. X X X X[.[.[.[.[.[.[.[.[.[.[.[.[.[.[.[.[.[.[.[.[.[.[.].[.[.XX].].].E.E.T.T. .o.o.o.o.o.o.o.o.o.o.o.o.o.o.o.R.E.E.E.].XXoX[.|.[.[.[.[.[.[.[.[.[.[.[.[.[.[.[.[.[.[.[. X X X X X X X X X X X X|.|.|. X|.[.[.[.XX.X+.] P x h d X X a h 7.c.kXxXNXbX,X*Xf.0.D v v v v v k k k k z c A S ' /.5X0XGXGXmXbX>Xf.( Q c k s k x U / e.r.r.r.e.8.9.C f u u p V ( f.*X2X8XiXaXsXsXpXpXpXsXpXiX8X;XOX} P G g ",
"*.:.v.>X9XmXDXDXaXsXsXsXsXsXpXtX3X%X!.( F z s a f f B L / ( 0.X.X.o.o.o. . . . . . .o.o.o.o.o.o.o.E.!..XXXXXoXoXoXoXXX'.E.E.+.+.+.+.o. . . .o.o.o.o.E.E.~..XXX$X[.|. X X X X X X X X}.}. X X X X[.[.[.[.[.[.[.[.[.[.[.[.[.[.[.[.[.[.[.[.[.[.[.].[.[.].].].].E.T.E.E.o.o.o.o.o.o.o.o.o.o.o.o.o.o.o.o.R.E.E.E..XXXoX[.|.[.[.[.[.[.[.[.[.[.[.[.[.[.[.[.[.[.[.[. X X X X X X X X X X X X|.|.|. X X[.[.[.XX.X+.] P x h d X X a h 7.l.kXxXNXbX,X*Xf.` S v k k k k Z Z k k k v v A _ (.5X0XGXGXmXbX,Xf.( Q c k s k x U / e.r.r.r.e.8.^ C f u u s V ( f.*X2X8XiXaXsXsXpXpXpXsXpXiX8X;XOX} P H g ",
"*.:.c.-X9XqXDXDXaXaXsXsXsXsXpXtX3X%X!.( F z s a f f B L / 8.0.X.X.o.o.o. . . . . . .o.o.o.o.o.o.o.E.!..XXXXXXX$X$XXXXX'.E.E.+.+.+.+. . . . .o.o.o.o.E.E.~..XXX$X[.|. X X[.[.[.[.[.[. X X X X X X[.[.[.[.[.[.[.[.[.[.[.[.[.[.[.[.[.[.[.[.[.[.[.].[.[.].].].].W.T.E.E.o.o.o.o.p.o.o.o.o.o.o.o.R.R.o.o.R.E.E.E.].XXoX[.|.[.[.[.[.[.[.[.[.[.[.[. X X X X X X X X X X X X X X X X X X X X|.|.|.|.|.[.[.oXXX.X+.] P x h a a X a h 7.l.kXvXNXMXlX>Xf.0.) A v v v v v v v v z c c S _ ^.5XnXGXmXVXbX>Xh.( Q c k s k x U / e.r.r.r.e.8.^ C f u u s V ( f.*X2X8XiXaXsXsXpXpXpXpXpXiX8X;XOX} P H g ",
"*.:.c.-X9XnXDXDXaXaXsXsXsXsXpXtX3X%X!.( F z s p f f B L / 8.0.i.X.o.o.o. . . . . . .o.o.o.o.o.o.o.E.!..XXXXX#X$X$XXXXX'.E.E.+.+.+.+. . . . .o.o.o.o.E.E.!..XXX$X[.|. X X[.[.[.[.[.[. X X X X X X[.[.[.[.[.[.[.[.[.[.[.[.[.[.[.[.[.[.[.[.[.[.[.[.[.[.].].].].E.T.E.R.o.o.o.o.o.o.o.o.o.o.o.o.R.R.o.o.R.E.E.E.].XXoX[.|.[.[.[.[.[.[.[.[.[.[.[. X X X X X X X X X X X X X X X X X X X|.|.|.|.|.|.[.[.oXoX.X+.] P x h a a X a h 7.l.kXvXNXNXlX>X).i.0.D A A A A A A D S D D Q ) 0./.4XnXGXmXnXbX>Xh.( Q c k s k x U / e.r.r.r.e.8.^ C f u u s V ( f.*X2X8XiXaXsXsXpXpXpXpXpXiX8X;XOXe.P H g ",
"*.:.c.-X9XnXDXDXaXpXsXsXsXsXpXtX3X%X!.( L z s p f f B L / 8.0.i.X.o.o.o. . . . . . .o.o.o.o.o.o.o.!.!..XXXXX#X$X$XXXXX'.E.E.+.+.+.+. . . . .o.o.o.o.R.E.E..XXX$X[.|. X X[.[.[.[.[.[. X X X X X X[.[.[.[.[.[.[.[.[.[.[.[.[.[.[.[.[.[.[.[.[.[.[.[.[.[.].].].].E.E.E.R.o.o.o.o.o.o.o.o.o.o.o.o.R.R.o.o.R.E.E.E.].XXoX[.|.[.[.[.[.[.[.[.[.[.[.[. X X X X X X X X X X X X X X X X X X X|. X X|.|.|.[.[.oXoX.X+.{ P G h a a X a h 7.l.kXvXCXMXlX>X:Xh.q.) ) ) ) ) ) ) ) ) ) ) ` 0.(.>XzXnXmXBXVXbX,Xh.8.Q c k s k x L / e.r.r.r.e.8.^ C f u u s V ) f.*X2X8XiXaXsXsXpXpXpXpXpXiX8X;XOXe.P H g ",
"Y :.c.-X9XnXDXaXaXpXsXsXpXpXpXiX3X%X(.( F z s u f f B L / ( 0.X.X.X.o.o. . . . . . .o.o.o.o.o.o.o.!.!..XXXXX#X$X$XoXXX'.E.E.+.+.+.+. . . . .o.o.o.o.R.E.E..XXXoX|.|.|. X[.[.[.[.[.[. X X X X X X[.[.[.[.[.[.[.[.[.[.[.[.[.[.[.[.[.[.[.[.[.[.[.[.[.[.XX].].].E.E.E.R.o.o.o.o.o.o.o.o.o.o.o.o.R.R.o.o.R.E.E.E..XXXXX].|.[.[.[.[.[.[.[.[.[.[. X X X|.|. X X X X X X X X X X X X X X X X|.|.|.|.|.[.[.oXoX.X+.{ P G h a a a a h 7.l.kXvXCXNXxXkX:X).f.q.0.0.0.0.0.0.i.0.0.0.d.h.).>XzXbXVXBXVXbX,Xh.8.Q c k s k x L / 8.r.r.r.e.7./ C f u u s V ) f.*X2X8XiXaXsXsXpXpXpXpXpXaX8X;XOXe.P H g ",
"J :.c.-X9XnXDXaXpXpXpXpXpXpXpXiX3X+Xs.~ c k s u f f B L / ( 0.X.X.o.o.o. . . . . . .o.o.o.o.o.o.o.!.!..XXXXX#X$X$XoXXX'.E.E.+.o.o.o. . . . . . . .o.R.E.E..XXX].[.[.[.[.[.[.[.[.[.[.[.[.[.[.[.[.[.[.[.[.[.`.[.[.[.[. X X X X X X|.|.|.|.|.|.|.[.[.].XX].].].E.T.T.o.o.o.o.o.o.o.o.o.R.R.R.R.R.R.R.R.R.E.E.E.].XXXX].|.[.[.[.|.|.[.[.[.[. X X X X X X|. X|. X|.|.|.|. X X X X X X X X X X X X$X$X[.oXXX.X+.] P G h d a a d m 7.l.kXcXCXCXNXxXkX>X>X:X:X:X:X:X:X:X:X:X:X:X:X:X,XlXVXVXVXBXVXbX,Xh.8.Q c z s z x L / 8.r.r.r.e.7.T B s u u s V ) f.+X2X8XiXaXsXsXpXpXpXpXpXaX8X;XOXe.P m g ",
"J :.c.-X9XnXDXaXpXpXpXpXpXpXpXiX3X+Xs.~ c k s u f f B L / 8.0.i.X.o.o.o.o. . . . . .o.o.o.o.o.o.o.!.!..XXXXX#X$X$XXXXX'.E.E.+.o.+.o.o. . . . . . .o.R.E.E..XXX].[.[.[.[.[.[.[.[.[.[.[.[.[.[.[.[.[.[.[.[.`.`.[.[.[.[. X X X X X X X X|.|.|.|.$X[.[.].XX].].].E.T.T.o.o.o.o.o.o.o.R.R.R.R.R.R.R.R.R.R.R.E.E.E..XXXXX].|.[.[.[.|.|.[.[.[.[. X X X X X X|.|.|.|.|.|.|. X X X X X X X X X X X X X$X$X[.oXoX.X+.{ P x h d a a d B 7.l.kXcXNXCXNXMXcXxXkXxXMXCXCXBXBXBXNXMXMXMXbXbXbXMXVXVXBXBXVXbX,Xh.8.Q c z s z x L / 8.r.r.r.e.7.^ B f u u s V ) f.+X2X8XiXaXsXsXpXpXpXpXpXaX8X;XOXe.P m n ",
"J :.c.-X9XnXDXaXpXpXpXpXpXpXaXiX3X+Xs.~ c k s u f f B L / 8.0.i.X.o.o.o. . . . . . .o.o.o.o.o.o.o.!.!..XXXXX#X$X$XXXXX'.E.E.+.o.o.o.o. . . . . . .o.o.E.E.].XX].[.[.[.[.[.[.[.[.[.[.[.[.[.[.[.[.[.[.[.[.`.`.[.[.[.[. X X X X X|. X X X X|.|.$X|.[.[.XX].].].E.T.T. .o.o.o.o.o.o.R.R.R.R.R.R.R.R.R.R.R.E.E.E.].XXoX[.|.[.[.[. X X[.[.[.[. X X X X X X|.|.|.|.|.|.|.|. X X X X X X X X X X X X$X$XoXoXoX.X+.} P x h d a a d m 7.l.kXcXcXCXCXNXNXNXMXMXMXMXMXMXNXNXMXNXNXNXMXMXNXBXBXBXBXBXNXbX,Xv.e.Q x f s f x L / 8.y.r.r.e.8./ C f u u k V ) f.+X4X8XiXaXsXsXpXpXpXpXpXaX8X;X^.e.P m n ",
"J :.c.-X9XnXDXaXpXpXpXpXpXpXaXiX3X+Xs.~ c k s u f f B L / ( 0.X.X.X.o.o. . . . . . .o.o.o.o.o.o.o.!.~..XXXXX#X$X$XXXXX'.E.E.+. .o.o.o. . . . . . .o.o.E.E.].XX].[.[.[.[.[.[.[.[.[.[.[.[.[.[.[.[.[.[.[.[.`.`.[.[.[.[. X X X X|.|. X X X X X|.|.|.[.[.].].].].E.T.T.o.o.o.o.o.o.o.R.R.R.R.R.R.R.R.R.R.R.E.E.E.].XXoX[.|. X[.[. X X[.[.[.[. X X X X X X X|.|. X X X X X X X X X X X X X X X|.$X$X$X[.oXXX.X+.{ P x h d a a d m 9.l.<XcXcXNXCXCXNXNXNXNXCXCXCXCXCXCXCXCXNXNXNXNXNXNXNXNXJXJXNXxX<Xv.e.L x j s f x L / e.y.r.r.e.8./ C f u u k V ( f.OX4X8XiXaXsXsXpXpXpXpXpXaX8X;X^.e.P m n ",
"J :.c.-X9XnXDXaXpXpXpXpXpXpXaXiX3X+Xs.~ c k s u f f B L / ( 0.X.X.X.o.o.o.o.o.o.o.o.o.o.o.o.o.o.R.!.~.XXXXXXXX$X$XXXXX].E.E.+. .o.o.o. . . . . . .o.o.E.E.].XX].[.[.[.[.[.[.[.[.[.[.[.[.[.[.[.[.[.[.[.[.[.[.[.[.[.[. X X X X|.|.|. X X X X|.|.|.[.[.].].].].E.T.T.o.o.o.o.o.o.o.o.o.R.R.R.R.R.R.R.R.R.E.E.E.].XXoX[.|. X[.[. X X|.|.|.|. X X X X X X X X X X X X X X X X X X X X X X$X$X$X$X$X$XoXoXoX@Xs.{ Q x h d a a d m Y j.b.c.vXvXvXvXxXvXcXcXcXcXcXcXcXcXcXcXcXcXxXcXcXcXcXcXNXNXcXxXb.g.7.L x f s s h L 7.e.u.y.r.y.w.T V f s u k V ( f.*X2X8XiXaXsXsXpXpXpXSXpXaX5X;XOXe.^ B n ",
"I :.c.-X9XqXaXaXpXpXpXpXpXpXpXiX3X+Xs.~ A k s u s f B L / ( 0.X.X.X.o.o.o.o.o.o.o.o.o.o.o.o.o.o.R.R.~.~.XXXXXX$X$XXXXX].E.E.+.o.+.+.o. . . . . . .o.o.E.E.].].].[.[.[.[.[.[.[.[.[.[.[.[.[.[.[.[.[.[.[.[.[.[.[.[.[.[. X X X X X X|. X X X X[.[.[.[.[.].].].W.E.T.R.o.o.o.o.o.o.o.o.o.R.R.R.R.R.R.R.R.R.E.E.E.].XXoX[.|. X[.[.|.|.|. X|.|. X X X X X X X X X X X X X X X X X X X X X X$X$X$X$X$X$XoXoXoX@Xs.{ ! x h f a a d m I t.j.l.b.b.b.b.b.b.b.b.U.b.U.U.U.b.b.b.b.b.b.b.b.b.b.b.kXkXb.b.c.w.U K h s a s h L 7.y.u.u.r.y.w.T V f s u k V ( f.*X2X8XiXaXsXsXpXpXpXSXSXaX5X;X*Xe.T B n ",
"Y w.v.-X9XqXaXaXpXpXpXpXpXpXpXiX3X+Xs.~ A k s u f f B L / ( 0.X.X.X.o.o.o.o.o.o.o.o.o.o.o.o.o.o.R.R.~.XXXXXXXX$X$XXXXX'.E.E.+.+.+.+.o. . . . . . .o.o.+.E.'.].[.[.[.[.[.[.[.[.[.[.[.[.[.[.[.[.[.[.[.[.[.[.[.[.[.[.[. X X X X X X X X X X X|.[.[.[.[.].].].W.E.T.R.o.o.o.o.o.o.o.o.o.R.R.R.R.R.R.R.R.R.E.E.E.].XXoX|.|. X[.[.|.|. X X|.|. X X X X X X X X X X X X X X X X X X X X|.|.|.|.|.$X$X$XoXoXoX@Xs.{ ! x h f a a d m C -.t.y.j.l.j.j.j.j.j.j.j.j.j.j.j.j.l.l.l.l.u.u.l.l.l.l.c.c.l.u.u.:.K h h d a d h U w.y.u.u.u.y.w./ L z s u k V ( f.*X2X8XiXaXsXsXpXpXpXSXSXaX5X;XOXe.T m n ",
"Y :.c.<X9X0XaXaXpXpXpXpXpXpXpXiX3X+Xs.~ A k s u f f B L / ( 0.X.X.X.o.o.o.o.o.o.o.o.o.o.o.o.o.o.R.Q.~.XXXXXXXX$X$XXXXX'.E.E.+.+.+.o.o. . . . . . .o.o.+.E.'.].[.[.[.[.[.[.[.[.[.[.[.[.[.[.[.[.[.[.[.[.[.`.`.[.[.[.[. X X X X X X X X X[. X|.|.|.|.|.].].].].E.T.T.o.o.o.o.o.o.o.o.o.R.R.R.R.R.R.R.R.R.E.E.E.].XXoX[.|.[.[. X|.|. X X|.|. X X X X|.|.|.|.|. X X X X X X X X X|.|.|.|.|.|.|.|.$X$XoXoXoX@Xs.X.! G j s a y a N C I -.7.t.t.t.t.t.:.:.:.:.:.:.:.:.:.t.t.t.t.t.:.t.:.t.t.t.w.t.:.:.Y m g g g d g g Y w.y.u.u.u.y.e./ L z s u k V ( f.*X2X8XiXaXsXsXpXpXpXpXSXaX5X;X^.e.T B n ",
"Y t.c.<X9XwXaXaXpXpXpXpXpXpXpXiX3X+Xs.~ A k s u f f B L / ( 0.i.X.X.o.o.o.o.o.o.o.o.o.o.o.o.o.o.R.!.!..XXXXXXX$X$XXXXX'.E.E.+.o.+.+. . . . . . . .o.o.+.E.'.].[.[.[.[.[.[.[.[.[.[.[.[.[.[.[.[.[.[.[.[.[.[.[.[.[.[.[. X X X X X X X X X[.|.|.|.|.|.|.].].].].E.T.T.o.o.o.o.o.o.o.o.o.o.o.o.o.R.R.o.o.R.E.E.E.].XX#X|.|. X X X|.|. X X X|. X X X X|.|.|.|.|.|. X X X X|.|. X X X X X X|.|.|.|. X X$XoXoX.X+.X.Q x j s a y y f m m C I I I I I I I I I I I I I I H H H J J I Y Y I Y Y Y Y Y K H m g g d g d d g Y t.y.u.u.y.y.t.9.C f u u k V ( f.*X2X8XiXaXsXsXpXpXpXpXSXaX5X;XOXe.T m n ",
"Y t.c.7X9XwXaXaXpXpXpXpXpXpXpXiX3X+Xs.~ A k s u f f B L / ( 0.i.p.p.X.o.o.o.o.o.o.o.o.o.o.o.o.o.R.!.~..XXXXX#X$X$XXXXX'.E.E.+.o. . . . . . . . . .o.o.+.E.'.].].].[.[.[.[.[.[.[.[.[.[.[.[.[.[.[.[.[.[.[.[.[.[.[.[.[. X X X X X X X X[.[.|.|.|.|.|.[.].].].].E.E.R.o.o.o.o.o.o.o.o.o.o.o.o.o.R.R.o.o.R.E.E.E.].XX#X|.|. X X X|.|.|.].|.|. X X X X|.|.|.|.|.|. X X X X|. X X X X X X X|. X|.|.|.|.$X$XoXXX+.| W c l s a y y d d f h N N n N N N N N N m m m N N N h g h h g g g g g g g g g g g d a d d d d d g U t.y.u.u.y.y.e.9.C f u u s V ) f.*X2X8XiXaXsXsXpXpXpXSXSXaX5X;XOXe.T m n ",
"=.t.v.7X9XwXaXaXpXpXpXpXpXpXpXiX3X+X!.~ A k s u f f B L / 8.0.i.i.p.X.o.o.o.o.o.o.o.o.o.o.o.o.o.R.!.~..XXXXXoXoXoXoXXX'.E.E.+.o. . . . . . . . . .o.o.+.E.'.].].].[.[.[.[.[.[.[.[.[.[.[.[.[.[.[.[.[.[.[.[.[.[.[.[.[.}.}. X X X X X X[. X|.|.|.|.|.|.].].].].E.E.R.o.o.o.o.o.o.o.o.o.o.o.o.o.o.o.o.o.R.E.E.E.].XX#X|.|. X X X|.|.|.].|.|. X X X X X|.|.|. X X X X X X X X X X X X X X|.|. X X X X|.$XoXXX+.| W G l s a y y y y a d d d d d d d d d d g g d d d d d d d d d a d a d d d d d a a a a a a a a s h U 7.y.u.u.y.y.e./ C f u u s V ) f.*X2X8XiXaXsXsXpXpXpXSXSXiX5X;X*Xe.T m g ",
"=.t.v.7X9XwXaXaXpXpXpXpXpXpXpXiX3X+X!.~ A k s u f f B L / ( 0.i.p.p.X.o.o.o.o.o.o.o.o.o.o.o.o.o.R.!.!..XXXXXoXoXoXoXXX'.E.E.+.o. . .o. . . . . . .o.o.+.E.'.].].].[.[.[.[.[.[.[.[.[.[.[.[.[.[.[.[.[.[.[.[.[.[.[.[.[.}.}. X X X X X X X X|.|.|.|.[.[.].].].].E.E.R.o.o.o.o.o.o.o.o.o.o.o.o.o.o.o.o.o.R.E.E.W.].XX|.|.|. X X X|.|.|. X[.].[.[. X X X X|.|. X X X X X X X X X X X X X X|.|.|. X X X|.[.[.].+.| W v l s a a y y y y a a a y a a a a a a a a a y y a a a a a a a a a a a a a a a a a a a a a a s x U w.y.y.u.y.y.w./ L f u u s V ) f.*X2X8XiXaXsXsXpXpXpXSXSXaX5X;XOXe.T m g ",
"=.t.v.9X9XwXaXaXpXpXpXpXpXpXpXiX3X+Xs.~ A k s u f f B L / ( 0.i.i.p.X.o.o.o.o.o.o.o.o.o.o.o.o.o.R.!.~..XXXXXXX$X$XoXXX'.E.E.+.o.+.+.o. . . . . . .o.o.+.E.'.].[.[.[.[.[.[.[.|.|.|.|.[.[.[.[.[.[.[.[.[.[.[.[.[.[.[.[. X X X X X X X X X X|.|.|.|. X X].].].].E.E.R.o.o.o.o.o.o.o.p.p.o.o.o.o.R.R.R.R.R.R.E.W.].XX|.|.|. X X X|.|. X X X X X X X X X X X|. X X|. X|.|. X X X X X X|. X|.|. X X[.[.[.[.oX].+.| E G l s s a y y a a a a a a a a a a a y a y y y a a a a a a a a a a a a a a a a a a a a s s j j x P [ y.u.g.y.r.e.^ L f u u s V ) f.*X2X8XiXaXsXsXpXpXpXSXSXaX5X;XOXe.^ h g ",
"=.t.v.7XbXwXaXaXpXpXpXpXpXpXpXiX3X+Xs.~ A k s u f f B L / 8.0.i.p.p.X.o.o.o.o.o.o.o.o.o.o.o.o.R.R.!.!..XXXXXXX$X$XXXXX'.E.E.+.o.+.+.+. . . . . . .o...+.E.'.].[.[.[.[.[.[.[.|.|.|. X[.[.[.[.[.[.[.[.[.[.[.[.[.[.[.[. X X X X X X X X X X|.|.|.|. X X].].].W.E.E.R.o.o.o.o.o.o.o.p.p.o.o.o.o.R.R.R.R.R.R.E.W.].XX|.|.|. X X X|.|. X X X X X X X X X X X|. X X|. X|.|. X X X X X X|. X|.|. X X[.[.[.oX[.].E.| W F v v j j s s s f f f f f f f f f f s s s s s f j j j j j j j j j j j j j s s j j j j l l x x F ^ { e.d.d.r.e.{ ^ L f u u u V ) f.*X2X8XaXaXsXsXpXpXpXSXSXaX5X;XOXe.T h g ",
"=.t.v.7XbXwXaXaXpXpXpXpXpXpXpXiX3X+Xs.~ A k u u f f B L / ( 0.i.p.p.X.o.o.o.o.o.o.o.o.o.o.o.o.R.R.!.!..XXXXXXX$X$XXXXX'.E.E.+.o.+.+.+. . . . . . .o...+.E.'.].[.[.[.[.[.[.[.|.|.|. X[.[.[.[.[.[.[.[.[.[.[.[.[.[.[.[. X X X X X X X X X X|.|.|.|. X X].].].E.E.E.R.o.o.o.o.o.o.o.p.p.o.o.o.o.R.R.R.R.R.E.E.W.XXXX|.|.|. X X X|.|. X X X X X X X X X X X X X X|. X|.|. X X X X X X|. X|.|. X X[.[.[.oXoX].E.| W E F c x G x x x x x x x x x x x x x x x x x x c F F F F F F F F F G F x c x x x x x x c F F F Q ( { e.d.a.e.e.{ ^ L f u u u V ) f.*X2X8XaXaXsXsXpXpXpXSXSXaX5X;XOXe.T h g ",
"=.t.v.,X9X0XaXaXpXpXpXpXpXpXpXiX3X+Xs.~ A k s u f f x L / ( 0.i.p.p.X.X.o.o.o.o.o.o.o.o.o.o.o.o.R.!.~..XXXXX#X$X$X#XXX].'.E.+.+.o.o.o. . . . . . .o.o.+.E.'.].].[.[.[.[.[.[.|.|. X X[.[.[.[.[.[.[.[.[.[.[.[.[.[.[.[. X X X X X X X X X X[.|.|.|.|.|.].].].].E.T.T.o.o.o.o.o.o.o.o.p.o.o.o.o.R.R.R.R.R.R.E.W.].XX#X|.|. X X X|.|. X|.|.|. X X X X|.|.|.|.|.|. X X|.|. X X X X X X X X X X|.|.[.[.[.[.oXXXE.| ~ W E F F P F F G F F F F F F F c c c c c c F F P Q Q Q ! ! ! ! ! P P F F F F F F F F F F F W W ! ( { { X.i.e.} { ^ L f u y s V ) f.*X2X8XaXaXsXpXpXpXpXpXpXaX5X;XOXe.U h g ",
"=.t.z.<X9X0XDXaXpXpXpXpXpXpXpXiX3X+Xs.~ A k s u f f B L / ( 0.i.p.p.X.X.o.o.o.o.o.o.o.o.o.o.o.o.o.!.~.+XXXXXXX$X$X#XXX].E.E... . .o.o.o.o.o. . . .o.o.+.E.'.].].[.[.[.[.[.[.|.|. X X[.[.[.[.`.`.`.`.`.`.[.[.[.[.[.[. X X X X X X|. X X X[.[.|.|.|.].].].].].E.T.T.o.o.o.o.o.R.R.Q.Q.p.p.o.o.o.o.o.o.R.R.E.W.].#X#X|. X|.|.|.|.|.|.|.|.|. X X X X X X X X X X X X X X X X X X[.[.[.[.[.[.[.[.[.[.[.[.oXXX'.o.| ~ ! ! ! Q Q Q ! Q Q Q Q Q Q Q Q Q Q Q Q Q Q ! ! ( { { { { { { { ~ ~ ~ ! ! ! ! ! ! ~ ! ! ! ! ! ~ ~ { { X.X.i.e.e.^ L f a y s V ) f.*X2X8XaXaXsXpXpXpXpXpXpXaX5X;Xh.e.P H g ",
"Y t.z.-X9X0XDXaXpXpXpXpXpXpXpXiX3X+X!.~ A k s u f f x L / ( e.i.p.p.X.o.o.o.o.o.o.o.o.o.o.o. .o.o.!.~..XXXXXXX$X$XXXXX'.E.E... . . .o.o.o.o. . . .o.o.+.E.'.].].[.[.[.[.[.[.|.|. X X[.[.[.[.`.`.`.`.`.`.`.[.[.[.[.[. X X X X|. X|. X X X X[. X|.|.].].].].].E.T.T.o.o.o.o.o.R.R.Q.Q.p.p.o.o.R.R.R.R.R.R.E.W.].#X#X|. X|.|.|.|.|.|.|.|.|. X X X X X X X X X X X X X X X X X X[.[.[.[.[.[.[.[.[.[.[.[.oXoX].E.o.| ] ] ~ { { { { { ( ( ( ( ( ( ( ( ( ( ( ( ( ( { X.a.s.g.g.g.a.X.X.X.X.X.{ X.` X.X.X.{ { ~ ~ ~ { { { X.X.X.i.e.e./ L f a y s V ( f.*X2X8XaXaXFXpXpXpXpXpXpXaX5X;X^.e.P H g ",
"Y t.z.-X9XqXDXaXsXpXpXpXpXpXpXiX3X+X!.~ A k s u f f B L / ( 8.i.p.p.X.o.o.o.o.o.o.o.o.o.o.o. .o.o.!.!..XXXXXXX$X$XXXXX'.E.E... . . .o.o.o.o. . . .o.o.+.E.'.].[.[.[.[.[.[.[. X|. X X[.[.[.[.`.`.`.`.`.`.`.[.[.[.[.[. X X X X|.|.|. X X X X X X|.|.].].].].].E.T.T.o.o.o.o.o.R.R.Q.Q.p.p.o.R.R.R.R.R.R.R.E.W.].#X#X|.|.|.|.|.|.|.|.|.|.|. X X X X X X X X X X X X X X X X X X[.[.[.[.[.[.[.[.[.[.[.[.oXoXXX'.+.o.| | { X.} X.X.X.X.X.X.X.X.X.X.X.X.X.X.X.X.X.X.s.s.s.s.x.x.s.s.o.o.O.X.| | | X.X.X.X.X.X.X.X.X.X.X.X.X.X.i.e.w./ L f a y s V ( f.*X2X8XaXaXpXpXpXpXpXpXpXaX5X;X^.e.P H g ",
"-.t.v.-X9XqXDXaXpXpXpXpXpXpXaXiX3X+Xs.~ A k s u f f B L / ( e.i.p.p.X.o.o.o.o.o.o.o.o.o.o.o. .o.o.E.!..X+XXXXX$X$XXXXX'.E.E... . ...o.o.o.o. . . .o.o.+.E.'.].[.[.[.[.[.[.[. X|. X X[.[.[.[.`.`.`.`.`.`.`.[.[.[.[.[. X X X X X X|. X X X X X|.|. X].].].].].E.T.T. .o.o.o.o.R.Q.Q.Q.o.o.o.o.R.R.R.o.R.R.E.W.].#X|.|.|.|.|.|.|.|.|.|.|.|. X X X X X X X X X X X X X X X X X X[.[.[.[.[.[.[.[.[.[.[.[.oXoXoX'.'.+.o.| X.| O.| | X.X.X.X.X.X.X.X.X.X.X.X.X.X.| o.s..X.X.Xx.x.x.s.s.s.s.o.o.o.| X.X.X.X.X.X.X.X.X.X.X.X.X.i.i.e.w./ U f a y s c ( f.*X2X8XaXaXsXpXpXpXpXpXpXaX5X;X^.e.P H g ",
"=.t.v.-X9XmXDXaXaXpXpXpXpXpXaXiX3X+X!.~ A k s u f f B L / ( e.i.p.p.X.o.o.o.o.o.o.o.o.o.o.o. .o.o.E.!..X+X#XXX$X$XXXXX].E.E... . . .o.o.o.o. . . .o.o.+.E.'.].[.[.[.[.[.[.[. X X X X[.[.[.[.`.`.`.`.`.`.`.[.[.[.[.[. X X|.|. X X|. X X X X X|.|. X].].].].].E.T.T. .o.o.o.o.R.Q.Q.Q.o.o.o.o.R.R.R.R.R.R.E.W.].#X|.|.|.|.|.|.|.|.|.|.|.|. X X X X X X X X X X[.[.[.[.[.[.[.[.[.[.[.[.[.[.[.[.[.[.[.[.oXoXXX'.'.+.o.| | | | | | | | | X.X.o.X.X.X.o.o.o.X.X.o.o.+..XOXOX@X@X.X.Xs.o.o.o.o.o.o.o.o.X.X.X.X.X.X.X.X.X.X.X.i.i.e.w./ I f a y s c ( p.*X2X8XaXaXsXpXpXpXpXpXpXaX5X;X^.e.P H g ",
"=.w.v.-X9XmXDXaXaXpXpXpXpXpXaXiX3X+Xs.~ A k s u f f B L / ( e.i.p.p.X.o.o.o.o.o.o.o.o.o.o.o.o.o.o.E.!.+X+X#XXX$X$XXXXX].E.E... ...+.o.o.o.o. . . .o.o.+.E.'.].].].[.[.[.[.[.|.|.|.|.[.[.[.[.`.`.`.`.`.`.[.[.[.[.[.[.|.|.|.|. X X|. X X X X|.|.|. X].].].].W.E.T.E. .o.o.o.o.R.Q.Q.Q.R.o.o.o.R.R.R.R.R.R.W.W.].#X|.|.|.|.|.|.|.|.|.|.|.|. X X X X X X X X X X[.[.[.[.[.[.[.[.[.[.[.[.[.[.[.[.[.[.[.[.[.[.].'.E.+. . . .| | | | | | o. . .o. .X.X.o. . .| X. .o.+.!..XXX@X@X.X.Xs.o.o.o.o.o.o.o.X.X.X.X.X.X.X.X.X.X.X.X.i.i.e.w./ I f a y s c ) p.*X4X0XaXDXsXpXpXpXpXpXpXaX5X;X^.e.P H g ",
"-.w.v.-X9XmXDXaXaXpXpXpXpXpXpXiX3X+Xs.~ A k s u f f B L / ( e.i.p.p.X.o.o.o.o.o.o.o.o.o.o.o. .o.o.E.!.+X+X#XXX$X$XXXXX].E.E... ...+.o.o.o.o. . . .o.o.+.E.'.].].].[.[.[.[.[.[.[.[.[.[.[.[.[.`.`.`.`.`.[.[.[.[.[.[. X|.|.|.|. X X|. X X X X|.|.|. X|.].].].W.E.T.T. .o.o.o.o.R.Q.Q.Q.R.o.o.o.R.R.R.R.R.R.W.W.XX#X|.|.|.|.|.|.|.|.|.|.|.|. X X X X X X X X X X[.[.[.[.[.[.[.[.[.[.[.[.[.[.[.[.[.[.[.[.[.[.].'.'.E. . . . . . . . . . . . . . . . . . . . . . .+.E..X.XXXXXXX.X.X!.+.o.o.o.o.o.o.o.| | | | | X.X.X.X.X.i.i.i.e.w./ I f a y s c ( p.*X4X0XaXDXFXpXpXpXpXpXpXaX5X;X^.e.P H g ",
"=.t.c.-X9XmXDXaXaXpXpXpXpXpXpXiX3X%X!.~ A k s u f f B L / ( e.i.X.X.o.o.o.o.o.o.o.o.o.o.o.o. .o.o.!.!.+X+XXXXX$X$XXXXX].W.E... ...o.o.o.o.o. . . .o. .+.E.'.].].].[.[.[.[.[.[.[.[.[.[.[.[.[.`.`.`.`.[.[.[.[.[.[.[. X X X|. X X X X X X X|.|.|.|. X X].].].].E.T.T. .o.o.o.o.R.R.Q.Q.Q.Q.o.o.R.R.R.R.R.R.E.W.].#X#X|.|.|.|.|.|.|.|.|.|.|. X X X X X X X X X X[.[.[.[.[.[.[.[.[.[.[.[.[.[.[.[.[.[.[.[.[.[.].'.'.T. . . . . . . . . . . . . . . . . . . . . . ...E.'..XXXXXXX.X.XE.+.o.o.o.o. .o.o.| | | | | | X.X.X.X.i.i.i.e.e./ I f y y s c ( f.*X4X5XaXaXpXpXpXpXpXpXpXaX5X;X^.e.P K g ",
"I t.c.-X9XqXqXaXiXiXpXpXpXpXpXiX3X%X!.~ c k s u f f B L / ( 0.i.X.X.o.o.o.o.o.o.o.o.o.o.o.o. .o.R.R.~.+X+X#XXX$X$XXXXX].E.E... . .o.o.o.o.o. . . .o. .+.E.'.].].[.[.[.[.[.[.[.[.[.[.[.[.[.[.[.[.[.[.[.[.[.[. X X X X X X X X X X X X X X[.[.|.|. X|.].].].].E.T.T. . .o.o.o.R.R.Q.Q.Q.Q.o.o.R.R.R.R.R.R.W.W.].#X#X|.|.|.|.|.|.|. X X X X X X X X X X X X X X`.`.`.[.`.`.[.[.[.[.[.[.[.[.[.[.[.[.[.[.[.[.].'.'.T. . . .o.o.o.o.o.o.o. . . . . . . . . . . . .+.E.'.XXXXXXXX.X'.E.E.+. . .o.o.o.o.o.o.o.o.| | X.X.X.X.i.i.i.e.w./ I f y y s c ( f.*X4X0XaXDXFXpXpXpXpXsXFXaX0X;XOXe.T K n ",
"I t.c.-X9XqXqXaXaXiXpXpXpXpXpXiX3X%Xs.~ A k s u f f B L / ( 0.i.X.X.o.o.o.o.o.o.o.o.o.o.o.o. .o.R.R.~.XX%X#XXX$X$XXXXX].E.E... . . .o.o.o.o. . . .o. ...E.'.].].[.[.[.[.[.[.[.[.[.[.[.[.[.[.[.[.[.[.[.[.[.[. X X X X X X X X X X X X X X[.[.|.|. X|.].].].].E.T.T. . . .o.o.R.R.Q.Q.p.p.p.o.R.R.R.R.R.R.W.W.].#X#X|.|.|.|.|.|.|. X X X X X X X X X X X X X X`.`.[.`.`.`.`.[.[.[.[.[.[.[.[.[.[.[.[.[.[.[.].'.'.E.o. . .o.o.o.o.o.o.o. . . . . . .o.o. . . . .+.E.].].XXXXXX].'.E.E... .o.o.o.o.o.o.o.o.o.X.X.X.X.X.X.i.i.i.e.e./ I f a y s c ) f.*X4X0XaXDXFXpXpXpXpXsXsXaX0X;XOXe.T H n ",
"I t.c.-X9XqXqXqXaXiXpXpXpXpXpXiX3X%X!.~ A k s u f f B L / ( 0.X.X.X.o.o. . . . . . .o.o.o.o. .o.R.R.~.XXXX#XXX$X$XXXXX].W.E... . . .o.o.o.o. . . .o.o.+.E.'.].].[.[.[.[.[.[.[.[.[.[.[.[.[.[.[.[.[.[.[.[.[.[. X X X X X X X X X X|. X X X[.[.[.[. X[.].].].].E.T.T. . . .o.o.R.R.Q.Q.p.p.p.o.R.R.R.R.R.R.W.W.].#X#X|.|.|.|.|.|.|. X X X X X X X X X X[.[.[.[.`.`.[.[.`.`.`.[.[.[.[.[.[.[.[.[.[.[.[.[.[.[.].'.'.E.+. .o.o.o.o.o.o.o.o.o.o.o.o.o.o.o.o.o.o. . .E.'.].XXXXXXXXXX.XE.E... . . .o.o.o.o.o.o.o.o.o.o.o.| X.i.i.i.e.e./ I f a y s c ( f.*X4X0XaXDXFXpXpXpXpXsXsXaX0X;XOXe.T H n ",
"I w.c.-X9XqXqXqXaXiXpXpXpXpXaXiX3X+Xs.~ A k u u f f B L / ( 0.X.X.X.o.o. . . . . . .o.o.o.o.o.o.R.!.~.XXXX#XXX$X$XXXXX].E.E... . .o.o.o.o.o. . . .o.o.+.E.'.].].[.[.[.[.[.[.[.[.[.[.[.[.[.[.[.[.[.[.[.[.[.[. X X X X|.|.|.|. X X|. X X|.[.[.[.[.[.[.].].].].E.T.T. . . .o.o.R.R.R.Q.p.o.R.o.R.R.R.R.R.R.E.W.].#X#X|. X|.|.|.|.|.].[.[. X X X[.[. X X[.[.[.[.[.[.`.`.`.`.`.[.[.[.[.[.[.[. X X X X[.[.[.[.].'.'.E.+.o.o.o.o.o.o.o.o.o.o.o.o.o.o.o.o.o.o.o. . .E.'.].XXXXXXXXXX.XE.E... . . .o.o.o.o.o.o.o.o.o.o.o.o.X.i.i.i.e.e./ I f s u s c ( f.*X4X0XAXDXFXsXsXpXpXpXsXaX0X;X*Xi.T H b ",
"I w.z.-X9XqXqXaXaXiXpXpXpXpXaXiX3X+Xs.~ A k u u f f B L / ( 0.X.X.X.o.o. . . . . . .o.o.o.o.o.o.R.!.~.XXXX#XXX$X$XXXXX].E.E... . .o.o.o.o.o. . . .o.o.+.E.'.].].[.[.[.[.[.[.[.[.[.[.[.[.[.[.[.[.[.[.[.[.[.[. X X|.|.|.|.|. X X X|. X X|.[.[.[.[.[.[.].].].].E.T.T. . . .o.o.R.R.R.Q.o.o.o.o.R.R.R.R.R.R.W.W.].#X#X|.|. X X X X X].[.[. X X X X X X X[.[.[.[.[.[.`.`.`.`.`.`.[.[.[.[. X X X X X X X|.|.[.].].'.E.+.o.o.o.o.o.o.o.o.o.o.o.o.o.o.o.o.o.o.o. . .T.'.].].].XXXXXX.X'.E.+. . . .o.o.o.o.o.o.o.o.o.o.o.o.X.i.i.i.e.e./ I f s u s c ( f.*X4X0XAXDXFXsXsXpXpXpXpXaX5X2X^.i.T K n ",
"I w.z.-X9XqXqXaXaXiXpXpXpXpXaXiX3X+X!.~ A k s u f f B L / ( 0.i.X.o.o.o. . . . . . .o.o.o.o. .o.R.!.~.+X#X#XXX$X$XXXXX].E.E... . . .o.o.o.o. . . .o.o.+.E.'.].].[.[.[.[.[.[.[.[.[.[.[.[.[.[.[.[.[.[.[.[.[.[. X X|.|.|.|.|. X X X|. X X|.[.[.[. X[.[.].].].W.E.T.T. . . .o.o.R.R.R.R.o.o.o.o.R.R.R.R.R.R.W.W.].#X#X|.|. X X X X|.|.|. X X X X X X X X[.[.[.[.[.[.`.`.`.`.[.[.[.[.[.[. X X X X X X X X|.[.].].'.E.+.o.o.o.o.o.o.o.o.o.o.o.o.o.o.o.o.o.o.o. . .T.'.].[.].XXXXXX.X'.E.+. . . .o.o.o.o.o.o.o.o.o.o.o.o.o.i.i.i.e.8./ U f s u s c ( f.*X4X0XAXFXFXpXpXpXpXpXSXaX5X2X^.i.T K n ",
"=.w.z.-X9XqXqXaXaXiXpXpXpXpXpXiX3X+Xs.~ A k u u f f B L / ( 0.i.X.o.o.o. . . . . . .o.o.o.o.o.o.R.!.~.+X+X#XXX$X$XXXXX].E.E... . . .o.o.o.o. . . .o.o.+.E.'.].].[.[.[.[.[.[.[.[.[.[.[.[.[.[.[.[.[.[.[.[.[.[. X X|.|.|.|.|.|. X X|. X X X[.[.[.[.[.[.].].].W.E.T.T. . . .o.o.R.R.R.R.o.o.o.o.R.R.R.R.R.R.W.W.].#X#X#X|. X X X X|.|.|. X X X X X X X X[.[.[.[.[.[.[.[.[.[.[.[.[.[.[.[. X X X X X X X X|.[.].].'.E.+.o.o.o.o.o.o.o.o.o.o.o.o.o.o.o.o.o.o.o. . .T.'.].].oXXXXXXX.XE.E.+. . . .o.o.o.o.o.o.o.o.o.o.o.o.o.i.i.i.e.8./ C f u u s c ( f.*X4X0XAXFXFXpXpXpXpXpXSXaX5X2X^.i.T K n ",
"I w.z.-X9X0XaXaXiXiXpXpXpXpXpXiX3X+Xs.~ A k s u f f B L / ( 0.i.X.o.o.o. . . . . . .o.o.o.o.o.o.R.!.~.XXXX#X#X$X$XXX.X].E.E... . . .o.o.o.o. . . .o.o.+.E.'.].].].[.[.[.[.[.[.[.[.[.[.[.[.[.[.[.[.[.[.[.[.[. X X X X|.|.|.|.|.|.|. X X X[.[.[.[.[.[.].].].].E.T.T. . . .o.o.R.R.R.R.R.R.o.o.R.R.R.R.R.R.W.W.].#X#X#X|. X X X X X|.|.|.|. X X X X X X[.[.[.[.[.[.`.`.`.`.`.`.[. X X X X X X X X X X X X[.].].'.E.+.o.o.o.o.o.o.o.o.o.o.o.o.o.o.o.o.o.o. . . .T.'.].[.oX].XXXX.XE.E.+. . . .o.o.o.o.o.o.o.o.o.o.o.o.o.i.i.i.e.8./ U f a y s c ( f.*X4X0XAXDXFXpXpXpXpXpXpXaX5X2X/.e.T K n ",
"-.w.v.-X9XnXDXaXaXpXpXpXpXpXiXtX2X+Xs.~ c k u u p f B L / ( 0.i.X.o.X.o.o. . . . . .o.o.o.o.o.o.R.!.~.~.XX#X#X$X$XXX.X].E.E.+.o.o.o.+. . . . . . .o.o.+.E.'.].[.].[.[.[.[.[.[.[.[.[.[.[.[.[.[.[.[.[.[.[.[.[.[.[.[. X X X X X|.|.|.|. X X|.|.[.[.|.[.].].].].E.T.T... . . .o.o.o.o.o.R.R.R.R.o.o.R.R.R.E.E.W.].].XX#X|.|.|.|. X X[.[. X X X X X X|. X X X X X X X X X X X X X X X X X X}.}.}. X X X X X|.].].'.E.o. .o.o.o.o.o.o.o.o.o.o.o.o.o.o.o.o.o.o. . .T.E.].[.oXoXXXXX.XE.E.R.o.o.o.o.o.o.o.o.o.o.o.o.o.o.o.p.i.i.i.e.8./ I f a y s c ( f.*X4X0XaXaXsXpXpXpXpXpXpXiX5X2X/.e.T m n ",
"-.w.v.-X9XmXDXaXaXpXpXpXpXpXiXtX2X+Xs.~ c k u u p f B L / ( 0.i.X.X.o.o. . . . . . .o.o.o.o.o.o.R.!.~.~.XXXX#X$X$XXXXX].W.E.+.o.+.+... . . . . . .o.o.+.E.'.].].].[.[.[.[.[.[.[.[.[.[.[.[.[.[.[.[.[.[.[.[.[.[.[.[.[. X X X X|.|. X|. X X|.|.|.|.$X[.].].].].E.T.T... . . .o.o.o.o.o.R.R.R.R.R.R.R.o.R.E.E.W.].].].#X|.|.|.|. X X[.[. X X X X|.|.|.|. X X X X X X X X X X X X X X X X X X}.}. X X X X X|.].].'.E.o. .o.o.o.o.o.o.o.o.o.o.o.o.o.o.o.o.o.o. . .T.E.].[.oXoXXXXX.XE.E.R.o.o.o.o.o.o.o.o.o.o.o.o.o.o.o.p.p.i.i.i.8./ C f a y s c ( f.*X4X5XiXaXpXpXpXpXpXpXpXiX5X2X).e.U C n ",
"-.w.v.-X9XmXDXaXaXpXpXpXpXpXiXtX2X+Xs.~ c k u u p f B L / ( 0.X.X.X.o.o. . . . . . .o.o.o.o.o.R.R.!.~.~.XX#X#X$X$XXXXX].E.E.+.o.+.+.+. . . . . . .o.o.+.E.'.].].].[.[.[.[.[.[.[.[.[.[.[.[.[.[.[.[.[.[.[.[.[.[.[.[.[. X X X X|.|.|.|. X X|.|.|.|.[.[.].].].].E.T.T... . . .o.o.o.o.o.o.R.R.R.R.R.o.o.R.E.W.W.].].].#X|.|.|.|.|.|.[.[. X X X X|.|.|.|. X X X X X X X X X X X X X X X X}.}.}.}. X X X X X|.].].'.E.o. .o.o.o.o.o.o.+.o.o.o.o.o.o.o.o.o.o.o. . .T.E.].[.oXoXXX].].E.E.o.o.o.o.o.o.o.o.o.o.o.o.o.o.o.o.p.p.i.i.i.8./ C f a y s c ( f.*X4X5XiXaXpXpXpXpXpXpXpXiX5X2X).e.U C n ",
"-.e.v.-X9XmXDXaXaXpXpXpXpXpXaXiX3X+Xs.~ c k u u p f B L / ( 0.i.X.X.o.o. . . . . . .o.o.o.o.o.R.R.!.~.XXXXXXXX$X$X#XXX].W.E.+.o..... . . . . . . .o.o.+.E.'.].].[.[.[.[.[.[.[.[.[.[.[.[.[.[.[.[.[.[.[.[.[.[.[.[.[.[. X X X|.|.|.|.|. X X|.|.|.|.[.[.].].].].E.T.T... . .o.o.o.o.o.o.R.R.o.o.R.R.R.R.R.E.E.W.].].].#X|.|.|.|.|.|.[.[. X X X X|.|. X X X X X X X X X X X X X X X X X X}.}.}.}. X X X X X|.].].'.E.o. .o.o.o.o.o.o.+.o.o.o.o.o.o.o.o.o.o.o. ...T.E.].[.oXoXXX].].E.E. .o.o.o.o.o.o.o.o.o.o.o.o.o.o.o.o.p.i.i.i.8./ C f a y s c ( f.*X4X5XiXFXsXpXpXpXpXpXpXiX5X2X).i.^ C n ",
"-.e.v.-X9XnXDXaXaXpXpXpXpXpXaXiX3X+Xs.~ c k u u f f B L / 8.0.X.X.X.o.o. . . . . . .o.o.o.o.o.R.R.!.~.XXXXXXXX$X$XXXXX].E.E.+.o.o.o. . . . . . . .o.o.+.E.'.].].[.[.[.[.[.[. X X X X[.[.[.[.[.[.[.[.[.[.[.[.[.[.[.[. X X X X|.|.|.|. X X X|.|.|.[.[.].].].].E.T.T... . .o.o.o.o.o.o.R.R.o.o.o.o.R.Y.R.E.E.W.].].].#X|.|.$X$X[.[.[.[. X X X X|.|. X X X X X X X X X X X X X X X X X X}.}.}.}. X X X X X|.].].'.E.+. .o.o.o.o.o.o.+.o.o.o.o.o.o.o.o.o.o.o. . .T.E.].[.[.oXXX].].E.E.o.o.o.o.o.o.o.o.o.o.o.o.o.o.o.o.o.p.i.i.i.8./ C f a y s c ( f.*X4X5XiXFXsXpXpXpXpXpXpXiX5X2X/.i.^ C n ",
"-.e.v.-X9XnXDXaXaXpXtXtXpXpXaXiX3X+Xs.~ c k u u f f B L / ( 0.X.X.X.o.o. . . . . . .o.R.o.o.o.R.R.!.~.XXXX#XXX$X$XXXXX].E.E.+.o. .o.o. . . . . .o.o.o.+.E.'.XX[.[.[.[.[.[.[. X X X X[.[.[.[.[.[.[.[.[.[.[.[.[.[.[.[. X X X X X X|.|. X X X|.[.[.[.[.].].].].E.T.T... . .o.o.o.o.o.o.o.R.o.o.o.o. . .R.E.E.W.].].|.$X|.|.$X$X[.[.[.[. X X X X|.|. X X X X X X X X X X X X X X X X X X}. X X X X X X X X|.].].'.E.+. .o.o.o.o.o.o.+.o.o.o.o.o.o.o.o.o.o.o. ...T.E.].[.[.oXXX].].E.E.o.o.o.o.o.o.o.o.o.o.o.o.o.o.o.o.o.o.i.i.i.8./ L f a y s c ( f.*X4X0XaXFXSXpXpXpXhXpXpXiX5X2X/.i.^ C n ",
"=.w.v.-X9XnXDXaXiXpXpXpXpXpXpXiX3X+Xs.~ A k s u f f B L / ( 0.X.X.X.o.o. . . . . . .o.o.o.o.o.R.R.!.~.XXXX#XXX$X$XXXXX].E.E.+.o.o.o.o. . . . . . .o.o.+.E.'.XX].[.[.[.[.[.[.[.[.[.[.[.[.[.[.[.[.[.[.[.[.[.[.[.[.[.[. X X X X X X|.|. X X X|.[.[.[.[.].].].W.E.T.T... . .o.o.o.o.o.o.o.R.o.o.o.o. . .R.E.E.].].].#X$X|.|.$X$X[.[.[.[. X X X X X X X X X X X X X X X X X X X X X X X X X X X X}. X X X X|.].].'.E.+. .o.o.o.o.o.o.+.o.o.o.o.o.o.o.o.o.o.o. ...T.E.].[.[.oXXXXX.XE.E.o.o.o.o.o.o.R.o.o.o.o.o.o.o.o.o.o.o.p.i.i.8./ L f a y s c ( h.=X4X0XaXFXSXpXpXpXpXpXpXiX5X2X/.i.^ C n ",
"=.w.v.-X9XnXDXaXaXpXpXpXpXpXaXiX3X+Xs.~ A k s u s f B L / ( 0.X.X.X.o.o. . . . . . .o.o.o.o.o.R.R.!.~.~.XXXXXX$X$X#XXX].E.E.+. .o.o.o. . . . . . .o.o.+.E.'.XX].[.[.[.[.[.[.[.[.[.[.[.[.[.[.[.[.[.[.[.[.[.[.[.[.[.[. X X X X X X X X[.[. X|.|.|.|.|.XX].].].E.T.T... . .o.o.o.o.o.o.o.o.o.o.o.o.o. .R.E.W.W.].].].#X$X|.|.|.[.[.[.[. X X X X X X X X X X X X X X X X X X X X X X X X}.}.}.}. X X X X X|.].].'.E.o. .o.o.o.o.o.o.+.o.o.o.o.o.o.o.o.o.o.o. . .T.E.].[.[.oXXXXX.XE.E.o.o.o.o.o.R.R.o.o.o.o.o.o.o.o.o.o.o.i.i.i.e./ L f a y j c ( h.=X4X0XaXDXSXpXpXpXpXgXpXiX5X2X^.i.^ C n ",
"-.w.v.,X9XDXDXaXsXsXpXpXpXpXaXiX3X+Xs.~ A k s u s f B L / ( 8.X.X.X.o.o. . . . . . .o.o.o.o.o.o.R.!.~..XXXXXXX$X$X#XXX].E.E.+. . .o. . . . .o.o.o.o.+.E.E..XXX].[.[.[.[.[.[.[.[.[.[.[.[.[.[.[.[.[.[.[.[.[.[.[.[.[.[. X X X X X X X X[.[.|.|.|.|.|.|.XX].].].E.T.T. . . . . .o.o.o.o.R.R.R.R.R.R.R.R.R.E.W.].].XX#X$X$X$X|.|.[.[.[.[. X X X X X X X X X X X X X X X X X X X X X X X X X X X X X X X X X[.].].'.+. . . .o.o.o.o.o.o.o.o.o.o.o.o.o.o.o.o.o. ...T.'.].[.[.oXXXXX.X~.E.R.o.o.o.o.R.R.o.o.o.o.o.o.o.o.o.o.p.i.i.i.e./ L h s y s c ( h.=X4X0XaXDXSXpXpXpXpXpXpXiX5X2X^.i.^ C n ",
"-.w.v.,X0XDXDXaXsXsXpXpXpXpXpXiX3X+Xs.~ A k s u f f B U / ( e.X.X.o.o.o. . . . . . .o.o.o.o.o.o.R.!.~..XXXXXXX$X$XXXXX].E.E.+.o. . . . . . .o.o.o.o.+.E.E..XXX].[.[.[.[.[.[.[.[.`.`.[.[.[.[.[.[.[.[.[.[.[.[.[.[.[.[. X X X X X X X X X[.|.|.$X$X|.].XX].].].E.T.T... . . .o.o.o.o.o.R.R.R.R.R.R.R.R.R.E.W.].].XX#X$X$X$X|.|.[.[.[.[. X X X X X X X X X X X X X X X X X X X X X X X X X X X X X X X X X X].].E... . . .o.o.o.o.o.o.o.o.o.o.o.o.o.o.o.o.o.o...E.'.].].[.oXXXXX.X!.E.R.o.o.o.o.o.o.o.o.o.o.o.o.o.o.o.o.p.i.i.e.e./ K h s u s c ( f.*X4X0XAXFXFXpXpXpXpXpXpXiX5X2X/.i.^ C n ",
"-.w.v.,X0XDXDXaXsXsXpXpXsXpXpXiX3X+X(.~ E k s s f f B U / 8.e.X.X.o.o.o. . . . . . .o.o.o.o.o.o.R.!.~..XXXXXXX$X$XXXXX].E.E.+.o.o.o. . . . .o.o.o.o.+.E.E..XXX].[.[.[.[.[.[.[.[.`.`.[.[.[.[.[.[.[.[.[.[.[.[.[.[.[.[.}.}. X X X X X X X X|.|.$X$X[.[.XX].].].E.T.T. . . . .o.o.o.o.o.R.R.R.R.R.R.R.R.R.E.W.].].].#X$X$X$X|.|.[.[.[.[. X X}.}.}.}. X X X X X X X X X X X X X X X X X X X X X X X X X X X X].].E... . . .o.o.o.o.o.o.o.o.o.o.o.o.o.o.o.o.o.o...E.'.].].[.oXoXXX.X!.E.R.o.o.o.o.R.o.o.o.o.o.o.o.o.o.o.o.o.s.a.i.e./ L h f u z c ~ f.=X4X0XAXFXFXpXpXpXpXpXpXiX5X2X/.i.^ C n ",
"-.w.v.,X0XDXDXaXsXsXpXpXsXpXpXiX3X+X!.~ E k s s f f B U / 8.e.X.X.o.o.o.o.o. . . . .o.o.o.o.o.o.R.!.!..XXXXX#X$X$XXXXX].E.E.+.o.o. . . . . .o.o.o.o.+.E.E..XXX].].[.[.[.[.[.`.`.`.`.[.[.[.[.[.[.[.[.[.[.[.[.[.[.[.[.}.}. X X X X X X X X|.|.$X$X[.[.].].].].E.T.T. . . .o.o.o.o.o.o.R.R.R.R.R.R.R.R.R.E.W.W.].].#X$X$X$X|.|.[.[.[.[. X X}.}. X}.}.}. X X X X X X X X X X X X X X X X X X X X X X X X X[.].].E.+. . .o.o.o.o.o.o.o.o.o.o.o.o.o.o.o.o.o.o.o.+.E.'.].].[.oXoXXX.X!.E.R.o.o.o.o.o.o.o.o.o.o.o.o.o.o.o.o.o.a.a.e.e./ L h f u f V ( f.=X4X0XAXFXFXpXpXpXpXpXpXiX5X2X/.i.^ C n ",
"-.w.v.,X9XDXDXaXsXsXpXpXsXpXpXiX3X+X!.~ E k s s s f B U / 8.e.X.X.o.X.o. . . . . . .o.o.o.o.o.o.R.!.!..XXXXX#X$X$XXXXX].E.E.+.o.o.o. . . . .o.o.o.o.+.E.E..XXX].].[.[.[.[.[.`.`.`.`.[.[.[.[.[.[.[.[.[.[.[.[.[.[.[.[. X X X X X X X X X X|.|.$X$X[.[.].].].].E.T.T. . . .o.o.o.o.o.o.R.R.R.R.R.R.R.R.R.E.W.W.].].#X$X$X$X$X$X[.[.[.[. X X}.}. X X}.}. X X X X X X X X X X X X X X X X X X X X X X X X X[.].].E.+. . .o.o.o.o.o.o.o.o.o.o.o.o.o.o.o.o.o.o.o.+.E.'.].XX[.oXoXXX.X!.E.R.o.o.o.o.o.o.o.o.o.o.o.o.o.o.o.o.p.a.i.e.e./ L h f u f V ( f.=X4X0XAXFXFXpXpXpXpXpXpXiX5X2X^.i.^ C n ",
"-.w.v.,X0XDXDXaXsXsXpXpXsXpXpXiX3X+X(.~ E k s s s f B U / ( e.X.X.X.o.o. . . . . . .o.o.o.o.o.o.R.!.~..XXXXX#X$X$XXXXX].E.E.o.o..... . . . .o.o.o.o.+.E.!..XXX].].[.[.[.[.[.`.`.[.[.[.[.[.[.[.[.[.[.[.[.[.[.[.[.[.[. X X X X X X X X X X|.|.|.|.[.[.].].].W.E.T.T. . . .o.o.o.o.o.o.R.R.R.R.R.R.R.R.R.E.W.].].].#X$X$X$X$X$X[.[.[.[. X X}.}. X X}.}. X X X X X X X X X X X X X X X X X X X X X X X X X[.].].E.+. . .o.o.o.o.o.o.o.o.o.o.o.o.o.o.o.o.o.o.o.+.E.'.].].[.oXoXXX.X!.E.R.o.o.o.o.o.o.o.o.o.o.o.o.o.o.o.o.p.i.a.i.e./ U h f u f V ( f.*X4X0XAXFXSXpXpXpXpXpXpXiX5X2X^.i.^ C n ",
"-.e.v.,X0XDXDXaXsXsXpXpXsXpXpXiX3X+X(.~ E k s s s f B U / ( e.X.X.X.o.o. . . . . . .o.o.o.o.o.o.R.!.~..XXXXX#X$X$XXXXX].E.E.o.o...+. . . . .o.o.o.o.+.E.!..XXX].].[.[.[.[.[.[.[.[.[.[.[.[.[.[.[.[.[.[.[.[.[.[.[.[.[. X X X X X X X X X X|.|.|.|.[.[.].].].W.E.T.T. . . .o.o.o.o.o.o.R.R.R.R.R.R.R.R.R.E.W.W.].].#X#X$X$X$X$X].].[.[. X X}.}. X X}.}. X X X X X X X X X X X X X X X X X X X X X X X X X[.].].E.+. . .o.o.o.o.o.o.o.o.o.o.o.o.o.o.o.o.o.o.o.+.E.'.].].[.oXoXXX.X!.E.R.o.o.o.o.o.o.o.o.o.o.o.o.o.o.o.o.o.i.i.i.e./ U h f u f V ( f.*X4X0XAXFXSXpXpXpXpXpXpXiX5X2X).i.^ C n ",
"-.y.v.,X9XDXDXaXsXsXpXpXsXpXpXiX3X+X(._ E k s s s f B U / ( e.i.X.X.o.o. . . . . . .o.o.o.o.o.o.R.!.!..XXXXX#X$X$X#XXX].E.E.+.o...o. . . . .o.o.o.o.+.E.E..XXX].].[.[.[.[.[.`.`.`.`.[.[.[.[.[.[.[.[.[.[.[.[.[.[.[.[. X X X X X X X X X X|.|.|.[.[.[.].].].].E.T.T. . . .o.o.o.o.o.o.R.R.R.R.R.R.R.R.R.E.W.].].].#X$X$X$X$X$X[.[.[.[. X X}.}. X X X X X X X X X X X X X X X X X X X X X X X X X X X X X[.].].E.+. . . .o.o.o.o.o.o.o.o.o.o.o.o.o.o.o.o.o.o.+.E.'.].].[.[.oXXX].E.E.R.o.o.o.o.o.o.o.o.o.o.o.o.o.o.o.o.o.i.i.i.e./ U h f u f V ( f.*X5X0XaXDXFXpXpXpXpXpXpXiX5X2X^.i.^ C N ",
"-.y.v.,X9XDXDXaXsXsXpXpXpXpXpXiX3X+X(._ E k s u f f B U / ( e.i.X.X.o.o. . .o.o.o.o.o.o.o.R.R.R.R.!.~.XXXX#X#X#X#XXXXX.XE.E.+.o.+.o. . . . .o.o.o.o.+.E.E..XXX].].].[.[.[.[.[.[.[.[.[.[.[.[.[.[.[.[.[.[.[.[.[.[.[.[. X X X X X X X X X X|.|.[.[.[.[.].].].].E.T.T. . . .o.o.o.o.o.o.R.R.R.R.R.R.R.R.R.E.E.W.].].].#X$X$X$X$X[.[.[.[. X X}.}. X X X X X X X X X X X X X X X X X X X X X X X X X X X X|. X].].E.E. . . . .o.o.o.o.o.o.o. . . . . . . .o.o.o.o.T.'.].[.[.[.oXXX].E.E.R.o.o.o.o.o.o.o.o.o.o.o.o.o.o.o.o.o.i.i.i.e./ U h s u s c ( f.*X4X0XaXDXFXpXpXpXpXpXpXiX5X;X^.i.^ C n ",
"-.y.v.,X9XDXDXaXsXsXpXpXpXpXpXiX3X+X(._ E k s u f f B U / ( e.i.X.X.o.o. . .o.o.o.o.o.o.o.o.R.R.R.!.~.XXXX#XXXXX#XXX.X].E.E.+.o.o.o. . . . .o.o.o.o.+.E.E..XXX].].].[.[.[.[.[.[.[.[.[.[.[.[.[.[.[.[.[.[.[.[.[.[.[.[. X X X X X X|.|. X X X X|.|.[.[.[.].].].E.T.T. . . .o.o.o.o.o.o.R.R.R.R.R.R.R.R.R.E.W.W.].].].#X$X$X$X$X[.[.[.[. X X}.}.}.}. X X X X X X X X X X X X X X X X X X X X X X X X X|.|.|.].].E.E. . . . .o.o.o.o.o.o.o. . . . . . . .o.o. . .T.'.].[.[.[.oXXX].E.E.E.o.o.o.o.o.o.o.o.o.o.o.o.o.X.o.o.o.p.i.i.e.9.L h s u k c ( f.*X4X0XaXDXFXpXpXpXpXpXpXiX5X;X^.i.^ C n ",
"-.y.v.,XbXDXDXaXsXsXpXpXpXpXpXiX3X+X(._ E k s u f f B U / ( e.X.X.X.o.o. . .o.o.o.o.o.o.o.o.R.R.R.!.~.XXXX#XXXXX#XXX.X].E.E.+.o.o.o. . . . .o.o.o.o.+.E.E..XXX].].].[.[.[.[.[.[.[.[.[.[.[.[.[.[.[.[.[.[.[.[.[.[.[.[. X X X X X X|.|. X X X X|.|.[.[.].].].].E.T.T. . . .o.o.o.o.o.o.R.R.R.R.R.R.R.R.R.E.W.W.].].].#X$X$X$X$X[.[.[.[. X X}.}.}.}. X X X X X X X X X X X X X X X X X X X X X X X X X|.|.|.].].E.E. . . . .o.o.o.o.o.o.o. . . . . . . .o.o. . .T.'.].[.[.[.oXXX].E.E.E.o.o.o.o.o.o.o.o.o.o.o.o.o.o.o.o.o.i.i.i.e./ L h s u k c ( f.*X4X0XaXDXFXpXpXpXpXpXpXiX5X;X^.e.U C n ",
"-.t.v.,X9XDXDXaXsXsXpXpXpXpXpXiX3X+X!.~ E k s u f f B U / ( e.X.X.X.o.o. . .o.o.o.o.R.R.o.o.o.R.R.!.~.XXXX#XXXXXXXXX.X.XE.E.+. .o. . . . . .o.o.o.o.+.+.E..XXX].].[.[.[.[.[.[.[.[.[.[.[.[.[.[.[.[.[.[.[.[.[.[.[.[.[. X X X X X X|.|. X X X X|.|.[.[.].].].].E.T.T. . . .o.o.o.o.o.o.R.R.R.R.R.R.R.R.R.E.E.W.].].].#X$X$X$X$X[.[.[.[. X X}.}.}.}.}.}. X X X X X X X X X X X X X X X X X X X X X X X|.|.|.].].E.E. . . . .o.o.o.o.o.o.o. . . . . . . .o.o. . .T.'.].].[.[.oXXX].E.E.E.o.o.o.o.o.o.o.o.o.o.o.o.o.o.X.o.o.i.i.i.e.9.L h s u k c ( f.*X4X5XaXDXFXpXpXpXpXpXpXiX5X;X^.e.T m n ",
"-.t.v.,X9XDXDXaXsXsXpXpXpXpXpXiX3X+X!.~ E k s u f f B U / ( 0.X.X.X.o.o.o.o.o.o.o.o.R.R.o.o.o.R.R.!.~.XXXX#XXXXX#XXX.X.XE.E.+. .o. . . . . .o.o.o.o.o.+.E..XXX].].[.[.[.[.[.[.[.[.[.[.[.[.[.[.[.[.[.[.[.[.[.[.[.[.[. X X|. X X X|.|. X X X X|.[.[.[.].].].].E.T.T. . . .o.o.o.o.p.p.Q.Q.R.R.R.R.R.R.R.E.W.W.].].XX#X$X$X$X$X].[.[.[. X X X X X X X X X X X X X X X X X X X X X X X X X X X X X X X|.|.|.].].E.E.o. . . .o.o.o.o.o.o.o. . . . . . . .o.o. ...T.'.].].[.[.oXXX].E.E.E.o.o.o.o.o.o.o.o.o.o.o.o.o.o.X.X.o.i.i.i.e.9.L z s u k c ( f.*X4X5XaXDXFXpXpXpXpXpXpXaX5X;Xh.e.T m b ",
"-.t.v.-X9XDXDXaXsXsXpXpXpXpXpXiX3X+X!.~ F k s u f f B U / ( 0.i.X.o.o.o.o.o.o.o.o.o.R.R.o.o.o.R.R.!.~.XXXX#X#X#X#XXX.X.XE.E.+.o.o.o. . . . .o.o.o.o.+.+..X.XXX].].[.[.[.[.[.[.[.[.[.[.[.[.[.[.[.[.[.[.[.[.[.[.[.[.[.|.|.|.|. X X|.|. X X X[.[.[.[.[.].].].W.E.T.T. . .o.o.o.o.o.p.p.Q.Q.R.R.R.R.R.R.R.E.E.W.].].XX#X$X$X$X$X[.[.[.[. X X X X X X X X X X X X X X X X X X X X X X X X X X X X X X X X|.|.].].E.+.o. . . .o.o.o.o.o.o.o. . . . . . . .o.o. ...T.'.].].[.[.oXXX].E.E.R.o.o.o.o.o.o.o.o.o.o.o.o.o.o.o.o.o.p.i.i.8.8.L B s u k c ( f.*X4X5XaXDXFXpXpXpXpXpXpXaX5X;X^.i.^ m n ",
"-.t.v.,X9XDXDXaXsXsXpXpXpXpXpXiX3X+X!.~ F k s u f f B U / ( 0.i.X.o.o.o.o.o.o.o.o.o.R.R.o.o.o.R.R.!.~.XXXX#X#X#X#XXX.X.XE.E.+.o.o.o. . . . .o.o.o.o.+.+.'..XXX].].[.[.[.[.[.[.[.[.[.[.[.[.[.[.[.[.[.[.[.[.[.[.[.[.[. X X X X X X|.|. X X X X[.[.[.[.].].].W.E.T.T. . .o.o.o.o.o.p.p.R.R.R.R.R.R.R.R.R.E.E.W.].].XX#X$X$X$X$X[.[.[.[. X X X X X X X X X X X X X X X X X X X X X X X X X X X X X X X X X|.].].E.+.o. . . .o.o.o.o.o.o.o. . . . . . . .o.o. . .T.'.].].[.[.oXXX].E.E.R.R.o.o.o.o.o.o.o.o.o.o.o.o.o.o.o.o.p.i.i.8.8.L x s u s c ( f.*X4X5XaXDXFXpXpXpXpXpXpXaX5X;X^.i.T m n ",
"-.y.v.>X9XDXDXaXsXsXpXpXpXpXpXiX3X;X!.~ F k s s f f B U / ( 0.i.X.o.o.o.o.o.o.o.o.o.o.o.o.o.R.R.R.!.~.XXXX#X#X#X#XXXXX.XW.E.+.o. . . . . . .o.o.o.o.+.+.E..XXX].].[.[.[.[.[.[.[.[.[.[.[.[.[.[.[.[.[.[.[.[.[.[.[.[.[. X X X X X X|.|. X X X X|.|. X X].].].].E.T.T. . . .o.o.o.o.p.p.R.R.R.R.R.R.R.Y.R.E.W.W.].].#X#X$X$X$X$X].[.[.[. X X X X X X X X X X X X X X X X X X X X X X X X X X X X X X X X X|.].].'.E.o. . . .o.o.o.o.o.o.o. . . . . . . .o.o. . .T.'.].[.[.[.oXXX].E.E.E.R.o.o. .o.o.o.o.o.o.o.o.o.X.o.o.o.p.i.i.8.( L x s u k V ( f.*X4X0XaXDXFXpXpXpXpXpXpXaX5X;X^.e.T m n ",
"-.e.v.-X9XnXDXaXaXpXpXpXpXpXpXiX3X;Xs.~ F k s s f f B U / ( 0.X.X.X.o.o.o.o.o.o.o.o.o.o.R.o.R.R.R.E.~.XXXX#XXX#X#XXXXX.XW.E.+.o. . . . . . .o.o.o.o.+.+.E..XXX].].[.[.[.[.[.[.[.[.[.[.[.[.[.[.[.[.[.[.[.[.[.[.[.[.[. X X X X X X X X X X|.|.|.|.|.|.].].].].E.T.T. . . .o.o.o.o.p.p.R.R.R.R.R.R.R.Y.R.E.W.W.].].].#X$X|.$X$X[.[.[.[. X X X X X X X X X X X X X X X X X X X X X X X X X X X X X X X X X|.].].E.E.o. . . .o.o.o.o.o.o.o. .| |  . . . .o.o. . .T.'.].[.[.[.oXXX.XE.E.E.+.o. . .o.o.o.o.o.o.o.o.o.o.o.o.o.p.i.i.8./ L x s u s V ( h.*X4X0XaXDXFXpXpXpXpXpXpXaX5X;X^.e.T m n ",
"-.w.v.;X9XnXDXaXaXpXpXpXpXpXpXiX3X=Xs.~ F k s a d f B L / ( 0.i.p.p.o.o.o.o.o.o.o.o.R.R.R.R.R.R.R.E.~.XXXXXXXXXXXXXXXX.XW.E.+.o. .o. . . . .o.o.o.o.+.+.'..XXX].].[.[.[.[.[.[.[.[.[.[.[.[.[.[.[.[.[.[.[.[.[.[.[.[.[. X X X X X X X X X X|.[.|.|.|.[.].].].].E.T.T. .o.o.o.o.o.o.p.p.R.R.R.R.R.R.R.R.R.E.E.W.].].].#X|.|.$X$X[.[.[.[. X X X X X X X X X X X X X X X X X X X X X X X X X X X X X X X X|.|.].].E.E.o. . . .o.o.o.o.o.o.o. .| |  . . . .o.o. . ...'.].].[.[.oXXX.XE.E.E.+.o. .|  .o.o.o.o.o.o.o.o.X.o.o.X.X.X.i.8./ L z s u k c ( f.*X4X5XAXFXSXpXpXpXpXpXpXaX5X;X^.e.T C n ",
"-.w.v.;X9XAXDXaXaXpXpXpXpXpXpXiX3X+Xs.~ F k s a d f B L / ( 0.i.p.p.o.o.o.o.o.o.o.o.R.R.R.R.R.R.R.E.~.XXXXXXXXXXXXXXXX.XW.E.+.o.o.o. . . . .o.o.o.o.+.+.'..XXX[.].[.[.[.[.[.[.[.[.[.[.[.[.[.[.[.[.[.[.[.[.[.[.[.[.[.}.}.}.}. X X X X[.[.[.[.|.|.|.[.].].].].E.T.T. .o.o.o.o.o.o.p.p.R.R.R.R.R.R.R.R.R.E.W.W.].].].#X|.|.|.|.[.[.[.[. X X X X X X X X X X X X X X X X X X X X X X X X X X X X X X X X|.|.].].E.E.o. . . .o.o.o.o.o.o.o. .| |  . . . .o.o. .....'.].].[.[.oXXX.XE.E.E.+.o. .|  .o.o.o.o.o.o.o.o.X.o.o.o.o.X.X.8./ L z s u k c ( f.*X4X5XAXFXSXpXpXpXpXpXpXaX5X;Xh.e.T C n ",
"-.w.v.;X9XnXDXaXaXpXpXpXpXpXpXiX3X+Xs.~ F k s a f f B L / ( 0.0.p.p.o.o.o.o.o.o.o.o.o.R.R.R.o.R.R.E.~.XXXXXXXX#X#XXXXX.XE.E.+.o.o.o. . . . .o.o.o.o.+.+.'.'.].].[.[.[.[.[.[.[.[.[.[.[.[.[.[.[.[.[.[.[.[.[.[.[.[.[.[. X}.}. X X X X X X X|.|.|.|.[.[.].].].].E.T.T. .o.o.o.o.o.o.p.o.R.R.R.R.R.R.R.R.R.E.E.W.].].XX#X$X|.|.|.[.[.[.[. X X X X X X X X X X X X X X X X X X X X X X X X X X X X X X X|.|.[.].].E.T. . . . .o.o.o.o.o.o.o. .| |  . . . .o.o. .....'.].[.[.[.oXXX].'.E.E.+.o. . .o.o.o.o.o.o.o.o.o.o.o.o.o.o.X.i.X.( L x s u k c ( f.*X4X5XAXFXFXpXpXpXpXpXpXaX5X;X^.e.T m n ",
"-.w.v.;X9XnXDXaXaXpXpXpXpXpXpXiX3X+Xs.~ F k s a f f B L / ( 0.i.p.p.o.o.o.o.o.o.o.o.R.R.R.R.R.R.R.E.~.XXXXXX#X#X#XXX.X.XE.E.+.o.o.o. . . . .o.o.o.o.+.+.E.'.].].[.[.[.[.[.[. X X X X[.[.[.[.[.[.[.[.[.[.[.[.[.[.[.[. X X X X X X X X X X|.|.|.|.[.[.].].].].E.T.T. .o.o.o.o.o.o.o.o.R.R.R.R.R.R.R.R.R.E.E.W.].XXXX#X$X$X|.|.[.[.[.[.[.[.[.[.[.[.[.[. X X X X X X X X X X[.[.[.[. X X X X X X X X X|.$X[.].].E.T.T. . . .o.o.o.o.o.o.o. .| |  . . . .o.o. .....'.].[.[.[.oXXX].'.E.+.+.o. . .o.o.o.o.o.o.o.o.o.o.o.o.o.X.X.X.{ ( L x s u k c ( f.*X4X5XAXFXFXpXpXpXpXpXaXaX8X;Xh.r.T C b ",
"=.w.v.;X0XAXDXaXaXpXpXpXpXpXpXiX3X+Xs.~ F k s a f f B L / ( 0.i.p.p.o.o.o.o.o.o.o.o.o.o.R.R.o.R.R.E.~.XXXX#X#X#X#XXX.X].E.E.+.o..... . . . .o.o.o.o.+.+.E.'.].].[.[.[.[.[.[. X X X X[.[.[.[.[.[.[.[.[.[.[.[.[.[.[.[. X X X X X X X X X X|.|.|.|.[.[.].].].W.E.T.E. .o.o.o.o.o.o.o.o.R.R.R.R.R.R.R.Y.R.E.E.W.].XXXX#X$X$X|.|.[.[.[.[.[.[.[.[.[.[.[.[. X X X X X X X X X X[.[.[.[.[.[. X X X X X X X|.$X[.].].E.T... . . .o.o.o.o.o.o.o. .| |  . . . .o.o. .....'.].[.[.[.oXXX].E.E.+.+.o. . .o.o.o.o.o.o.o.o.o.o.o.o.o.X.X.i.X.( L x s u k c ( f.*X4X0XAXFXFXpXpXpXpXpXaXaX4X;Xh.r.T m b ",
"-.w.v.;X0XAXDXaXaXpXpXpXpXpXpXiX3X+Xs.~ F l s a f f B L / ( 0.p.p.p.o.o.o.o.o.o.o.o.o.o.o.o.o.R.R.E.~.XXXX#X#X#X#XXX.X].E.E.+.o..... . . . .o.o.o.o.+.+.E.'.].].[.[.[.[.[.[. X X X X[.[.[.[.[.[.[.[.[.[.[.[.[.[.[.[. X X X X X X X X X X|.|.|.|.[.[.].].].W.E.T.E. .o.o.o.o.o.o.o.o.R.R.R.R.R.R.R.Y.R.E.E.W.].XXXX#X$X$X|.|.[.[.[.[.[.[.[.[.[.[.[.[. X X X X X X X X X X[.[.[.[.[.[. X X X X X$X X|.$X[.].].E.T... . . .o.o.o.o.o.o.o. .| |  . . . .o.o. .....'.].[.[.[.oXXX].E.E.+.+.o. .| o.o.o.+.o.o.o.o.o.o.o.o.o.X.X.X.{ ( L z s u k c ( f.*X4X0XAXFXFXpXpXpXpXpXaXaXwX-Xh.e.T m b ",
"-.w.v.;X9XnXDXaXsXpXpXpXpXpXpXiX3X+Xs.~ F k s a f f B L / ( 0.p.p.p.o.o.o.o.o.o.o.o.R.R.R.o.o.R.R.E.~.XXXX#XXXXXXXXXXX.XE.E.+.o...o. . . . .o.o.o.o.+.+.'.'.].[.[.[.[.[.[.[.[.[. X X[.[.[.[.[.[.[.[.[.[.[.[.[.[.[.[. X X X X X X X X[.[.|.|.[.|.[.[.].].].].E.E.T. .o. .o.o.o.o.o.o.R.R.R.R.R.R.R.R.R.E.E.W.].XXXX#X$X$X$XoX[.[.[.[.[.[.[.[.[.[.[.[. X X X X X X X X X X[.[.[.[.[.[. X X X X$X$X$X|.$X[.].].E.T.T. . . .o.o.o.o.o.o.o. .| |  . . . .o.o. ...T.'.].].[.[.oXXX].'.E.E.+.o. . . .o.o.+.+.o.o.o.o.X.X.o.o.o.X.X.( ( L z s u k c ~ f.*X4X8XaXFXSXpXpXpXpXsXaXaX8X;Xh.e.T H b ",
"=.w.v.;X9XnXDXaXsXpXpXpXpXpXpXiX3X+X!.( F l s s f f B L / ( 0.p.p.p.o.o.o.o.o.o.o.o.R.R.R.R.o.R.R.E.~.XXXX#XXXXXXXXXXX.XE.E.+.o.o.o. . . . .o.o.o.o.+.+.E.'.].[.[.[.[.[.[.[. X X X X[.[.[.[.[.[.[.[.[.[.[.[.[.[.[.[. X X X X X X|.|. X X|.|.oXoX[.[.].].].].E.T.T. . . .o.o.o.o.o.o.R.R.R.R.R.R.R.R.R.E.E.W.].].XXXXXX[.[.[.[.[.[.[.[.[.[.[.[.[.[.[. X X X X X X[.[.[.[.[.[.[.[.[.[. X X|. X$X$X X|.$X[.].].E... . . . .o.o.o.o.o.o.| | | |  . .o.o.o.o.o...T.'.].].[.[.oXXX].E.E.+.+.o. . .o.o.o.+.o.o.o.o.o.X.X.o.o.p.i.i.( ( L z f u k V ( f.*X4X8XaXFXSXpXpXpXpXpXaX8X4X;Xh.e.T m n ",
"=.w.v.-X9XnXDXaXsXpXpXpXpXpXpXiX3X+Xs.{ F l s s f f B L / ( 0.i.p.p.o.o.o.o.o.o.o.o.o.R.o.o.o.R.R.E.~.XXXX#X#XXX#XXXXX.XE.E.+.o.o.o. . . . .o.o.o.o.+.+.E.].].[.[.[.[.[.[.[. X X X X[.[.[.[.[.[.[.[.[.[.[.[.[.[.[.[. X X X X X X X X X X|.|.|.|.[.[.[.].].].E.T.T... .o.o.o.o.o.o.o.R.R.R.R.R.R.R.R.R.E.E.W.].].XXXX[.[.[.[.[.[.[.[.[.[.[.[.[.[.[.[. X X X X X X[.[.[.[.[.[.[.[.[.[.|.|.|. X X X$X X$XoXXX].E... . . . .o.o.o.o.o.o.| | | |  . .o.o.o.o.o...T.'.].].[.[.oXXX].E.E.+.+.o. . .o.o.o.+.+.o.o.o.o.X.o.o.o.o.i.i.{ ( L x f u k V ( f.*X5X0XaXDXSXpXpXpXpXpXaX8X4X;Xh.e.T m n ",
"=.w.v.-X9XnXDXaXsXpXpXpXpXpXpXiX3X+Xs.{ F l s s f f B L / ( 0.i.p.p.X.o.o.o.o.o.o.o.o.o.o.o.o.R.R.E.~.XXXX#X#XXX#XXXXX.XE.E.+.o.o.o. . . . .o.o.o.o.+.+.E.'.].[.[.[.[.[.[.[. X X X X[.[.[.[.[.[.[.[.[.[.[.[.[.[.[.[. X X X X X|.|. X X X|.|.$X|.[.[.].].].].E.T.T... .o.o.o.o.o.o.o.R.R.R.R.R.R.R.R.R.E.E.W.].].XXXX[.[.[.[.[.[.[.[.[.[.[.[.[.[.[.[. X X X X X X[.[.[.[.[.[.[.[.[.[. X|.|. X X X$X X$XoXXX].E... . . . .o.o.o.o.o.o.| | | |  . .o.o.o.o.o...T.'.].].[.[.oXXX].E.E.+.+.o. . .o.o.o.+.+.o.o.o.o.X.o.o.o.o.i.i.{ ( L x f u k V ( f.*X4X0XaXDXSXpXpXpXpXpXaX8X4X;Xh.e.T m n ",
"=.w.v.;X9XnXDXaXaXpXtXtXpXpXaXiX3X+Xs.{ L k s s f f B L / 8.0.i.p.p.X.o.o.o.o.o.o.o.o.o.o.R.R.R.R.E.~.XXXXXX#X#X#XXX.X.XE.E.E.o. . . . . . .o.o.o.o.+.+.E.'.XX].[.[.[.[.[.[. X X X X[.[.[.[.[.[.[.[.[.[.[.[.[.[.[.[. X X X X|.|.|.|. X X|.|.|.|.[.[.].].].].E.T.T... . .o.o.o.o.o.o.R.R.R.R.R.R.R.R.R.E.E.W.].].XXoX[.[.[.[.[.[.[.[.[.[.[.[.[.[.[.[. X X X X X X[.[.[.[.[.[.[.[.[.[. X|. X X$X$X$X$X$XoXXX].E..... . . .o.o.o.o.o.o.| | | |  . .o.o.o.o.......'.].].[.[.oXXX].E.E.+.o.o. . .o.o.o.o.o.o.o.o.o.o.o.o.o.o.p.i.{ ( L x f u k V ( f.*X4X0XaXDXsXpXpXpXpXpXaXaXwX-Xh.e.T m n ",
"-.w.v.;X9XnXDXaXaXpXtXtXpXpXaXiX3X+Xs.( L z s s f f B L / 8.0.i.p.p.X.o.o.o.o.o.o.o.o.o.o.o.R.R.R.E.~.XXXX#X#XXX#XXX.X.XE.E.E.+.o. . . .o.o.o.o.o.o.+.+.E.].XX].[.[.[.[.[.[. X[. X X[.[.[.[.[.[.[.[.[.[.[.[.[.[.[.[. X X X X|.|.|.|. X X X|.|.|.[.[.].].].].E.T.T... . .o.o.o.o.o.o.R.R.R.R.R.R.R.R.R.E.E.W.].].XXoXoXoX[.[.[.[.[.[.[.[.[.[.[.[.[.[. X X X X X X[.[.[.[.[.[.[.[.[.[. X X X X$X$X$X$X$XoXXX].E.+... . . . . .o.o.o.o.| | | |  . .o.o.o.o. . ...'.].].[.[.oXXX].E.E.+.o.o. . . .o.o.o.o.o.o.o.o.o.X.X.o.o.p.i.{ ( L x f u k V ( f.*X4X0XaXDXsXpXpXpXpXpXaX8XwX;Xh.e.T m n ",
"-.w.v.-X9XnXDXaXaXpXpXtXpXpXaXiX3X+Xs.( L x s s f f B L / 8.0.i.p.p.o.o.o.o.o.o.o.o.o.o.R.R.R.R.R.E.~.XXXXXX#XXX#XXXXX.XE.E.E.+.o.+. . .o.+.o.o.o.o.+.+.E.'.].].[.[.[.[.[.[. X X X X[.[.[.[.[.[.[.[.[.[.[.[.[.[.[.[. X X X X X X|.|. X X X[.[.[.[.[.].].].].E.T.T. . . .o.o.o.o.o.o.R.R.R.R.R.R.R.R.R.E.E.W.].].].$XoXoX[.[.[.[.[.[.[.[.[.[.[.[.[.[. X X X X X X[.[.[.[.[.[.[.[.[.[. X X X X$X$X$X$X$XoXXX].E.+... . . . . .o.o.o.o.| | | |  . .o.o.o.o. . ...'.].].[.[.oXXX].E.E.+.o.o. . .o.o.o.o.o.o.o.o.o.X.X.X.o.o.i.i.e.( L z f u k V ( f.*X4X0XaXDXsXpXpXpXpXpXaX8X4X;Xh.e.T m n ",
"=.w.v.;X9XmXDXaXsXpXpXtXpXpXaXiX3X+Xs.( L x s s f f B L / 8.0.i.p.p.o.o.o.o.o.o.o.o.o.o.o.R.R.R.R.!.~.XXXX#XXXXX#XXXXX.XW.E.E.+.+.+. . .o.+.o.o.o.o.+.+.E.'.].[.[.[.[.[.[.[. X X X X[.[.[.[.[.[.[.[.[.[.[.[.[.[.[.[. X X X X X X|.|. X X X|.[.[.[.[.].].].W.E.T.T. . . .o.o.o.o.o.o.R.R.R.R.R.R.R.R.R.E.E.W.].].].|.[.oX[.[.[.[.[.[.[.[.[.[.[.[.[.[.[.[.[.[. X X[.[.[.[.[.[.[.[.[.[.[.[.[. X$X$X$X$X$XoXXX].E.+. . . . . . .o.o.o.o.| | | |  . .o.o.o.o. . ...'.].].[.[.oXXX].E.E.+.o.o. . .o.o.o.o.o.o.o.o.o.X.X.o.o.o.i.i.e./ L z f u k V ( f.*X4X0XaXDXsXpXpXpXpXpXaX8X4X;Xh.e.T m n ",
"=.t.v.-X9XmXDXaXaXpXpXpXpXpXpXiX3X+Xs.( L x s s f f B L / ( 0.X.X.X.o.o.o.o.o.o.o.o.R.o.o.o.o.R.R.E.~.XXXX#X#XXX#XXX.X.XE.E.E.+.+.+.+.+.o.o.o.o.o.o.+.+.E.].].[.[.[.[.[.[.[. X X X X[.[.[.[.[.[.[.[.[.[.[.[.[.[.[.[. X X X X X X X X[. X X|.$X$X|.|.XX].].].E.T.T. . . .o.o.o.o.o.o.R.R.R.R.R.R.R.R.R.E.E.W.].].].oXoXoX[.[.[.[.[.[.[.[.[.[.[.[.[.[.[.[.[.[. X X[.[.[.[.[.[.[.[.[.[.[.[. X X$X$X$X$X$XoXXX].E.+. . . . . . .o.o.o.o.| | | |  . .o.o.o.o.o. .T.'.].].[.[.oXXX].E.E.+.+.o. . .o.o.o.+.o.o.o.o.o.X.o.o.o.o.i.i.{ ( L x f u k V ( f.*X4X5XaXFXpXpXpXpXpXpXaXiX4X;Xh.e.T m n ",
"-.w.v.-X9XmXDXaXsXpXpXpXpXpXaXiX3X+X!.( L x f f f h B L / ( 0.X.X.X.o.o.o.o.o.o.o.o.o.o.o.o.o.o.E.!.~..XXXXX#XXX#XXXXX.XE.E.+.+.+.+.+.+. . .o.o.o.o.+.+.E.'.].[.[.[.[.[.[.[. X X X X[.[.[.[.[.[.[.[.[.[.[.[.[.[.[.[. X X X X X X X X[. X|.|.|.$X|.|.XX].].].E.T.T. . . . .o.o.o.o.o.R.R.R.R.R.R.R.R.R.E.E.W.].].].oXoXoX[.[.[.[.[.[.[.[.[.[.[.[.[.[.[.[.[.[.[.[.[.[.[.[.[.[.[.[.[.[. X X X XoXoXoX[.oX].].'.E.E... . . . . .o.o.o.o. . . . . . .o.o.o.o.o. .T.'.].].[.[.oXXX].E.E.+.+.o. . .o.o.o.+.o.o.o.o.o.o.o.o.o.o.i.i.{ ( L x f u k V ~ f.*X4X0XaXDXFXpXpXsXsXsXaXaX8X;Xh.e.T m n ",
"-.w.v.-X9XmXDXaXaXpXpXpXpXpXaXiX3X+X!.( L x f f f h B L / ( 0.X.X.X.o.o.o.o.o.o.o.o.o.o.o.o.o.o.R.!.!..XXXXXXX#X#XXX.X.XE.E.E.+. . .o. . . .o.o.o.o.+.+.E.'.].].].[.[.[.[.[.[.[. X[.[.[.[.[.[.[.[.[.[.[.[.[.[.[.[.[. X X X X X X X X X X|.|.$X$X|.].XX].].].E.T.T. . . . . .o.o.o.o.R.R.R.R.R.R.R.R.R.E.W.W.].].].oXoXoX[.[.[.[.[.[.[.[.[.[.[.[.[.[.[.[.[.[.[.[.[.[.[.[.[.[.[.[.[.[. X X X XoXoXoX[.oX].].'.E.E... . . . . .o.o.o.o. . . . . . .o.o.o.o.o. .T.'.].].[.[.oXXX].E.E.+.+.o. . .o.o.o.+.+.o.o.o.o.X.o.o.o.o.i.i.X.( L x s u k V ( f.*X5X0XaXDXFXpXpXpXpXpXaXiX8X;Xh.e.T m n ",
"-.w.v.-X9XmXDXaXaXsXpXpXpXpXaXiX3X+Xs.( L z f f f h B L / ( 0.p.X.X.o.o. . .o.o.o.o.o.o.o.o.o.o.R.!.!..XXXXXXX#X#XXX.X.XE.E.+.+. . . . .o.o.o.o.o.o.+.+.E.'.].].].[.[.[.[.[. X X X[.[.[.[.[.[.[.[.[.[.[.[.[.[.[.[.[. X X}.}. X X X X X X|.|.$X$XoXoXXX].].].E.T.T. . . . . .o.o.o.o.R.R.R.R.R.R.R.R.R.E.W.W.].].].oXoXoXoXoX[.[.[.[.[.[.[.[.[.[.[.[.[.[.[.[.[.[.[.[.[.[.[.[.[.[.[.[.[.[.[.[.oXoXoX[.oX].].'.E.E... . . . . .o.o.o.o. . . . . . .o.o.o.o. . .T.'.].].[.[.oXoX].E.E.+.+.o. . .o.o.o.+.+.o.o.o.o.X.X.X.o.o.i.i.{ ( L x s u k V ( f.*X5X0XaXDXFXpXpXpXpXpXaXiX8X;Xh.e.T m n ",
"-.w.v.-X9XmXmXaXaXiXiXpXpXpXaXiX3X+X^.( L z f f f h B L / ( 0.p.X.o.o.o. . .o.o.o.o.o.o.o.o.o.o.E.!.~..XXXXX#X#X#XXXXX.XE.E.+.+. . .+. . . .o.o.o.o.+.+.E.'.].[.].[.[.[.[.[. X X X X[.[.[.[.[.[.[.[.[.[.[.[.[.[.[.[. X X X X X X X X X X|.|.|.$XoXoXoX].].].E.T.T... . . . .o.o.o.o.R.R.R.R.R.R.Y.R.R.E.E.W.].].].oXoXoXoXoX[.[.[.[.[.[.[.[.[.[.[.[.[.[.[.[.[.[.[.[.[.[.[.[.[.[.[.[.[.[.[.oXoXoXoX[.oX].].'.E.E... . . . . .o.o.o.o. . . . . . .o.o.o.o.+...T.'.].].[.[.oXXX].E.E.+.o.o. . . .o.o.o.o.o.o.o.o.X.X.X.o.o.i.i.( ( L x f u k V ~ f.*X4X0XAXDXFXsXsXpXpXsXaXaX8X;Xh.e.T m n ",
"-.w.z.-X9XqXmXaXaXiXtXtXpXpXpXiX3X=Xh.( L z f f f h B L / ( 0.p.X.X.o.o.o.o.o.o.o.o.o.o.o.o.o.o.E.!.~..XXXXX#X#X#XXX.X.XE.E.+.+. . . . . . .o.o.o.o...+.E.'.].].[.[.[.[.[.[. X X X X[.[.[.[.[.[.[.[. X X X X X X X X X X X X|.|.|.|. X X|.|.$X$X$X$XXXXXXX].E.E.T. . . . . .R.R.R.R.R.R.R.R.R.R.Y.R.R.E.E.W.].].].oXoXoXoXoX[.[.[.[.[.[.[.[.[.[.[.[.[.[.[.[.[.[.[.[.[.[.[.[.[.[.[.[. X X X$XoXoXoX[.oX].].'.E.E... . . . . .o.o.o.o. . . . .o.o.o.o.o.o.+. .T.'.].].[.[.oXXX].E.E.E.o.o. . . .o.o.o.o.o.o.o.o.X.X.X.o.o.i.i.( ( L x f u k V ( f.*X4X0XAXDXFXsXsXpXpXsXpXaX8X;X^.e.T m n ",
"=.w.z.-X9XmXDXaXaXaXdXtXpXpXaXiX3X=Xf.( L z f f f h B L / ( ` X.X.o.o.o.o.o.o.o.o.o.o.o.o.o.o.o.E.!.!..XXXXX#X#X#XXXXX.XE.E.+.+.o. . . . . .o.o.o.o.o.+.E.'.'.].[.[.[.[.[.`.[. X X X[.[.[.[.[.[.[.[. X X X X X X X X X X X X|.|. X X X|.|.$X$X$X$XXXXX].].].E.E.T. . . .o.o.R.R.R.R.R.R.R.R.Y.R.Y.R.R.E.E.E.].].].].oXoXoXoXoX[.[.[.[.[.[.[.[.[.[.[.[.[.[.[.[.[.[.[.[.[.[.[.[.[.[.[. X X X$XoXoXoXoXoX[.].'.E.+... . . . . .o.o.o.o. . . . .o.o.o.o.o.o.o. .T.'.].].[.oXoXXX.X!.E.E.o.o. . .o.o.o.o.o.o.o.o.o.X.o.o.o.o.i.i.( ( L z f u k V ( f.*X4X0XAXFXFXsXsXpXpXsXpXiX8X;X^.i.T m n ",
"=.w.v.-X9XmXDXaXaXaXdXtXpXpXaXiX3X=Xf.( L z f f f h B L / ( ` X.X.o.o.o.o.o.o.o.o.o.o.o.o.o.o.o.E.!.!..XXXXX#X#XXXXX.X.XE.E.+.+.o. . . . . .o.o.o.o.o.+.E.'.'.].].[.[.[.[.[.[.[. X X[.[.[.[.[.[.[.[. X X X X X X X X X X X X X X X X X|.|.$X$X$XXXXX].].].E.E.E.T. . . .o.o.R.R.R.R.R.R.R.R.Y.Y.Y.Y.Y.E.T.E.E.].].].oXoXoXoXoXoX[.[.[.[.[.[.[.[.[.[.[.[.[.[.[.[.[.[.[.[.[.[.[.[.[.[.[.[.[.[.oXoXoX[.oX[.].'.E.+... . . . . .o.o.o.o. . . . .o.o.o.o.o.o.o. .T.'.].].].].XXXX.X!.E.E.o.o.o. .o.o.o.o.o.o.o.o.o.o.o.o.o.o.i.i.{ ( L z f u k V ( f.*X4X0XAXFXFXsXsXpXpXsXpXiX8X;X^.i.^ m n ",
"=.w.v.-X9XmXDXaXaXsXtXtXpXpXpXiX3X=Xh.( L z f f f f B L / ( 0.X.X.o.o.o.o.o.o.o.o.o.o.o.o.o.o.o.E.!.!..XXXXXXXXXXXXXXX.XE.E.+.+. . . . . . . . . . .......E.'.'.].[.[.[.[.[. X|. X X[.[.[.[.[.[.[.[. X X X X X X X X X X X X X X X X|.|.|.$X$XXXXXXX].].E.E.E.E.T. . . .o.o.R.R.R.R.Y.Y.R.R.R.Y.Y.Y.Y.Y.T.E.E.].].].XXoXXXXXoXoX[.oX[.[.[.[.[.[.[.[.[.[.[.[.[.[.[.[.[.[.[.[.[.[.[.[.[.[.[.[.oXoX[.oX].XX].'.E..... . . . .o.o.o.o.o. . . . .o.o.o.o.o.o.o. .T.'.].].[.].XXXX.X!.E.E.+.o.o.o.o.o.o.o.o.o.o.o.o.o.X.X.o.p.i.i.{ ( L z f u k V ( f.*X4X0XAXDXFXsXsXpXpXsXpXiX8X;Xh.e.^ m n ",
"I w.z.-X9XqXaXaXdXtXtXtXtXpXpXiX3X=Xf.( L z p i f f B L ^ ( ` X.X.o.o.o.o.o.o.o.o.o.o.o.o.o.o.o.+.E.!..XXXXXXXXXXXXX.X.XE.E.+.o. . . . . . . . . . . ...T.E.E.'.'.].].[.[.[.[.[.[.[.[.[.[.[.[.[.[.[.[.[.[.[.[.[.[.[. X X X X|. X|.|.|.|.|.oXXXXXXX].E.E.E.E.E.E.Y.Y.R.R.R.R. . . . .o. .o.o.o.o.o. .T.T.T.T.E.E.W.].XXXXXXXXXX$X[.[.|.$X|.|.|.|.|.|. X X X|.|.|.|. X X X X|.|.|. X X X|.|.|.|.[.XX].'.'.E...+.+.....o.o.o.o.o.o.o.o.o.o.o.o.o.o.o.o.o.o.o...T.E.].].].].XXXX.X!.E.E.E.R.o.o.o.o.o.o.o.o.o.o.o.o.o.o.o.p.i.X.i.( L x s u k V ( f.*X4X0XAXFXFXsXsXpXpXsXsXaX8X;XOXi.^ K n ",
"I w.z.;X9XqXaXaXdXtXtXyXtXpXpXiX5X=Xf.( L z f i f f B L ^ ( ` ` ` o.o.o.o.o.o.o.o.o.o.o.o.o.o.o.+.E.!..XXXXXXXXXXXXX.X'.E.E.+.o. . . . . . . . . . .....+...T.E.'.'.].].].[.[.[.oX[.[.[.[.[.[.[.[.[.[.[.[.[.[.[.[.[.|.|. X X X X X X|.|.|.oXXXXX].E.E.E.E.T.Y.Y.Y.Y.Y.Y.R.R.o. .o.o.o.o.o.o.o.o. . .T.T.T.E.E.E.E.W.].XXXXXXXXXXoX[.$X$X|.|.|.|.|.|. X X X X|.|.|.|. X X X X|.|. X X|.|.|.|.[.].].'.E.E.....+.+.....o.o.o.o.o.o.o.o.o.o.o.o.o.o.o.o.o.o. ...T.E.].].].].XXXX.X!.E.E.E.R.o.o.o.o.o.o.o.o.o.o.o.o.o.o.o.o.i.X.i.( L x s u k V ( f.*X4X0XAXFXFXsXsXpXpXsXsXaX8X2XOXi.^ C n ",
"I w.z.;X9XqXaXaXdXuXtXyXtXpXpXiX5X=Xf.( L z f p f f B L ^ ( ` X.` o.o.o.o.o.o.o.o.o.o.o.o.o.o.o.+.E.!..XXXXXXXXXXXXX.X'.E.E.+.o. . . . . . . . . . ...........T.E.'.'.'.].].].].oXoX[.oX[.[.[.[.[.[.oXoXoXoXoXoXoXoX|.|. X|. X X X X|.|.|.$XXX].E.E.E.E.T.T.Y.Y.Y.Y.Y.Y.R.R.o. .o.o.o.o.o.o.o.o. . . .R.R.E.R.E.E.E.].].XXXXXXXXoXoX$X$X|.|.|.|.|.|. X X X X|.|. X|. X X X X|.|. X X|.|.|.[.].].'.E.E.......o.o.....o.o.o.o.o.o.o.o.o.o.o.o.o.o.o.o.o.o.o...T.E.].].].].XXXX.X!.E.E.E.R.R.o.o.o.o.o.o.o.o.o.o.o.o.o.o.p.i.X.i.( L x s u k V ( f.*X4X0XAXFXFXsXsXpXpXsXsXaX8X;XOXi.^ C n ",
"I w.z.;X9X0XqXaXdXtXtXyXtXpXpXiX5X=Xf.( L z f p f f B L ^ ( ` X.o.o.o.o.o.o.o.o.o.o.o.o.o.o.o.o.+.E..X.XXXXXoXoXXXXX.X'.E.E.+.o. . . . . . . . . . .o.+.........T.E.'.'.'.'.].XXXXoXoXoXoXoXoXoXoXoXoXoXoXoXoXoX[.[.$X$X|.|.|.|. X X|.[.$X].].E.E.E.E.T.T.T.Y.Y.Y.Y.Y.Y.Y.Y.o.o.o.o.o.o.o.o.o.o.o.o.o.R.R.R.R.R.E.E.E.W..X.XXXXXXXoX$X$X|.|.|.|.$X$X$X$X$X$X$X$X$X$X$X$X$X$X$X$X$X$X$X$X$X].].].E....... . . .o.o.o.o.o.o.o.o.o.o.o.o.o.o.o.o.o.o.o.o.o.+...T.E.].].].].XXXX.X!.E.R.R.R.R.R.o.o.o.o.o.o.o.o.o.o.o.o.o.o.i.X.i.( L x s u k V ( f.*X4X0XAXFXFXsXsXpXuXsXsXiX8X;XOXi.^ C n ",
"I w.h.-X9X0XqXtXdXtXdXyXtXpXSXiX5X;X(.( V z f p f f B L ^ ( ` X.o.o.o.o.o.o.o.o.o.o.o.o.o.o.o.o.+.E.!..XXXXXXXXXXXXX.X'.E.E.+.o. . . . . . . . . . .+.+. .+.....E.E.E.E.'.'.].XXXXXXXXXXXXXXXXXXXXXXoXoXoXoXoXoXoXoX$X$X$X$X$X|.$X[.[.[.].].E.E.E.E.E.E.T.T.R.R.R.R.R.R.R.R.R.R.R.R.R.R.E.E.R.R.R.R.R.R.R.R.R.R.R.E.E.E.~..XXXXXXXXXXXoX$X$X$X$X$X$X$X$X$X$X$X$X$X$X$X$X$X$X$X$X$X$X$X$XXX].W.E.E.+...+. . . ...o.o.o.o.o.o.o.o.o.o.o.o.o.o.o.o.o.o.o.o.o...E.].].XX].].XXXXXX~.!.R.R.o.o.o.o.o.o.o.o.o.o.o.p.o.o.o.o.o.i.X.i.( L x s u k V ( f.*X4X0XAXDXFXsXsXpXuXsXsXiX8X2XOXi.^ B N ",
"I w.z.-X9X0XqXtXtXtXtXtXpXpXpXiX5X;X(.( V z s p f f B L ^ ( ` X.o.o.o.o.o.o.o.o.o.o.o.o.o.o.o.o.+.E.!..XXXXXXXXXXXXX.X'.E.E.+.o. . . . . . . . . . .+.+.o.+.+.+.E.E.E.E.E.'..X.X.X].].].].].].].].].].].].].].].].].].].].].].].].].[.[.].E.E.E.E.E.E.E.T.T.R.R.R.R.R.R.R.R.R.R.R.R.R.R.E.R.R.R.R.R.R.R.R.R.R.R.R.R.E.E.E.~..X].XXXXXXXXoXoXoXoXoXoXoXoX[.[.[.[.oXoXoXoXoXoXoXoXoX$XXXXX].W.E.E.+.+.+.+.o. .o...o.o.o.o.o.o.o.o.o.o.o.o.o.o.o.o.o.o.o.o.o...E.].].XX].XXXX.XXX~.!.R.o.o.o.o.o.o.o.o.o.o.o.o.p.o.o.o.X.o.i.X.i.( L x s u k V ( f.*X4X0XAXDXFXsXsXpXuXsXsXiX8X2XOXi.^ B N ",
"I [ h.-X9X0XqXtXtXtXdXtXtXpXSXAX5X;X(.( V z p u f f B L ^ ( ` X.o.o.o.o.o.o.o.o.o.o.o.o.o.o.o.o.+.E.!..XXXXXXXXXXXXX.X'.E.E.+.o. . . . . . .o.o.o.o.o.o.o.o.+.+.E.E.E.E.E.!..X.X.X.X.X.X.X.X'.'.'.'.].].].].].].].].].].].].].].].].].].].E.E.E.E.E.E.E.R.R.R.R.R.R.R.R.R.R.R.R.R.R.R.R.R.R.R.R.Q.Q.R.R.R.R.R.R.R.R.E.E.E.E.!.E.].].].].].].].].].].[.oX].].].].].oXoXoX].].XXXXXXXXXXXXW.E.E.T.+.+.+.o.o.o.o.o.o.o.+.+.+.+.o.o.+.+.o.o.o.o.o.o.o.o.o.o. ...E.'.].XX].].XX.XXX~.E.R.o.o.o.o.o.o.o.o.o.o.o.o.p.o.o.o.X.o.i.X.i.( L x s u k V ( f.*X4X0XAXFXFXsXsXpXuXsXsXiX8X2X^.X.Q K N ",
"K / h.-XwX0XqXaXdXtXdXtXtXpXpXiX5X;X(.( V z s u f f B L ^ ( ` ` X.o.o.o.o.o.o.o.o.o.o.o.o.o.o.o.E.E.!..XXXXXXXXXXXXX.X.XE.E.+.+.o. . . . . .o.o.o.o.o.o.o.o.+.+.+.E.E.E.E.E.E.!..X.X'.'.'.'.'.'.'.'.'.'.'.'.'.'.'.'.].].].].].].].].].].E.T.E.E.R.R.E.E.R.R.R.R.R.R.R.R.R.R.R.R.R.R.R.R.R.R.R.R.Q.R.R.R.R.R.R.R.R.R.R.E.E.E.E.E.E.].].].].].].].].].].].].].].].].].].].].].].].XXXXXX].E.E.E.E.+.+.+.o.o.o.o.o.o.o.+.+.+.+.o.o.+.+.o.o.o.o.o.o.o.o.........T.'.].XX].].XXXXXXW.E.R.o.o.o.o.o.o.o.o.o.o.o.o.o.o.o.o.o.p.i.X.i./ L x s u k V ~ f.*X4X0XAXDXFXsXsXpXuXsXsXiX5X2X/.i./ V h ",
"I [ h.-XwX0XqXtXtXtXdXdXtXtXiXiX3X=X(.( V z u u f f B L / ( ` X.X.X.o.o.o.o.o.o.o.o.o.o.o.o.o.o.E.!..XXXXXoXoXoXoXXXXX.XE.E.+.+.+.o. . . . .o.o.o.o. . . . .o.+.+.E.E.E.E.E.E.E.E.E.E.E.E.E.'.'.'.'.'.'.'.'.'.'.'.'.].].].].{.{.{.{.{.{.E.T.E.E.R.R.R.R.o.o.o.o.o.o.o.o.o.o.R.R.R.R.R.R.R.R.R.R.R.R.R.R.R.R.R.R.R.R.R.R.E.E.E.E.E.E.E.W.].].].].].].].].].].].].].].].].].].].].].].].E.E.E.E.E.+.+.+.+.+.+.+.o.+.+.+.+.+.+.+.+.+.+.o.o.+.+.o.o.o.o.........E.'.].XX].].XXXX].W.E.R.o.o.o.o.o.o.o.o.o.o.o.o.o.o.o.o.o.p.i.X.i./ L x s u k V ( f.*X4X0XAXDXFXsXsXpXuXsXsXpXiX2X+Xp.( L h ",
"K / h.;XwXqX8XtXtXtXdXdXtXtXpXiX3X=Xs.~ A z u u p f B L / ( ` X.X.o.o.o.o.o.o.o.o.o.o.o.o.o.o.o.E.!..XXXXXXXXXXXXXXXXX.XE.E.+.+.o. . . . . .o.o.o.o. . . . . .o.+.+.+.+.+.+...+.E.E.E.E.E.E.E.E.E.E.E.E.E.E.E.E.E.E.E.E.E.E.E.E.E.E.T.T.T.T.E.R. . .o.o. . . . . . . . . . .R.R.R.R.o.o.o.o.R.o.o.o.o.o.o.o.R.R.R.R.R.R.R.R.E.E.E.E.E.E.E.E.E.E.E.E.{.{.'.{.'.{.'.'.'.'.E.E.E.E.E.E.E.E.E.E.R.R.+.+.+.+.+.+.+.+.+.+.+.+.+.+.+.+.+.o.o.o.o.+.o.o.o.o.o.o...+.E.'.].XX].].].].].W.E.R.o.o.o.o.o.o.o.o.o.o.o.o.p.p.o.o.o.p.i.X.i.( L x s u k V ( f.*X4X0XAXDXFXsXsXpXuXsXsXtXrX6X/.p.~ V h ",
"L ( h.+XwX8X8XtXtXtXdXdXtXpXpXiX3X=Xs.~ A k u u f f B L / ( 0.i.X.o.o.o.o.o.o.o.o.o.o.o.o.o.o.o.E.!..XXXXXXXXXXXXXXXXX.XE.E.o. . . . . . . .o.o.o.o. . . . . .o.+.+.+.+.+.+.............+.+.........T.T.T.T.T.T.T.T.T.T.T.T.T.T.T.T.T.T.T.T.E.R. . .o.o. . . . . . . . . . .o.o.o.o.o.o.o.o.R.R.o.o.o.o.o.R.R.R.R.R.R.R.E.R.R.E.E.E.E.E.E.E.E.E.T.T.T.T.T.T.T.T.T.T.T.T.T.T.T.T.T.T.T.T.T.T.T.T...+.+.+.+.+.+.+.o.o.o.o.o.o.o.o. . .....o.......o.o.......+.+.'.].XX].].XX].].W.E.T.o.o.o.o.o.o.o.o.o.o.o.o.p.p.o.o.o.p.i.X.i.( L x s u k V ( f.*X4X0XAXDXFXsXsXpXuXsXsXiX3X6X/.` Q V h ",
"L { s.+XwX8XqXtXtXtXdXdXtXtXpXiX3X=Xf.~ A k u u f f B L / ( 0.X.X.o.o.o.o.o.o.o.o.o.o.o.o.o.o.o.+.E..XXXXXXXXXXXXXXXXX.XE.+. . . . .|  . . . . . . . . . . . . . . . . . . . . ..... ... . .........................T.T.T.T.T.T.T.T.T.T.T.T.T. . .o. .o. . . . . . . . . . .o.o.o.o.o.o. . .o.R.o.o.R.R.R.o.o.o.o.o.o.o. . .R.R.T.T.T.E.T.T.T.T.T.T.Y.T.T.T.T.T.T.T.T.T.T.T.T.T.T.T.T.T.Y.T.Y.T.....+.+.+.+.+.+.o.o.o.o. . . . . . . . . . ...............+.E.'.].XX].].].].].W.E.E.o.o.o.o.o.o.o.o.o.o.o.o.p.p.o.o.o.p.i.i.i.( L x s u k V ( f.*X4X0XaXFXFXsXsXpXuXsXpXtX3X%X(.` Q c x ",
"L { s.+XwX0X8XtXtXtXtXyXtXtXpXiX3X=X(.~ A k u u f f B L / ( 0.X.X.o.o.o.o.o.o.o.o.o.o.o.o.o.R.R.+.E.!..XXXXX+X+XXXXX.X.XE.+. . . . . . . . . . . .|  . . . . . . . . . . . . . . . . . . . ..................... . .........T.T.T.T.T.T.T.T.T. .o.o.o.o. . . . . . . . . .o.o.o. . . . . . . . .o.o.R.R.o. . . .o.o.o.o.o.o.o.o. . .T. .Y.T.T.T.T.T.T.T.....T.T.T.T.T.T.T.T.Y.Y.Y.Y.T.T.Y.T.T.T.+.+.......+.+.+.o.o. . . . . . . . . . . . . . .........+.E.E.'.].XX].].].].].E.E.T.R.R.o.o.o.o.o.o.o.o.o.o.p.o.o.o.p.p.i.i.i.( L x s u k V ( f.*X4X0XaXFXFXsXpXpXuXhXpXtXrX%X(.' ) c x ",
"P { s.+XwX8X8XtXtXtXdXyXtXtXiXiX3X+X(.` A k u u p f B L / ( 0.X.X.o.o.o.o.o.o.o.o.o.o.o.o.o.R.R.+.+.E..XXXXXXX+XXXXX.X.XE.E.o. . . . . . . . . . . . . . . . . . . . . . . . . . . . . . . . . . . .................................T.T.T... . . . . . . . . . . . . . . . .o.o.o.o. . . . . . .o.R.Y.Y. . .Y.Y.Y.Y.o.o.o.o.o.o. . .T.T.E.E.T.T.T.T.T.T.T.T.T.T.Y.Y.T.T.T.T.T.Y.Y.Y.T.Y.T.T.T.T.+.+.........+.+.o.o. . . . . . . . . . . . . . .........+.+.E.E.'.].].'.'.'.E.E.E.T.R.o.o.o.o.o.o.o.o.o.o.o.p.o.o.o.p.p.i.i.i.( L x s u k V ( f.*X4X0XAXDXFXpXsXpXuXhXhXtXrX%X~.X.) V x ",
"/ X.s.+XwX8X8XtXtXtXdXyXtXtXiXiX3X=X(.` A k u u p f B L / ( 0.X.X.o.o.o.o.o.o.o.o.o.o.o.o.o.o.o.+.+.+.!..XXXXXXXXXXX.X.XE.E.E.R. . . . . . . . .o. . . . . .o.o. . . .o.o. . . . . . . . . . . .............T.T.T.T.T.T.T.T.T.T.T.T.T.T.T... . . . .o.o.o.o. . . . . . . . .o.o.o.o.Y.Y.Y.Y.Y.Y.R.R.Y.Y.Y.Y.Y.Y.R.R.T.R.R.R.R.R.Y.Y.E.E.E.E.T.T.T.T.T.T.T.T.Y.Y.Y.Y.T.T.T.T.Y.Y.Y.Y.T.Y.Y.Y.T.T.....................+.+.+.+.+.+.+..... . . . . .........E.E.E.E.'.].].].'.'.E.T.E. .o. . .o.o.o.o.o.o.o.o.o.p.o.o.o.p.p.i.i.i.( L x s u k V ( f.*X4X0XAXDXFXsXsXpXuXhXhXtXrX&X/.p.) S x ",
"( s.s.+X2X8XtXtXdXtXdXtXtXtXiXiX3X+X(.` A k u u s f B L / ( 0.X.X.o.o.o.o.o.o.o.o.o.o.o.o.o.o.o.+.o.+.E.!.XXXXXXXXXX.X'.E.E.E.E.+.+.o.o.+.+.+.+.+.+.+.+.+.+.+.+.+.+.+.+.+.+.+.+.+.+.+.+.+.+.........T.T.T.T.T.T.T.T.T.E.T.T.T.T.T.T.T.T.T.T.T.E.T.T.R.R.R.R.T.Y.Y.Y.Y.Y.Y.T.R.R.R.R.R.R.E.E.E.R.R.Y.Y.Y.E.E.E.E.R.R.E.E.E.E.E.E.E.E.E.E.E.E.E.E.T.T.T.T.T.T.T.T.T.T.T.T.T.T.Y.Y.Y.T.E.E.E.E.E.E.+.+.+.+.....+.+.E.E.E.E.E.E.E.E.E.E.+...+.......+.+.....E.E.E.E.'.'.'.'.'.'.E.T.T. . . . .o.o.o.o.o.o.o.o.o.o.X.o.X.o.p.i.i.e.( L x s u k V ~ f.*X4X0XAXDXFXsXpXpXuXhXpXtXeX3X_.Q.' S x ",
"h..X@X%X3X8XtXtXdXtXtXtXtXtXiXiX3X+Xs.` A k u u s f x L / ( e.X.X.o.o.o.o.o.o.o.o.o.o.o.o.o.o.o.o.o.R.E.!..X.X.X~.~.].E.E.E.E.E.E.E.E.E.E.E.E.E.E.E.E.E.E.E.E.E.E.E.E.E.E.E.E.E.E.E.E.E.E.E.E.E.E.E.E.E.E.E.E.E.E.E.E.'.E.E.E.E.E.E.E.E.E.E.E.E.E.E.E.E.E.E.E.E.E.E.E.E.E.E.E.E.E.E.E.E.E.E.E.E.E.T.T.T.E.E.E.E.E.E.E.E.E.E.E.E.E.E.E.E.E.E.E.E.E.E.E.E.E.E.E.E.E.E.E.W.W.W.E.E.E.E.E.E.E.E.E.E.E.E.E.E.'.'.'.E.E.E.E.E.E.E.E.E.E.E.E.E.E.E.E.E.E.E.E.E.E.E.E.E.E.'.'.'.'.E.E.E.T. . . . .o.R.R.o.o.o.o.o.o.o.X.X.X.p.p.i.i.e.( L x f u k V ( f.*X4X0XaXDXFXsXpXpXfXyXpXtXtXrX1X/.X.) / ",
"*X;X2XwX8X8X8XtXdXtXtXtXtXtXiXiX3X+Xp.` A k u u s f x L / ( e.i.i.i.o.o.o.o.o.o.o.o.o.o.o.o.o.o.o.o.R.E.E.!.!.E.E.!.E.E.W.W.E.E.E.E.E.E.E.E..X.X.X.XE.E.E.E.'.'..X.X.X.X'.'.'.'.'.'.'.'.'.'.].].].].E.E.E.E.W.W.E.E.'.'.'.'.].].].].].].W.W.W.W.W.W.W.W.W.W.W.W.W.W.~.~.W.W.W.W.W.W.].W.].].].].W.W.E.W.].].].].W.W..X.X.X.XW.].].]..X.X].].].].].].].].].].W.W.].].].].].].].].].].].].].]..X.X].].].].'.'.'.'.].'..X.X.X.X.X.X.X.X].].].].'.'.'.'.E.E.E.E.'.'.'.'.'.'.'.E.E.T. . . .o.o.o.R.R.o.o.o.o.o.o.X.X.X.X.p.i.i.i.8.( L x s u k V ( f.*X4X0XaXDXsXsXpXpXfXyXpXtXpXeX6X1X(.i.d.",
",X9XwX8X8X8XtXtXtXtXtXtXtXtXiXiX3X+X(.` A k u u s f x L / 8.e.i.i.i.o.o.o.o.o.o.o.o.o.o.o.o.o.o.o.o.o.R.E.E.E.E.E.E.E.E.W.]..X.X.X.X.X.X.X.XXXXXXXXX.X.X.X.XXXXXXXXXXXXXXXXXXXXXXXXXXXXXXXXXXXXXXXXX].].].].].].].].].].'.'.].].].].].].].].W.W.].].].].].].XXXXXXXXXXXXXXXXXXXXXXXX].].].].].].].].].].].]..X.X.X.X].].].]..X.X.X.X.X.X].].].].].].].].XXXXXXXXXXXXXXXX#XXXXXXX#X#XXXXXXXXXXXXXXXXXXXXXXXXXXXXXXXXXXXXXXXXXXXXXXXXX.X.XXXXXXXXX].]..X.X'.'.'.'.'.'.E.'.'.E.E. . . .o. . .o.o.o.o.o.o.o.o.o.X.X.X.X.p.f.i.i.8.( L x s u k V ( p.*X4X0XaXDXsXpXpXpXfXyXpXpXpXiXeX5X1X^.).",
"bX0X0X8X8XtXtXtXtXtXtXyXpXpXiXiX3X+X!._ A k u u s f B U / ( 8.i.i.i.o.o.o.o.o.o.o.o.o.o.o.o.o.o.o.o.o.R.+.E.E.E.E.E.E.E.E..X.X.X.X.XXXXXXXXX+X+X+X+XXXXXXXXXXXXXXXXXXXXXXXXXXXXXXXXXXXoXoXoXXXXXXXXXXXXXXXXXXXXXXX].XX].].'.].].].].].].].].W.W.].].XXXXXXXXXXXXXXXXXXXXXXXXXXXXXXXXXXXXXXXXXXXXXXXXXXXXXXXXXXXX.X.X].].].]..X.X.X.X.X.X.X.XXXXXXXXXXXXXXXXXXXXX#X#X#X#X#X#X#XXX#X#XXXXXXXXXXXXXXXXXXXXXXXXXXXXXXXXXXXXXXXXXXXXXXXXXXXXXXXXXXXXXXXXXXXXXXX].'.'.'.'.E.E.E.T.T. . . . . . .o.o.o.o.o.o.o.o.o.X.o.X.o.p.p.i.i.8.8.L x f u k V ~ f.*X2X5X0XFXpXpXpXyXyXyXpXyXpXpXiXeX5X4XlX",
"BXmXqX8XtXtXtXtXtXtXtXtXpXtXiXiX3X+X!._ A k u u s f B U / 8.i.i.i.p.o.o.p.o.o.o.o.o.o.o.o.o.R.R.o.o.R.R.+.+.E.E.E.R.E.E.!..XXXXX.X.XXXXXXXXXXXXXXXXXXXXXXXXXXXXXXXXXXXXXXXXXXXXXXXXXXXXXoXoXXXXXXXXXXXXXXXXXXXXXXXXXXXXX]..X].].].].].].].].].].].].XXXXXXXXXXXXXXXXXXXX#XXXXXXXXXXXXXXXXXXXXXXXXXXXXXXXXXXXXXXXXXXXXXXX].].].].].]..X.XXXXX#X#X#X#XXXXXXXXXXXXXXXXX#XXXXXXXXXXXXXXXXXXX#X#XXXXXXXXXXXXXXXXXXXXXXXXX$X$X$X$X$X$X$X$X$X#X#XXX#XXXXXXXXXXXXX].].].'.E.E.T..... . . . . . . . .o.o.o.o.o.o.o.o.o.o.o.X.X.p.i.0.8.9.L z f u k V ( f./.;X5X0XaXpXpXpXyXyXyXyXyXyXpXSXAXAXnXVX",
"BXmXqX8XiXtXtXtXtXpXtXtXtXpXpXiX3X+X!._ A k u u f f B L ^ 8.i.i.i.p.p.p.p.p.o.o.o.o.o.o.o.o.R.R.o.o.R.R.+.+.R.R.R.R.R.E.E..XXXXXXXXXXXXXXXXXXXXXXXXXXXXXXXXXXXXXXXXXXXXXXXXXXXXXXXXXXXXXoXoXXXXXXXXXXXXXXXXXXXXXXXXXXXXX.X.X].].].].].].].].].].].].XXXXXX#XXXXX#XXX#X#X#X#XXXXXXXXXXXXXXXXXXXXXXXXXXXXXXXXXXXXXXXXXXXXX].].].].XXXXXX.XXXXXXXXXXXXXXXXXXXXXXXXXXX#XXXXXXXXXXXXXXXXXXXXXXXXXXXXXXXXXXXXXXXXXXXXXXXXXXXXXXXXXoXXXXXXXXX#X#X#X#XXXXXXXXXXXXX].].].'.E.E..... . . . . . . . . .o.o.o.o.o.o.o.o.o.o.o.o.X.p.q.0.q.9.C B f u f V / a.^.;X4XrXiXpXtXtXyXyXyXyXyXyXpXpXiXAXAXVX",
"mXDXaXaXiXiXpXpXpXpXtXyXtXpXpXtX3X+XQ._ A k u u f f B L ^ 8.i.i.p.p.p.p.p.p.o.o.o.o.o.o.o.o.o.o.o.o.R.R.+.+.R.R.R.R.E.E.E..X.XXXXXXXXXXXXXXXXXXXXXXXXXXXXXXXXXXXXXXXXXXXXXXXXXXXXXXXXXXXoXoXXXXXXXXXXXXXXXXXXXXXXXXXXXXXXXXX].].].].].].].].].].].].XXXX#X#X#XXX#X#X#X#X#X#XXXXXXXXXXXXXXXXXXXXXXXXXXXXXXXXXXXXXXXXXXXXXXXXXXXXXXXXX].].].].XXXXXXXXXXXXXXXXXXXXXXXXXXXXXXXXXXXXXXXXXXXXXXXXXXXXXXXXXXXXXXXXXXXXXXXXXXXXXXXXXXXXXXXXXXXX#X#X#XXXXXXXXXXXXXXX].'.'.E.T... . . . . . . . . . .o.o.o.o.o.o.o.o.o.X.o.o.p.i.q.q.q.9.C B f u z V / a.^.;X4XrXiXpXtXtXyXyXyXyXyXyXtXpXiXaXAXmX",
"mXDXaXiXaXaXpXpXpXpXyXyXtXtXpXeX3X+X!._ A k u u s f x L / ( i.i.f.p.p.o.o.o.o.o.o.o.o.o.o.o.o.o.o.o.E.+.+.+.+.+.R.R.E.E.E.E..X.X.X.X.XXXXXXXXXXXXXXXXXXXXXXXXXXXXXXXXXXXXXXXXXXXXXXXXXXXXXXXXXXXXXXXXXXXXXXXXXXXXXXX.X.X.X].].].].].].].].].].].].XXXXXXXXXXXXXXXXXXXXXXXXXXXXXXXXXX.XXXXXXXXXXXXXXXXXXXXXXXXX.XXXXXXXXX.X.X.X.X.X.X.X].].].].].XXXXXXXXXXXXXXXXXXXXXXXXXXXXXXXXXX.X.X.XXXXXXX.XXXXX.XXXXXXXXXXX].].XXXX].].]..X.X.XXXXXXXXXXXXXXXXXXXXX.XXX.X.X'.E... . . . . . . . . . . .o.o.o.o.o.o.o.o.o.X.X.X.p.i.i.q.q.9.U B s u s V ^ i.^.;X4X5XiXiXtXtXtXyXyXyXyXyXtXpXaXaXaXnX",
"mXaXaXdXdXtXtXtXtXyXpXpXyXtXpXeX3X+X!._ A k u u s f x L / ( i.i.p.p.p.o.o.o.o.o.o.o.o.o.o.o.o.o.+.+.+.+.+.+.+.+.+.+.+.E.E.E.E.E.!.!..X.X.X.X.X!.!.!.!.!.!.!.!.!..X.X.X.XOXOX.X.X.X.X.X.X.X.X.X.X.X.X.X.X.X.X.X.X.X.X~.~.~..XE.W.E.E..X.X].].E.E.W.W.W..X.X.X.X.X.X.X.X.X.X.X~.~..X.X.X.X.X.X.X.X.X.X.X.X.X.X.X.X.X.X.X.X.X.X.X.X.X!.!.E.E.E.'.E.E.E.E.E.E.E.E.E.'.'.'.'.'.'.'..X.X.X.X.X.X.X.X.X.X.X.X'.'.'.'..X.X.X.X.X.X.X.X.X.X.X.X.X.X.X.X.X.X.X.X.X.X.X.X.XE.+.o.| ..| |  . . . . . . .o.o.o.o.o.o.o.X.X.X.X.i.i.d.d.y.8.9.U h f y s c ( i.^.;X5XiXaXaXtXtXtXyXfXyXyXyXtXpXpXaXaXAX",
"DXaXaXdXtXtXtXtXtXyXpXpXyXtXpXeX3X+X(._ A k u u s f x L / 8.i.i.f.p.p.i.X.X.X.o.o.o.o.o.o.o.o.o.o.o.+.+.+.+.+.+.+.+.+.+.+.+.+.+.E.E.!.!.!.!.+.E.E.E.E.E.E.E.E.E.E.E.!.!.!.!.!.!.!.!.!.!.!.!.!.!.!.!.!.!.!.!.!.!.!.!.!.!.!.E.E.E.E.E.!.!.!.E.E.E.E.E.E.E.E.E.!.!.!.!.!.!.!.!.!.!.!.!.E.E.!.!.E.E.E.E.E.E.E.E.E.!.!.!.!.!.!.!.!.!.!.!.E.E.E.E.E.E.E.E.E.E.E.E.E.+.+.+.+.+.+.+.+.E.E.E.+.+.+.+.+.+.E.+.+.+.+.+.+.+.+.E.+.+.E.E.E.!.!.!.!.!.!.!.!.!.!.!.E.E.E.s.!.s.o.o.o.| | | | | | | | o.o.o.o.X.X.X.o.i.i.i.i.i.X.i.a.d.d.y.8.9.U h d y s x / a.^.2X0XaXaXpXtXtXyXyXfXfXyXyXpXpXpXaXaXAX",
"DXaXaXdXuXuXsXsXtXyXyXpXtXtXpXeX3X+X(._ A k u u s f x L / 8.i.a.a.a.i.i.i.X.X.X.X.X.O.O.O.O.O.o.o.o.o.o.o.o.o.o.o.o.o.o.o.o.o.o.+.+.+.s.s.s.o.+.+.+.+.+.+.+.+.+.+.+.+.o.+.+.+.+.+.+.+.+.+.+.+.o.o.o.o.o.o.o.o.o.+.+.E.E.!.E.E.E.E.E.E.E.E.E.+.+.E.E.E.E.E.E.E.!.!.!.s.s.!.!.!.!.!.E.E.E.E.E.+.+.E.E.E.E.E.+.+.s.s.s.+.+.+.+.+.+.s.s.+.+.o.+.+.+.+.+.+.+.+.+.+.o.o.o.o.o.o.o.o.+.+.+.o.o.o.o.o.o.o.o.o.o.o.o.o.o.o.o.o.o.o.o.o.o.+.+.+.+.+.+.+.+.+.+.+.+.+.s.s.o.O.| | | | | | | | | | | o.o.o.i.i.i.p.g.g.i.i.a.a.a.a.d.d.y.w.9.=.m d y s x / a.^.;X0XAXaXpXtXtXyXyXfXfXyXyXyXpXpXiXaXAX",
"DXaXaXdXuXuXsXsXtXtXyXyXtXiXaXiX3X+Xs.~ c k u u s f x L / e.i.d.a.a.a.i.a.a.a.a.a.O.O.O.O.O.O.O.O.O.o.o.o.o.o.o.O.O.O.O.O.O.O.O.o.o.o.o.o.o.o.O.O.O.o.o.o.o.o.o.o.O.| | | | | | X.X.o.X.| | | | | | | | o.| o.o.o.o.o.o.o.o.o.o.o.o.s.s.s.s.o.o.o.o.s.o.s.s.s.s.s.s.s.s.s.s.s.s.s.+.+.o.+.+.+.+.+.+.+.+.o.o.+.s.s.s.o.o.o.O.o.o.s.o.O.O.O.o.o.o.o.o.O.O.o.o.o.o.o.O.O.O.O.O.O.O.O.O.O.O.O.X.X.X.X.O.O.O.O.O.O.O.| X.X.X.O.| | | X.X.o.o.o.o.o.s.s.s.a.a.a.a.s.a.X.X.X.O.O.O.X.X.X.X.X.i.i.i.i.a.i.i.g.g.g.a.a.d.d.g.g.d.y.y.t.-.=.N d y s x ( a.^.4X0XAXpXtXtXtXyXyXfXfXyXyXyXyXpXiXiXAX",
"DXaXdXdXtXuXsXsXtXtXtXtXiXiXaXiX3X+Xs.( F j a a d f x U / e.e.g.g.d.d.a.a.a.a.a.a.a.O.O.O.O.a.a.a.a.a.a.a.a.a.a.a.a.O.O.a.a.a.a.a.a.a.a.a.a.X.X.i.i.X.a.X.X.i.i.X.X.X.X.X.X.X.X.X.X.X.X.X.X.X.X.X.X.X.X.X.X.X.X.i.i.X.X.X.X.X.X.X.X.s.s.s.s.s.s.a.a.a.O.a.a.a.a.O.O.a.a.a.a.s.s.s.o.o.o.O.O.o.o.o.o.o.o.o.o.O.a.a.a.a.a.a.a.a.a.a.a.O.O.O.O.O.O.O.O.O.O.O.O.O.O.O.O.O.O.O.O.O.O.a.a.O.a.O.O.X.X.O.O.O.O.O.O.O.O.O.O.O.O.O.O.O.O.X.a.i.a.a.a.a.a.a.a.a.a.a.a.a.a.a.i.i.} } } i.a.a.a.a.i.a.a.a.a.a.a.a.g.g.a.a.y.y.g.y.t.t.t.t.-.=.N d y s x / a.^.2X0XFXpXtXtXtXyXyXfXfXyXyXyXyXpXiXaXAX",
"DXaXdXdXtXtXsXsXtXtXtXtXiXiXaX0X3X+Xs.( F j a a d h m K T w.e.d.g.y.y.r.r.r.r.r.r.r.r.r.r.r.a.a.a.a.a.a.a.a.a.a.a.a.a.a.a.a.a.a.a.a.a.a.a.i.X.} } } X.} X.X.X.X.X.} } } X.X.a.a.a.a.a.a.g.a.g.f.s.s.a.a.a.a.a.a.a.a.a.i.X.X.X.X.X.X.X.i.a.a.a.a.a.a.a.a.a.a.a.a.a.a.a.a.a.a.a.a.a.O.a.a.a.a.a.a.a.a.a.a.a.a.a.a.a.a.a.a.a.a.a.a.a.a.i.i.O.O.O.O.O.O.O.O.O.O.O.O.O.O.O.} } } } i.i.i.i.i.i.i.i.i.i.a.i.} } } } } O.O.O.O.a.a.a.a.a.a.a.a.a.a.a.a.a.a.i.i.i.a.a.a.r.e.e.} } } e.r.r.r.r.d.d.d.d.r.r.r.a.u.u.r.y.y.y.y.t.t.w.t.>.-.I n i y a l ^ a.^.2X5XiXpXtXtXyXyXyXfXfXyXyXtXtXpXiXaXAX",
"DXaXaXdXtXtXuXuXtXtXtXtXiXiXaX0X4X+Xf.( F j a a d g g K Y w.e.e.r.y.y.y.e.e.e.e.e.e.e.{ { { r.r.r.r.r.r.r.r.r.r.r.r.e.e.e.e.r.r.r.r.} } e.} } { { { } { } } { { e.e.} } e.e.r.r.r.r.a.a.a.a.a.a.g.i.i.i.i.i.i.i.i.i.i.X.{ { { } { { e.i.a.a.r.r.r.r.} X.X.i.i.i.X.X.X.} } } e.e.e.} r.r.r.r.r.r.r.r.r.r.r.r.r.r.r.r.r.r.r.e.e.e.e.} } } } } e.e.e.e.} } } } } } } } } { { { { } } e.e.e.} } } } } } } { { } } } } } } } r.r.r.r.r.r.e.i.i.} e.e.e.e.e.e.e.e.r.r.e.e.e.{ { { e.e.e.e.e.e.r.r.r.r.r.r.y.u.u.y.y.y.t.t.t.t.t.:.>.;.J n i   y l ^ i.OX2X5XpXpXtXtXyXyXfXfXfXyXyXtXtXtXpXaXAX",
"GXDXaXdXtXdXsXsXtXtXdXaXdXiXaX0X4X*Xs.( F j a a d g g H U T w.e.e.y.w.w.w.w.w.w.w.w.w.w.w.w.e.e.e.e.e.e.e.e.e.e.e.e.[ [ [ { e.e.w.w.e.e.e.e.w.w.w.w.w.w.w.e.e.e.e.e.w.e.e.e.e.e.y.e.e.{ { { { { e.e.e.e.e.e.e.e.e.e.e.e.e.e.e.e.e.{ { { e.e.e.e.{ e.{ { { { { { { { { { { { { { { { e.e.e.{ { { e.e.e.e.e.e.{ { e.e.e.e.e.e.e.e.e.e.w.w.w.w.e.e.e.e.[ [ [ [ [ [ [ [ [ [ [ [ [ { { [ { { { { e.e.{ [ [ [ { [ [ [ [ [ [ w.w.e.e.e.e.e.{ { { { e.e.e.e.e.e.w.w.e.e.w.w.w.[ [ [ w.w.w.w.w.e.e.e.e.e.w.e.y.t.t.w.w.t.t.t.t.:.:.:.>.=.J n d   y x Q i.OX2X8XaXiXtXyXyXfXfXfXfXyXyXyXtXtXiXaXAX",
"GXDXaXiXiXiXiXiXiXiXaXdXaXqX0X0X4XOXf.{ F h a a a g g H K Y -.7.w./ T T T T T T T T T T T / / / / 7.w.w.w.w.7.7./ / [ [ [ [ / / T / / / [ [ T T T T / / / / 7.7./ / 7.7.7.7.7.7.w.w./ / / / / / / / [ [ [ [ [ [ [ [ [ [ [ [ [ [ [ / [ / [ [ [ [ [ / / / / / / / / / / / / / / / / / [ [ [ [ [ [ [ [ [ [ [ [ [ [ / / / / / / / / / / T T T T / 7./ / T T T T / / T T T T T T T / / / / / / / / / [ [ [ [ [ [ [ [ [ [ [ [ [ [ [ [ [ [ / / / / / / / / / / / T [ [ T T T T T T T T T T T / / 7./ -.-.-.7.7.-.-.-.:.-.-.-.-.-.-.=.J J n d   a h Q i.OX4X8XiXiXtXyXyXfXfXfXfXyXtXtXtXpXiXaXAX",
"GXGXaXiXiXiXiXiXiXaXaXdXqXqXqX0X7XOXs.( L l a a a d g g H I Y U U U L K K I I I K K I I I I U Y Y Y Y Y Y Y Y Y I Y R Y U Y U U U U Y Y Y Y I I I I Y Y I I I I Y Y Y I Y Y Y I I U U U U U L U U U T T T T T T T T T T T T T U U U U K U Y Y U U U L U U U U U U U U U U U U U Y Y Y Y R R T Y U U U U Y Y Y Y Y Y I I I I I I I I I I I I I I I I I I I I I I I I I U L L L L L L U U U U U Y U Y U Y Y Y Y Y Y Y Y Y Y Y Y U U U R T U U U U U U U U U I I I U U U U U U U U U U U U I U U U I I U I I Y I I I I I I J J J J m b X   a h L e.OX4X8XiXtXtXyXyXyXyXfXyXtXtXpXpXiXaXAXAX",
"GXmXDXaXaXaXaXiXiXaXaXaXqXqXqX9X7X-Xs.( L l y y y a g g m H H K K K K H H H H H H H H H K K K K H H H H I I I I K K H H H H K K K K K H H H H H K H I I H H I H I I H H H H I I I K I I I I I K K K K K K K K K K K K K K K K K K K K H K K H K K K K K K K K K K K K K K K K K H H H H H H H H K K K K H H H H H H H H H H H H H H H H H H H H H H H H H H H H I H H K K K K K K K K K K K K H K K K H H H H H H H H K K K K K K K H K K K K K K K K K K K K K K K K K K K K K K K K K K K K K K K K H K H H H H H H H m m N m b . .   a h L e.*X;X8XiXiXtXtXtXyXyXpXyXpXiXiXiXaXaXDXBX",
"BXBXGXDXaXaXaXaXaXaXaXqXqXqXqX9X7X-Xg./ F j y     a d g n m m m m g g g g g g m m m m m m m m m m m m m m m m m m m m m H n m m m m m m m m m m m m m N N N N N N N N N N N N m N N m m m m m m m m m N N N m m m m m m m m m m m m m m m m m m m m m m m m m m m m m m m m m H m m n n n n n n n n n m n n n n n n n n n n n n n n n n n n n n n n m m m m m m m m N n n N N N m m m m m m m m m m m m m m m m H H m m m m m m m m m m m m m m m m N N N N N N m m N N N N N N m m N m n n n m m m m m m m N n n n n n b n n b b . .   X h U r.v.,XwXqXaXaXpXpXpXpXpXpXaXaXaXaXaXmXmXBX",
"BXBXmXmXnXnXDXDXmXqXqXqXqXqXqX7X7X-Xa./ K f       X . g b n b g g g g g g g g b b b g g g g b b b b b b b b b b b # b # # # @ @ @ @ @ @ @ @ @ @ @ @ b b @ b * * b b b b b b b b b b b b n n n n n n b b b b b b b b n n n n n n n n n b b b b b b b n n n n b b n n n n b b b b b b b b b b b b b b b b b b b b b b b b b b b b b b b b b b b b @ @ b b b b b b M M b b b b b b b b b b b b b b b b b b # # # # # # b b b b M M b b b b b b b b b b b b b b b b b b b b b b b b b b b b b b g g g g b b b b b b @ b b # # # * # @ @ .   X N -.y.c.<XbXnXmXAXAXAXAXAXAXAXAXmXmXBXBXBXVXBX",
"NXMXVXnXnXnXmXnXmXqXqXqXwX9X7X7X<Xc.r.T K d a   . . . # n n n n b b b g g g g g . @ . . . . . . . . . . . @ @ @ . . . . . . + @ + @ @ @ @ @ + + @ @ @ @ @ @ @ @ @ @ @ @ @ @ @ @ @ @ @ @ @ @ @ b b b b b b b b b b b b b b b n b b b b # # # @ @ @ @ b b b b b b b # # # # # # # # # # # # @ @ # # # # # # # @ @ # # @ @ @ . . . . . @ @ @ @ @ @ % % % % @ @ @ @ @ @ @ @ % @ @ @ @ @ @ @ @ @ @ @ @ @ @ @ % % % % % % # * * % * * % % % % % % % % % @ @ @ @ @ @ @ @ @ @ @ @ @ @ @ @ @ @ @ @ @ @ . . . . @ . @ @ @ @ @ @ @ @ @ * * % % @ . . m -.t.c.<XxXbXMXVXVXVXVXVXVXVXVXVXMXMXMXMXMXMX",
"cXxXbXbXbXbXbXbXbX9XwX7X7X7X7X<X-Xc.u.T H g d X . # # # n n n n b # # # # # # # # # # # @ # # # # # # # # # # # % % % % @ @ % % % % % % % % % % % % % % % % % % % % % % % % % % % % % @ @ @ * M M M M M M M M M M M M M M M M M M M M * * M * * * * * M M M M M M * * * * * * * * * # # # # # # # # # # # # # # # # % % # # # # # # % % % % % % % % % % % % % % % % % % % % % % % % % % % * * * % % * * * % % % % % * * & * * * * * * * % * * * % % % % % % % % % % % % @ @ @ @ @ @ @ # @ @ @ @ @ @ @ @ @ @ @ @ @ @ @ @ @ @ * * * * % @ # J ;.j.c.b.vXxXbXMXMXVXMXbXVXMXMXNXcXcXcXcXcXcX",
"vXvXxXxXxXxXxXxXxXxX7X7X7X7X<X<Xb.c.u.T K g n . # n # M n n n n n # # # # # # # # # M M M M J J J J J J J J J J J J M M * * * * * * M * * * * * @.@.@.@.@.@.@.@.@.@.@.@.@.@.@.@.@.M M M M M N N N N M M M M M M M @.@.@.@.@.@.@.#.@.@.M M M M M M M M M M M M M M M * * * * * * * * * * * * M * M M M * * * * * * * * * * # # # # * * * * * * * & * * * * * * * * * * * * * * * * * * * * * * * * * * * * * * * * * * * * * M @.6 6 6 6 * * * * * * * * * * M M M M M M M M M M M M * * * * * * # # * * * * * * * * M M M M * * * * * * N *.;.j.n.U.vXvXcXcXcXcXcXcXcXcXcXcXcXcXcXcXcXcX",
"n.n.b.b.b.b.b.b.b.b.<Xb.b.U.b.b.n.n.>.=.Y J J J J J J J J J J #.#.J J J J J #.#.#.#.#.#.#.$.%.$.$.$.$.$.$.$.$.$.$.$.#.$.#.#.#.#.#.#.$.#.#.#.#.#.#.#.#.#.#.#.#.#.#.#.#.$.#.#.#.#.#.#.#.#.#.#.#.#.#.#.#.#.#.#.#.#.#.#.#.#.#.#.#.#.#.#.$.#.#.#.#.#.#.@.@.@.@.@.@.@.@.@.@.@.@.@.@.@.@.@.@.@.@.@.@.@.@.@.@.@.@.M M M M M M M M M * * * * 6 6 6 6 6 6 6 6 6 6 6 6 6 6 6 @.@.@.@.@.@.@.@.@.@.@.@.@.@.@.@.@.@.@.@.@.@.@.@.@.@.@.#.#.#.#.@.@.@.@.@.@.@.@.@.#.@.#.#.#.@.@.@.@.#.@.#.@.@.#.#.#.#.#.#.#.#.#.#.#.#.#.#.#.#.#.#.#.#.#.#.@.@.@.@.@.@.#.%.%.;.>.j.n.n.n.b.b.b.b.b.b.b.b.U.U.b.b.U.U.U.U.",
"6.6.>.>.>.j.j.j.j.j.j.j.j.j.j.>.>.>.;.=.Y *.*.*.*.*.%.%.%.%.%.%.&.&.&.&.%.%.%.%.%.%.%.%.&.&.&.&.&.&.&.&.&.&.&.&.&.&.&.&.&.&.%.&.&.&.&.&.&.&.&.&.%.%.%.%.%.%.%.%.%.%.%.&.&.&.%.%.%.%.%.%.%.%.%.%.%.%.%.%.%.%.%.%.%.%.%.%.%.%.%.%.%.%.%.%.%.%.%.%.%.%.$.$.#.#.#.#.#.#.#.#.#.#.#.#.#.#.%.%.%.%.%.%.%.%.%.%.%.%.%.%.%.$.$.$.#.#.$.$.$.$.$.$.$.$.$.$.$.$.$.$.$.$.$.$.#.#.#.#.#.#.#.#.$.#.$.$.$.$.$.$.$.$.$.$.$.$.$.$.$.$.%.%.%.%.%.%.$.$.$.$.$.$.$.$.$.$.%.%.%.%.%.%.%.%.%.%.%.%.%.%.%.%.%.%.%.%.%.%.%.%.%.%.%.%.%.%.%.%.%.%.%.%.%.%.%.%.%.%.,.,.&.&.>.j.j.j.j.j.j.j.t.>.j.j.j.j.j.j.j.j.j.j.",
"&.&.*.*.*.*.*.*.*.*.;.;.;.;.=.=.;.&.&.&.*.*.&.&.&.&.&.&.&.&.,.,.,.&.,.,.,.,.,.,.,.,.,.,.<.<.<.<.<.<.<.<.<.<.<.<.,.,.,.,.,.,.,.,.,.,.,.,.,.,.,.,.,.,.,.,.,.,.,.,.,.,.,.,.,.,.,.,.,.,.,.,.,.,.,.,.,.,.,.,.,.,.,.,.,.,.,.,.,.,.,.,.,.,.,.,.,.,.,.,.,.,.,.,.,.,.,.,.,.,.,.,.,.,.,.,.,.,.,.,.,.,.,.,.,.,.,.,.,.,.,.,.,.,.,.,.,.,.,.,.,.,.,.,.,.,.<.<.,.,.,.,.,.,.,.,.,.,.,.,.,.,.,.,.,.,.,.,.,.,.,.,.,.,.,.,.,.,.,.<.<.<.<.<.<.<.<.<.<.<.<.,.<.,.,.<.,.,.,.,.,.,.,.,.,.,.,.&.,.,.,.,.&.&.&.&.&.&.&.,.&.&.,.,.,.&.,.,.,.,.,.,.,.,.,.2.2.2.2.2.2.,.,.%.%.,.,.&.&.&.&.*.*.*.&.&.&.&.&.&.&.&.&.&.",
"r r t t t * J #.J #.#.#.#.#.#.$.&.&.&.,.,.,.<.<.<.<.<.<.<.<.<.<.<.<.<.<.<.<.<.<.<.<.<.<.<.<.3.3.3.3.3.3.3.3.3.3.<.<.<.<.<.<.<.<.<.<.<.<.<.<.<.<.<.<.<.<.<.<.<.<.<.<.<.<.<.<.<.<.<.<.<.<.<.<.<.<.<.<.<.<.<.<.<.<.<.<.<.<.<.<.<.<.<.<.<.<.<.<.<.<.<.<.<.<.<.<.<.5.<.<.<.<.<.5.5.5.5.5.5.5.5.5.5.5.5.5.5.5.5.5.5.5.5.5.3.<.<.<.<.3.3.3.3.B.B.B.B.B.B.3.3.3.3.3.3.3.3.<.<.<.<.<.<.<.5.<.5.5.5.5.5.5.5.5.5.5.5.5.5.5.5.5.D.D.5.5.5.5.5.D.3.3.3.3.3.3.3.<.<.<.<.<.<.<.<.<.<.<.<.<.<.<.<.<.<.<.<.<.<.<.<.<.<.<.<.<.<.<.<.<.<.<.<.<.5.5.5.5.5.3.<.<.<.,.$.$.$.$.$.$.@.6 r #.#.#.#.#.#.#.#.r @.@.",
"5 4 4 6 6 6 6 6 6 6 6 6 6 6 6 6 r $.$.$.,.<.<.<.5.5.<.B.Z.Z.D.C.Z.B.B.B.B.B.B.B.Z.Z.Z.Z.Z.Z.Z.Z.Z.Z.Z.Z.Z.Z.Z.Z.Z.Z.Z.Z.Z.Z.Z.Z.Z.Z.Z.Z.Z.Z.B.B.B.B.B.B.B.B.B.B.B.B.B.B.Z.Z.B.B.B.B.B.B.B.B.B.<.C.C.B.B.B.B.B.B.B.B.B.B.B.B.B.B.Z.Z.D.D.D.D.D.Z.Z.Z.Z.Z.D.D.D.D.D.D.D.D.D.D.D.D.D.D.D.D.D.D.D.D.D.D.D.D.D.D.D.D.D.D.Z.Z.Z.D.Z.Z.Z.Z.Z.Z.Z.Z.Z.Z.Z.Z.Z.Z.Z.Z.Z.Z.Z.Z.Z.Z.Z.Z.Z.Z.Z.D.D.D.D.D.D.D.D.D.D.D.D.D.D.D.D.D.D.D.D.D.D.D.D.Z.Z.Z.Z.Z.Z.Z.A.Z.D.Z.Z.Z.D.D.D.D.D.D.D.D.C.C.C.C.D.Z.Z.Z.Z.Z.Z.Z.Z.D.D.D.D.Z.Z.Z.B.B.D.D.D.D.D.D.Z.B.<.B.<.1.1.r r r 5 5 5 5 4 4 4 4 4 4 4 5 4 4 4 5 ",
"1 : 2 2 : : : : : : : : : : 4 4 6 r r 1.1.<.Z.Z.Z.Z.Z.Z.Z.A.A.A.A.S.S.S.S.S.B.B.S.S.S.S.S.S.Z.Z.Z.Z.Z.Z.Z.Z.A.A.Z.Z.S.S.S.S.S.S.S.S.S.S.S.A.S.S.S.S.S.S.S.A.A.A.A.A.A.S.S.S.S.Z.Z.Z.Z.Z.A.Z.Z.B.D.D.B.B.B.A.A.A.A.A.A.A.A.A.A.A.A.A.A.A.F.F.F.F.F.F.F.F.F.A.A.A.A.A.A.A.A.A.A.A.F.F.F.F.A.A.A.A.F.F.A.A.A.A.A.A.A.A.A.A.A.A.A.A.A.A.A.A.A.A.A.A.A.S.S.S.S.S.S.S.S.A.A.A.A.A.A.A.A.A.A.A.A.A.A.A.A.A.A.A.A.A.A.A.A.A.A.A.A.A.A.A.A.A.A.A.A.A.A.A.A.A.A.A.A.A.A.F.F.F.F.F.F.F.F.F.F.F.A.A.A.A.A.A.A.A.A.A.F.F.A.A.A.A.A.A.A.A.F.F.A.A.Z.B.B.B.B.1.e w w w 5 , , , , , , , , , , , , , , , ",
"< < 2 ; ; ; ; ; ; ; ; 2 ; ; ; , 5 e e e 1.B.S.S.S.S.A.A.A.A.A.A.S.V.V.V.V.V.V.V.V.V.S.S.S.S.S.S.S.S.S.S.S.S.S.A.S.S.S.S.V.V.V.V.V.H.K.K.K.K.V.V.V.V.K.K.K.K.H.H.H.H.H.K.S.S.S.S.S.S.S.S.A.A.S.A.A.A.A.A.A.S.H.H.H.H.S.S.S.S.S.S.A.A.K.K.K.K.I.I.K.K.K.K.K.K.K.K.K.K.K.K.K.K.K.I.K.I.K.K.I.K.K.I.K.K.K.K.K.K.K.K.K.K.K.K.K.K.K.K.K.K.K.K.K.K.K.K.K.K.K.K.K.K.K.K.K.K.K.K.K.K.K.K.K.K.K.K.K.K.K.K.K.K.K.K.K.K.K.K.K.K.K.K.K.A.A.A.K.K.A.A.A.A.A.A.K.K.K.K.K.K.K.I.I.I.I.I.I.I.I.I.I.I.A.A.A.A.A.A.A.A.A.A.A.F.A.A.A.A.A.A.A.A.A.A.A.A.S.S.S.S.B.V.e w w 9 q , , , > , , , , , , , , , , , ",
"8 < > > = = > > > > > > > > > > 9 w e e M.V.S.S.S.S.H.K.K.K.K.K.J.G.G.G.G.G.G.G.G.G.G.G.H.H.K.K.K.K.K.K.K.K.K.H.H.J.J.J.G.G.G.H.J.J.J.J.J.J.J.J.J.J.J.J.J.J.H.H.H.H.H.H.H.H.H.H.K.K.K.K.K.K.K.K.K.K.K.K.K.H.H.H.H.H.H.K.K.K.K.K.K.K.K.K.K.K.K.K.K.J.K.K.K.K.K.K.K.K.K.K.K.K.K.K.K.K.K.K.K.K.K.K.K.K.K.K.K.K.K.K.K.K.J.J.J.J.J.J.J.J.K.K.K.K.K.K.P.P.P.P.P.L.L.L.L.L.J.J.J.J.J.J.J.J.P.P.P.K.P.P.P.P.P.P.P.P.P.P.P.P.P.P.P.K.K.K.K.K.K.K.J.K.K.P.P.P.P.P.P.P.K.K.K.K.K.K.K.K.K.K.K.K.K.K.K.K.K.K.K.K.K.K.K.K.K.K.K.K.K.K.K.K.K.K.S.S.S.V.V.S.V.V.e e w 8 q 7 7 7 7 7 7 7 7 7 7 7 7 > q q ",
"8 8 - - - - 7 7 7 7 7 > > 7 7 8 8 0 e M.M.M.M.M.M.J.J.J.J.J.J.J.G.G.G.G.G.G.G.G.G.G.G.G.G.G.G.G.G.G.G.G.G.G.G.G.G.G.G.G.G.G.G.G.G.G.J.J.J.J.G.G.G.G.G.G.G.G.G.G.G.G.G.G.G.G.G.G.G.G.G.G.G.G.G.G.P.G.H.G.G.G.G.G.G.G.G.G.G.G.G.G.G.G.G.G.G.G.G.G.P.P.P.P.P.P.P.P.P.P.P.P.P.P.P.P.P.P.P.P.P.P.P.P.P.P.P.P.P.P.P.P.P.P.P.P.P.P.P.P.P.P.P.P.P.P.P.P.P.L.L.P.P.L.L.L.L.L.J.J.J.J.J.L.P.P.P.P.L.L.L.L.L.L.L.L.L.L.L.L.L.L.L.L.L.L.L.J.J.J.J.J.J.J.J.J.P.P.P.P.P.P.P.P.P.P.P.P.P.P.P.P.P.P.P.P.P.P.J.P.J.J.J.J.J.J.J.H.H.H.H.H.H.H.G.G.G.G.G.G.G.G.M.M.M.N.0 0 q 7 7 7 7 7 7 7 7 7 7 7 7 7 7 7 "
};
