/* XPM */
static char *aaf80ba221f64affc1597762efb1547bz9JqehyrUwTiQvD8[] = {
/* columns rows colors chars-per-pixel */
"608 608 2 1 ",
"  c #A846A8",
". c black",
/* pixels */
"................................................................................................................................................................................................................................................................................................................................................................................................................................................................................................................................................................................................................................",
"................................................................................................................................................................................................................................................................................................................................................................................................................................................................................................................................................................................................................................",
"................................................................................................................................................................................................................................................................................................................................................................................................................................................................................................................................................................................................................................",
"................................................................................................................................................................................................................................................................................................................................................................................................................................................................................................................................................................................................................................",
"................................................................................................................................................................................................................................................................................................................................................................................................................................................................................................................................................................................................................................",
"................................................................................................................................................................................................................................................................................................................................................................................................................................................................................................................................................................................................................................",
"................................................................................................................................................................................................................................................................................................................................................................................................................................................................................................................................................................................................................................",
"................................................................................................................................................................................................................................................................................................................................................................................................................................................................................................................................................................................................................................",
"................................................................................................................................................................................................................................................................................................................................................................................................................................................................................................................................................................................................................................",
"................................................................................................................................................................................................................................................................................................................................................................................................................................................................................................................................................................................................................................",
"................................................................................................................................................................................................................................................................................................................................................................................................................................................................................................................................................................................................................................",
"................................................................................................................................................................................................................................................................................................................................................................................................................................................................................................................................................................................................................................",
"................................................................................................................................................................................................................................................................................................................................................................................................................................................................................................................................................................................................................................",
"................................................................................................................................................................................................................................................................................................................................................................................................................................................................................................................................................................................................................................",
"................................................................................................................................................................................................................................................................................................................................................................................................................................................................................................................................................................................................................................",
"................................................................................................................................................................................................................................................................................................................................................................................................................................................................................................................................................................................................................................",
"................................................................................................................................................................................................................................................................................................................................................................................................................................................................................................................................................................................................................................",
"................................................................................................................................................................................................................................................................................................................................................................................................................................................................................................................................................................................................................................",
"................................................................................................................................................................................................................................................................................................................................................................................................................................................................................................................................................................................................................................",
"                                                                                                                                     ...................                                                                                                                                     ...................                                                                                                                                     ...................                                                                                                                                     ...................",
"                                                                                                                                     ...................                                                                                                                                     ...................                                                                                                                                     ...................                                                                                                                                     ...................",
"                                                                                                                                     ...................                                                                                                                                     ...................                                                                                                                                     ...................                                                                                                                                     ...................",
"                                                                                                                                     ...................                                                                                                                                     ...................                                                                                                                                     ...................                                                                                                                                     ...................",
"                                                                                                                                     ...................                                                                                                                                     ...................                                                                                                                                     ...................                                                                                                                                     ...................",
"                                                                                                                                     ...................                                                                                                                                     ...................                                                                                                                                     ...................                                                                                                                                     ...................",
"                                                                                                                                     ...................                                                                                                                                     ...................                                                                                                                                     ...................                                                                                                                                     ...................",
"                                                                                                                                     ...................                                                                                                                                     ...................                                                                                                                                     ...................                                                                                                                                     ...................",
"                                                                                                                                     ...................                                                                                                                                     ...................                                                                                                                                     ...................                                                                                                                                     ...................",
"                                                                                                                                     ...................                                                                                                                                     ...................                                                                                                                                     ...................                                                                                                                                     ...................",
"                                                                                                                                     ...................                                                                                                                                     ...................                                                                                                                                     ...................                                                                                                                                     ...................",
"                                                                                                                                     ...................                                                                                                                                     ...................                                                                                                                                     ...................                                                                                                                                     ...................",
"                                                                                                                                     ...................                                                                                                                                     ...................                                                                                                                                     ...................                                                                                                                                     ...................",
"                                                                                                                                     ...................                                                                                                                                     ...................                                                                                                                                     ...................                                                                                                                                     ...................",
"                                                                                                                                     ...................                                                                                                                                     ...................                                                                                                                                     ...................                                                                                                                                     ...................",
"                                                                                                                                     ...................                                                                                                                                     ...................                                                                                                                                     ...................                                                                                                                                     ...................",
"                                                                                                                                     ...................                                                                                                                                     ...................                                                                                                                                     ...................                                                                                                                                     ...................",
"                                                                                                                                     ...................                                                                                                                                     ...................                                                                                                                                     ...................                                                                                                                                     ...................",
"                                                                                                                                     ...................                                                                                                                                     ...................                                                                                                                                     ...................                                                                                                                                     ...................",
"...................                                                                                                                                     ...................                                                                                                                                     ...................                                                                                                                                     ...................                                                                                                                                     ",
"...................                                                                                                                                     ...................                                                                                                                                     ...................                                                                                                                                     ...................                                                                                                                                     ",
"...................                                                                                                                                     ...................                                                                                                                                     ...................                                                                                                                                     ...................                                                                                                                                     ",
"...................                                                                                                                                     ...................                                                                                                                                     ...................                                                                                                                                     ...................                                                                                                                                     ",
"...................                                                                                                                                     ...................                                                                                                                                     ...................                                                                                                                                     ...................                                                                                                                                     ",
"...................                                                                                                                                     ...................                                                                                                                                     ...................                                                                                                                                     ...................                                                                                                                                     ",
"...................                                                                                                                                     ...................                                                                                                                                     ...................                                                                                                                                     ...................                                                                                                                                     ",
"...................                                                                                                                                     ...................                                                                                                                                     ...................                                                                                                                                     ...................                                                                                                                                     ",
"...................                                                                                                                                     ...................                                                                                                                                     ...................                                                                                                                                     ...................                                                                                                                                     ",
"...................                                                                                                                                     ...................                                                                                                                                     ...................                                                                                                                                     ...................                                                                                                                                     ",
"...................                                                                                                                                     ...................                                                                                                                                     ...................                                                                                                                                     ...................                                                                                                                                     ",
"...................                                                                                                                                     ...................                                                                                                                                     ...................                                                                                                                                     ...................                                                                                                                                     ",
"...................                                                                                                                                     ...................                                                                                                                                     ...................                                                                                                                                     ...................                                                                                                                                     ",
"...................                                                                                                                                     ...................                                                                                                                                     ...................                                                                                                                                     ...................                                                                                                                                     ",
"...................                                                                                                                                     ...................                                                                                                                                     ...................                                                                                                                                     ...................                                                                                                                                     ",
"...................                                                                                                                                     ...................                                                                                                                                     ...................                                                                                                                                     ...................                                                                                                                                     ",
"...................                                                                                                                                     ...................                                                                                                                                     ...................                                                                                                                                     ...................                                                                                                                                     ",
"...................                                                                                                                                     ...................                                                                                                                                     ...................                                                                                                                                     ...................                                                                                                                                     ",
"...................                                                                                                                                     ...................                                                                                                                                     ...................                                                                                                                                     ...................                                                                                                                                     ",
"...................                                                                                                                                     ...................                                                                                                                                     ...................                                                                                                                                     ...................                                                                                                                                     ",
"...................                                                                                                                                     ...................                                                                                                                                     ...................                                                                                                                                     ...................                                                                                                                                     ",
"...................                                                                                                                                     ...................                                                                                                                                     ...................                                                                                                                                     ...................                                                                                                                                     ",
"...................                                                                                                                                     ...................                                                                                                                                     ...................                                                                                                                                     ...................                                                                                                                                     ",
"...................                                                                                                                                     ...................                                                                                                                                     ...................                                                                                                                                     ...................                                                                                                                                     ",
"...................                                                                                                                                     ...................                                                                                                                                     ...................                                                                                                                                     ...................                                                                                                                                     ",
"...................                                                                                                                                     ...................                                                                                                                                     ...................                                                                                                                                     ...................                                                                                                                                     ",
"...................                                                                                                                                     ...................                                                                                                                                     ...................                                                                                                                                     ...................                                                                                                                                     ",
"...................                                                                                                                                     ...................                                                                                                                                     ...................                                                                                                                                     ...................                                                                                                                                     ",
"...................                                                                                                                                     ...................                                                                                                                                     ...................                                                                                                                                     ...................                                                                                                                                     ",
"...................                                                                                                                                     ...................                                                                                                                                     ...................                                                                                                                                     ...................                                                                                                                                     ",
"...................                                                                                                                                     ...................                                                                                                                                     ...................                                                                                                                                     ...................                                                                                                                                     ",
"...................                                                                                                                                     ...................                                                                                                                                     ...................                                                                                                                                     ...................                                                                                                                                     ",
"...................                                                                                                                                     ...................                                                                                                                                     ...................                                                                                                                                     ...................                                                                                                                                     ",
"...................                                                                                                                                     ...................                                                                                                                                     ...................                                                                                                                                     ...................                                                                                                                                     ",
"...................                                                                                                                                     ...................                                                                                                                                     ...................                                                                                                                                     ...................                                                                                                                                     ",
"...................                                                                                                                                     ...................                                                                                                                                     ...................                                                                                                                                     ...................                                                                                                                                     ",
"...................                                                                                                                                     ...................                                                                                                                                     ...................                                                                                                                                     ...................                                                                                                                                     ",
"...................                                                                                                                                     ...................                                                                                                                                     ...................                                                                                                                                     ...................                                                                                                                                     ",
"................................................................................................................................................................................................................................................................................................................................................................................................................................................................................................................................................................................................................................",
"................................................................................................................................................................................................................................................................................................................................................................................................................................................................................................................................................................................................................................",
"................................................................................................................................................................................................................................................................................................................................................................................................................................................................................................................................................................................................................................",
"................................................................................................................................................................................................................................................................................................................................................................................................................................................................................................................................................................................................................................",
"................................................................................................................................................................................................................................................................................................................................................................................................................................................................................................................................................................................................................................",
"................................................................................................................................................................................................................................................................................................................................................................................................................................................................................................................................................................................................................................",
"................................................................................................................................................................................................................................................................................................................................................................................................................................................................................................................................................................................................................................",
"................................................................................................................................................................................................................................................................................................................................................................................................................................................................................................................................................................................................................................",
"................................................................................................................................................................................................................................................................................................................................................................................................................................................................................................................................................................................................................................",
"................................................................................................................................................................................................................................................................................................................................................................................................................................................................................................................................................................................................................................",
"................................................................................................................................................................................................................................................................................................................................................................................................................................................................................................................................................................................................................................",
"................................................................................................................................................................................................................................................................................................................................................................................................................................................................................................................................................................................................................................",
"................................................................................................................................................................................................................................................................................................................................................................................................................................................................................................................................................................................................................................",
"................................................................................................................................................................................................................................................................................................................................................................................................................................................................................................................................................................................................................................",
"................................................................................................................................................................................................................................................................................................................................................................................................................................................................................................................................................................................................................................",
"................................................................................................................................................................................................................................................................................................................................................................................................................................................................................................................................................................................................................................",
"................................................................................................................................................................................................................................................................................................................................................................................................................................................................................................................................................................................................................................",
"................................................................................................................................................................................................................................................................................................................................................................................................................................................................................................................................................................................................................................",
"................................................................................................................................................................................................................................................................................................................................................................................................................................................................................................................................................................................................................................",
"                                                         ...................                                                                                                                                     ...................                                                                                                                                     ...................                                                                                                                                     ...................                                                                            ",
"                                                         ...................                                                                                                                                     ...................                                                                                                                                     ...................                                                                                                                                     ...................                                                                            ",
"                                                         ...................                                                                                                                                     ...................                                                                                                                                     ...................                                                                                                                                     ...................                                                                            ",
"                                                         ...................                                                                                                                                     ...................                                                                                                                                     ...................                                                                                                                                     ...................                                                                            ",
"                                                         ...................                                                                                                                                     ...................                                                                                                                                     ...................                                                                                                                                     ...................                                                                            ",
"                                                         ...................                                                                                                                                     ...................                                                                                                                                     ...................                                                                                                                                     ...................                                                                            ",
"                                                         ...................                                                                                                                                     ...................                                                                                                                                     ...................                                                                                                                                     ...................                                                                            ",
"                                                         ...................                                                                                                                                     ...................                                                                                                                                     ...................                                                                                                                                     ...................                                                                            ",
"                                                         ...................                                                                                                                                     ...................                                                                                                                                     ...................                                                                                                                                     ...................                                                                            ",
"                                                         ...................                                                                                                                                     ...................                                                                                                                                     ...................                                                                                                                                     ...................                                                                            ",
"                                                         ...................                                                                                                                                     ...................                                                                                                                                     ...................                                                                                                                                     ...................                                                                            ",
"                                                         ...................                                                                                                                                     ...................                                                                                                                                     ...................                                                                                                                                     ...................                                                                            ",
"                                                         ...................                                                                                                                                     ...................                                                                                                                                     ...................                                                                                                                                     ...................                                                                            ",
"                                                         ...................                                                                                                                                     ...................                                                                                                                                     ...................                                                                                                                                     ...................                                                                            ",
"                                                         ...................                                                                                                                                     ...................                                                                                                                                     ...................                                                                                                                                     ...................                                                                            ",
"                                                         ...................                                                                                                                                     ...................                                                                                                                                     ...................                                                                                                                                     ...................                                                                            ",
"                                                         ...................                                                                                                                                     ...................                                                                                                                                     ...................                                                                                                                                     ...................                                                                            ",
"                                                         ...................                                                                                                                                     ...................                                                                                                                                     ...................                                                                                                                                     ...................                                                                            ",
"                                                         ...................                                                                                                                                     ...................                                                                                                                                     ...................                                                                                                                                     ...................                                                                            ",
"                                                                            ...................                                                                                                                                     ...................                                                                                                                                     ...................                                                                                                                                     ...................                                                         ",
"                                                                            ...................                                                                                                                                     ...................                                                                                                                                     ...................                                                                                                                                     ...................                                                         ",
"                                                                            ...................                                                                                                                                     ...................                                                                                                                                     ...................                                                                                                                                     ...................                                                         ",
"                                                                            ...................                                                                                                                                     ...................                                                                                                                                     ...................                                                                                                                                     ...................                                                         ",
"                                                                            ...................                                                                                                                                     ...................                                                                                                                                     ...................                                                                                                                                     ...................                                                         ",
"                                                                            ...................                                                                                                                                     ...................                                                                                                                                     ...................                                                                                                                                     ...................                                                         ",
"                                                                            ...................                                                                                                                                     ...................                                                                                                                                     ...................                                                                                                                                     ...................                                                         ",
"                                                                            ...................                                                                                                                                     ...................                                                                                                                                     ...................                                                                                                                                     ...................                                                         ",
"                                                                            ...................                                                                                                                                     ...................                                                                                                                                     ...................                                                                                                                                     ...................                                                         ",
"                                                                            ...................                                                                                                                                     ...................                                                                                                                                     ...................                                                                                                                                     ...................                                                         ",
"                                                                            ...................                                                                                                                                     ...................                                                                                                                                     ...................                                                                                                                                     ...................                                                         ",
"                                                                            ...................                                                                                                                                     ...................                                                                                                                                     ...................                                                                                                                                     ...................                                                         ",
"                                                                            ...................                                                                                                                                     ...................                                                                                                                                     ...................                                                                                                                                     ...................                                                         ",
"                                                                            ...................                                                                                                                                     ...................                                                                                                                                     ...................                                                                                                                                     ...................                                                         ",
"                                                                            ...................                                                                                                                                     ...................                                                                                                                                     ...................                                                                                                                                     ...................                                                         ",
"                                                                            ...................                                                                                                                                     ...................                                                                                                                                     ...................                                                                                                                                     ...................                                                         ",
"                                                                            ...................                                                                                                                                     ...................                                                                                                                                     ...................                                                                                                                                     ...................                                                         ",
"                                                                            ...................                                                                                                                                     ...................                                                                                                                                     ...................                                                                                                                                     ...................                                                         ",
"                                                                            ...................                                                                                                                                     ...................                                                                                                                                     ...................                                                                                                                                     ...................                                                         ",
"                                                                            ...................                                                                                                                                     ...................                                                                                                                                     ...................                                                                                                                                     ...................                                                         ",
"                                                                            ...................                                                                                                                                     ...................                                                                                                                                     ...................                                                                                                                                     ...................                                                         ",
"                                                                            ...................                                                                                                                                     ...................                                                                                                                                     ...................                                                                                                                                     ...................                                                         ",
"                                                                            ...................                                                                                                                                     ...................                                                                                                                                     ...................                                                                                                                                     ...................                                                         ",
"                                                                            ...................                                                                                                                                     ...................                                                                                                                                     ...................                                                                                                                                     ...................                                                         ",
"                                                                            ...................                                                                                                                                     ...................                                                                                                                                     ...................                                                                                                                                     ...................                                                         ",
"                                                                            ...................                                                                                                                                     ...................                                                                                                                                     ...................                                                                                                                                     ...................                                                         ",
"                                                                            ...................                                                                                                                                     ...................                                                                                                                                     ...................                                                                                                                                     ...................                                                         ",
"                                                                            ...................                                                                                                                                     ...................                                                                                                                                     ...................                                                                                                                                     ...................                                                         ",
"                                                                            ...................                                                                                                                                     ...................                                                                                                                                     ...................                                                                                                                                     ...................                                                         ",
"                                                                            ...................                                                                                                                                     ...................                                                                                                                                     ...................                                                                                                                                     ...................                                                         ",
"                                                                            ...................                                                                                                                                     ...................                                                                                                                                     ...................                                                                                                                                     ...................                                                         ",
"                                                                            ...................                                                                                                                                     ...................                                                                                                                                     ...................                                                                                                                                     ...................                                                         ",
"                                                                            ...................                                                                                                                                     ...................                                                                                                                                     ...................                                                                                                                                     ...................                                                         ",
"                                                                            ...................                                                                                                                                     ...................                                                                                                                                     ...................                                                                                                                                     ...................                                                         ",
"                                                                            ...................                                                                                                                                     ...................                                                                                                                                     ...................                                                                                                                                     ...................                                                         ",
"                                                                            ...................                                                                                                                                     ...................                                                                                                                                     ...................                                                                                                                                     ...................                                                         ",
"                                                                            ...................                                                                                                                                     ...................                                                                                                                                     ...................                                                                                                                                     ...................                                                         ",
"                                                                            ...................                                                                                                                                     ...................                                                                                                                                     ...................                                                                                                                                     ...................                                                         ",
"................................................................................................................................................................................................................................................................................................................................................................................................................................................................................................................................................................................................................................",
"................................................................................................................................................................................................................................................................................................................................................................................................................................................................................................................................................................................................................................",
"................................................................................................................................................................................................................................................................................................................................................................................................................................................................................................................................................................................................................................",
"................................................................................................................................................................................................................................................................................................................................................................................................................................................................................................................................................................................................................................",
"................................................................................................................................................................................................................................................................................................................................................................................................................................................................................................................................................................................................................................",
"................................................................................................................................................................................................................................................................................................................................................................................................................................................................................................................................................................................................................................",
"................................................................................................................................................................................................................................................................................................................................................................................................................................................................................................................................................................................................................................",
"................................................................................................................................................................................................................................................................................................................................................................................................................................................................................................................................................................................................................................",
"................................................................................................................................................................................................................................................................................................................................................................................................................................................................................................................................................................................................................................",
"................................................................................................................................................................................................................................................................................................................................................................................................................................................................................................................................................................................................................................",
"................................................................................................................................................................................................................................................................................................................................................................................................................................................................................................................................................................................................................................",
"................................................................................................................................................................................................................................................................................................................................................................................................................................................................................................................................................................................................................................",
"................................................................................................................................................................................................................................................................................................................................................................................................................................................................................................................................................................................................................................",
"................................................................................................................................................................................................................................................................................................................................................................................................................................................................................................................................................................................................................................",
"................................................................................................................................................................................................................................................................................................................................................................................................................................................................................................................................................................................................................................",
"................................................................................................................................................................................................................................................................................................................................................................................................................................................................................................................................................................................................................................",
"................................................................................................................................................................................................................................................................................................................................................................................................................................................................................................................................................................................................................................",
"................................................................................................................................................................................................................................................................................................................................................................................................................................................................................................................................................................................................................................",
"................................................................................................................................................................................................................................................................................................................................................................................................................................................................................................................................................................................................................................",
"                                                                                                                                     ...................                                                                                                                                     ...................                                                                                                                                     ...................                                                                                                                                     ...................",
"                                                                                                                                     ...................                                                                                                                                     ...................                                                                                                                                     ...................                                                                                                                                     ...................",
"                                                                                                                                     ...................                                                                                                                                     ...................                                                                                                                                     ...................                                                                                                                                     ...................",
"                                                                                                                                     ...................                                                                                                                                     ...................                                                                                                                                     ...................                                                                                                                                     ...................",
"                                                                                                                                     ...................                                                                                                                                     ...................                                                                                                                                     ...................                                                                                                                                     ...................",
"                                                                                                                                     ...................                                                                                                                                     ...................                                                                                                                                     ...................                                                                                                                                     ...................",
"                                                                                                                                     ...................                                                                                                                                     ...................                                                                                                                                     ...................                                                                                                                                     ...................",
"                                                                                                                                     ...................                                                                                                                                     ...................                                                                                                                                     ...................                                                                                                                                     ...................",
"                                                                                                                                     ...................                                                                                                                                     ...................                                                                                                                                     ...................                                                                                                                                     ...................",
"                                                                                                                                     ...................                                                                                                                                     ...................                                                                                                                                     ...................                                                                                                                                     ...................",
"                                                                                                                                     ...................                                                                                                                                     ...................                                                                                                                                     ...................                                                                                                                                     ...................",
"                                                                                                                                     ...................                                                                                                                                     ...................                                                                                                                                     ...................                                                                                                                                     ...................",
"                                                                                                                                     ...................                                                                                                                                     ...................                                                                                                                                     ...................                                                                                                                                     ...................",
"                                                                                                                                     ...................                                                                                                                                     ...................                                                                                                                                     ...................                                                                                                                                     ...................",
"                                                                                                                                     ...................                                                                                                                                     ...................                                                                                                                                     ...................                                                                                                                                     ...................",
"                                                                                                                                     ...................                                                                                                                                     ...................                                                                                                                                     ...................                                                                                                                                     ...................",
"                                                                                                                                     ...................                                                                                                                                     ...................                                                                                                                                     ...................                                                                                                                                     ...................",
"                                                                                                                                     ...................                                                                                                                                     ...................                                                                                                                                     ...................                                                                                                                                     ...................",
"                                                                                                                                     ...................                                                                                                                                     ...................                                                                                                                                     ...................                                                                                                                                     ...................",
"...................                                                                                                                                     ...................                                                                                                                                     ...................                                                                                                                                     ...................                                                                                                                                     ",
"...................                                                                                                                                     ...................                                                                                                                                     ...................                                                                                                                                     ...................                                                                                                                                     ",
"...................                                                                                                                                     ...................                                                                                                                                     ...................                                                                                                                                     ...................                                                                                                                                     ",
"...................                                                                                                                                     ...................                                                                                                                                     ...................                                                                                                                                     ...................                                                                                                                                     ",
"...................                                                                                                                                     ...................                                                                                                                                     ...................                                                                                                                                     ...................                                                                                                                                     ",
"...................                                                                                                                                     ...................                                                                                                                                     ...................                                                                                                                                     ...................                                                                                                                                     ",
"...................                                                                                                                                     ...................                                                                                                                                     ...................                                                                                                                                     ...................                                                                                                                                     ",
"...................                                                                                                                                     ...................                                                                                                                                     ...................                                                                                                                                     ...................                                                                                                                                     ",
"...................                                                                                                                                     ...................                                                                                                                                     ...................                                                                                                                                     ...................                                                                                                                                     ",
"...................                                                                                                                                     ...................                                                                                                                                     ...................                                                                                                                                     ...................                                                                                                                                     ",
"...................                                                                                                                                     ...................                                                                                                                                     ...................                                                                                                                                     ...................                                                                                                                                     ",
"...................                                                                                                                                     ...................                                                                                                                                     ...................                                                                                                                                     ...................                                                                                                                                     ",
"...................                                                                                                                                     ...................                                                                                                                                     ...................                                                                                                                                     ...................                                                                                                                                     ",
"...................                                                                                                                                     ...................                                                                                                                                     ...................                                                                                                                                     ...................                                                                                                                                     ",
"...................                                                                                                                                     ...................                                                                                                                                     ...................                                                                                                                                     ...................                                                                                                                                     ",
"...................                                                                                                                                     ...................                                                                                                                                     ...................                                                                                                                                     ...................                                                                                                                                     ",
"...................                                                                                                                                     ...................                                                                                                                                     ...................                                                                                                                                     ...................                                                                                                                                     ",
"...................                                                                                                                                     ...................                                                                                                                                     ...................                                                                                                                                     ...................                                                                                                                                     ",
"...................                                                                                                                                     ...................                                                                                                                                     ...................                                                                                                                                     ...................                                                                                                                                     ",
"...................                                                                                                                                     ...................                                                                                                                                     ...................                                                                                                                                     ...................                                                                                                                                     ",
"...................                                                                                                                                     ...................                                                                                                                                     ...................                                                                                                                                     ...................                                                                                                                                     ",
"...................                                                                                                                                     ...................                                                                                                                                     ...................                                                                                                                                     ...................                                                                                                                                     ",
"...................                                                                                                                                     ...................                                                                                                                                     ...................                                                                                                                                     ...................                                                                                                                                     ",
"...................                                                                                                                                     ...................                                                                                                                                     ...................                                                                                                                                     ...................                                                                                                                                     ",
"...................                                                                                                                                     ...................                                                                                                                                     ...................                                                                                                                                     ...................                                                                                                                                     ",
"...................                                                                                                                                     ...................                                                                                                                                     ...................                                                                                                                                     ...................                                                                                                                                     ",
"...................                                                                                                                                     ...................                                                                                                                                     ...................                                                                                                                                     ...................                                                                                                                                     ",
"...................                                                                                                                                     ...................                                                                                                                                     ...................                                                                                                                                     ...................                                                                                                                                     ",
"...................                                                                                                                                     ...................                                                                                                                                     ...................                                                                                                                                     ...................                                                                                                                                     ",
"...................                                                                                                                                     ...................                                                                                                                                     ...................                                                                                                                                     ...................                                                                                                                                     ",
"...................                                                                                                                                     ...................                                                                                                                                     ...................                                                                                                                                     ...................                                                                                                                                     ",
"...................                                                                                                                                     ...................                                                                                                                                     ...................                                                                                                                                     ...................                                                                                                                                     ",
"...................                                                                                                                                     ...................                                                                                                                                     ...................                                                                                                                                     ...................                                                                                                                                     ",
"...................                                                                                                                                     ...................                                                                                                                                     ...................                                                                                                                                     ...................                                                                                                                                     ",
"...................                                                                                                                                     ...................                                                                                                                                     ...................                                                                                                                                     ...................                                                                                                                                     ",
"...................                                                                                                                                     ...................                                                                                                                                     ...................                                                                                                                                     ...................                                                                                                                                     ",
"...................                                                                                                                                     ...................                                                                                                                                     ...................                                                                                                                                     ...................                                                                                                                                     ",
"...................                                                                                                                                     ...................                                                                                                                                     ...................                                                                                                                                     ...................                                                                                                                                     ",
"................................................................................................................................................................................................................................................................................................................................................................................................................................................................................................................................................................................................................................",
"................................................................................................................................................................................................................................................................................................................................................................................................................................................................................................................................................................................................................................",
"................................................................................................................................................................................................................................................................................................................................................................................................................................................................................................................................................................................................................................",
"................................................................................................................................................................................................................................................................................................................................................................................................................................................................................................................................................................................................................................",
"................................................................................................................................................................................................................................................................................................................................................................................................................................................................................................................................................................................................................................",
"................................................................................................................................................................................................................................................................................................................................................................................................................................................................................................................................................................................................................................",
"................................................................................................................................................................................................................................................................................................................................................................................................................................................................................................................................................................................................................................",
"................................................................................................................................................................................................................................................................................................................................................................................................................................................................................................................................................................................................................................",
"................................................................................................................................................................................................................................................................................................................................................................................................................................................................................................................................................................................................................................",
"................................................................................................................................................................................................................................................................................................................................................................................................................................................................................................................................................................................................................................",
"................................................................................................................................................................................................................................................................................................................................................................................................................................................................................................................................................................................................................................",
"................................................................................................................................................................................................................................................................................................................................................................................................................................................................................................................................................................................................................................",
"................................................................................................................................................................................................................................................................................................................................................................................................................................................................................................................................................................................................................................",
"................................................................................................................................................................................................................................................................................................................................................................................................................................................................................................................................................................................................................................",
"................................................................................................................................................................................................................................................................................................................................................................................................................................................................................................................................................................................................................................",
"................................................................................................................................................................................................................................................................................................................................................................................................................................................................................................................................................................................................................................",
"................................................................................................................................................................................................................................................................................................................................................................................................................................................................................................................................................................................................................................",
"................................................................................................................................................................................................................................................................................................................................................................................................................................................................................................................................................................................................................................",
"................................................................................................................................................................................................................................................................................................................................................................................................................................................................................................................................................................................................................................",
"                                                         ...................                                                                                                                                     ...................                                                                                                                                     ...................                                                                                                                                     ...................                                                                            ",
"                                                         ...................                                                                                                                                     ...................                                                                                                                                     ...................                                                                                                                                     ...................                                                                            ",
"                                                         ...................                                                                                                                                     ...................                                                                                                                                     ...................                                                                                                                                     ...................                                                                            ",
"                                                         ...................                                                                                                                                     ...................                                                                                                                                     ...................                                                                                                                                     ...................                                                                            ",
"                                                         ...................                                                                                                                                     ...................                                                                                                                                     ...................                                                                                                                                     ...................                                                                            ",
"                                                         ...................                                                                                                                                     ...................                                                                                                                                     ...................                                                                                                                                     ...................                                                                            ",
"                                                         ...................                                                                                                                                     ...................                                                                                                                                     ...................                                                                                                                                     ...................                                                                            ",
"                                                         ...................                                                                                                                                     ...................                                                                                                                                     ...................                                                                                                                                     ...................                                                                            ",
"                                                         ...................                                                                                                                                     ...................                                                                                                                                     ...................                                                                                                                                     ...................                                                                            ",
"                                                         ...................                                                                                                                                     ...................                                                                                                                                     ...................                                                                                                                                     ...................                                                                            ",
"                                                         ...................                                                                                                                                     ...................                                                                                                                                     ...................                                                                                                                                     ...................                                                                            ",
"                                                         ...................                                                                                                                                     ...................                                                                                                                                     ...................                                                                                                                                     ...................                                                                            ",
"                                                         ...................                                                                                                                                     ...................                                                                                                                                     ...................                                                                                                                                     ...................                                                                            ",
"                                                         ...................                                                                                                                                     ...................                                                                                                                                     ...................                                                                                                                                     ...................                                                                            ",
"                                                         ...................                                                                                                                                     ...................                                                                                                                                     ...................                                                                                                                                     ...................                                                                            ",
"                                                         ...................                                                                                                                                     ...................                                                                                                                                     ...................                                                                                                                                     ...................                                                                            ",
"                                                         ...................                                                                                                                                     ...................                                                                                                                                     ...................                                                                                                                                     ...................                                                                            ",
"                                                         ...................                                                                                                                                     ...................                                                                                                                                     ...................                                                                                                                                     ...................                                                                            ",
"                                                         ...................                                                                                                                                     ...................                                                                                                                                     ...................                                                                                                                                     ...................                                                                            ",
"                                                                            ...................                                                                                                                                     ...................                                                                                                                                     ...................                                                                                                                                     ...................                                                         ",
"                                                                            ...................                                                                                                                                     ...................                                                                                                                                     ...................                                                                                                                                     ...................                                                         ",
"                                                                            ...................                                                                                                                                     ...................                                                                                                                                     ...................                                                                                                                                     ...................                                                         ",
"                                                                            ...................                                                                                                                                     ...................                                                                                                                                     ...................                                                                                                                                     ...................                                                         ",
"                                                                            ...................                                                                                                                                     ...................                                                                                                                                     ...................                                                                                                                                     ...................                                                         ",
"                                                                            ...................                                                                                                                                     ...................                                                                                                                                     ...................                                                                                                                                     ...................                                                         ",
"                                                                            ...................                                                                                                                                     ...................                                                                                                                                     ...................                                                                                                                                     ...................                                                         ",
"                                                                            ...................                                                                                                                                     ...................                                                                                                                                     ...................                                                                                                                                     ...................                                                         ",
"                                                                            ...................                                                                                                                                     ...................                                                                                                                                     ...................                                                                                                                                     ...................                                                         ",
"                                                                            ...................                                                                                                                                     ...................                                                                                                                                     ...................                                                                                                                                     ...................                                                         ",
"                                                                            ...................                                                                                                                                     ...................                                                                                                                                     ...................                                                                                                                                     ...................                                                         ",
"                                                                            ...................                                                                                                                                     ...................                                                                                                                                     ...................                                                                                                                                     ...................                                                         ",
"                                                                            ...................                                                                                                                                     ...................                                                                                                                                     ...................                                                                                                                                     ...................                                                         ",
"                                                                            ...................                                                                                                                                     ...................                                                                                                                                     ...................                                                                                                                                     ...................                                                         ",
"                                                                            ...................                                                                                                                                     ...................                                                                                                                                     ...................                                                                                                                                     ...................                                                         ",
"                                                                            ...................                                                                                                                                     ...................                                                                                                                                     ...................                                                                                                                                     ...................                                                         ",
"                                                                            ...................                                                                                                                                     ...................                                                                                                                                     ...................                                                                                                                                     ...................                                                         ",
"                                                                            ...................                                                                                                                                     ...................                                                                                                                                     ...................                                                                                                                                     ...................                                                         ",
"                                                                            ...................                                                                                                                                     ...................                                                                                                                                     ...................                                                                                                                                     ...................                                                         ",
"                                                                            ...................                                                                                                                                     ...................                                                                                                                                     ...................                                                                                                                                     ...................                                                         ",
"                                                                            ...................                                                                                                                                     ...................                                                                                                                                     ...................                                                                                                                                     ...................                                                         ",
"                                                                            ...................                                                                                                                                     ...................                                                                                                                                     ...................                                                                                                                                     ...................                                                         ",
"                                                                            ...................                                                                                                                                     ...................                                                                                                                                     ...................                                                                                                                                     ...................                                                         ",
"                                                                            ...................                                                                                                                                     ...................                                                                                                                                     ...................                                                                                                                                     ...................                                                         ",
"                                                                            ...................                                                                                                                                     ...................                                                                                                                                     ...................                                                                                                                                     ...................                                                         ",
"                                                                            ...................                                                                                                                                     ...................                                                                                                                                     ...................                                                                                                                                     ...................                                                         ",
"                                                                            ...................                                                                                                                                     ...................                                                                                                                                     ...................                                                                                                                                     ...................                                                         ",
"                                                                            ...................                                                                                                                                     ...................                                                                                                                                     ...................                                                                                                                                     ...................                                                         ",
"                                                                            ...................                                                                                                                                     ...................                                                                                                                                     ...................                                                                                                                                     ...................                                                         ",
"                                                                            ...................                                                                                                                                     ...................                                                                                                                                     ...................                                                                                                                                     ...................                                                         ",
"                                                                            ...................                                                                                                                                     ...................                                                                                                                                     ...................                                                                                                                                     ...................                                                         ",
"                                                                            ...................                                                                                                                                     ...................                                                                                                                                     ...................                                                                                                                                     ...................                                                         ",
"                                                                            ...................                                                                                                                                     ...................                                                                                                                                     ...................                                                                                                                                     ...................                                                         ",
"                                                                            ...................                                                                                                                                     ...................                                                                                                                                     ...................                                                                                                                                     ...................                                                         ",
"                                                                            ...................                                                                                                                                     ...................                                                                                                                                     ...................                                                                                                                                     ...................                                                         ",
"                                                                            ...................                                                                                                                                     ...................                                                                                                                                     ...................                                                                                                                                     ...................                                                         ",
"                                                                            ...................                                                                                                                                     ...................                                                                                                                                     ...................                                                                                                                                     ...................                                                         ",
"                                                                            ...................                                                                                                                                     ...................                                                                                                                                     ...................                                                                                                                                     ...................                                                         ",
"................................................................................................................................................................................................................................................................................................................................................................................................................................................................................................................................................................................................................................",
"................................................................................................................................................................................................................................................................................................................................................................................................................................................................................................................................................................................................................................",
"................................................................................................................................................................................................................................................................................................................................................................................................................................................................................................................................................................................................................................",
"................................................................................................................................................................................................................................................................................................................................................................................................................................................................................................................................................................................................................................",
"................................................................................................................................................................................................................................................................................................................................................................................................................................................................................................................................................................................................................................",
"................................................................................................................................................................................................................................................................................................................................................................................................................................................................................................................................................................................................................................",
"................................................................................................................................................................................................................................................................................................................................................................................................................................................................................................................................................................................................................................",
"................................................................................................................................................................................................................................................................................................................................................................................................................................................................................................................................................................................................................................",
"................................................................................................................................................................................................................................................................................................................................................................................................................................................................................................................................................................................................................................",
"................................................................................................................................................................................................................................................................................................................................................................................................................................................................................................................................................................................................................................",
"................................................................................................................................................................................................................................................................................................................................................................................................................................................................................................................................................................................................................................",
"................................................................................................................................................................................................................................................................................................................................................................................................................................................................................................................................................................................................................................",
"................................................................................................................................................................................................................................................................................................................................................................................................................................................................................................................................................................................................................................",
"................................................................................................................................................................................................................................................................................................................................................................................................................................................................................................................................................................................................................................",
"................................................................................................................................................................................................................................................................................................................................................................................................................................................................................................................................................................................................................................",
"................................................................................................................................................................................................................................................................................................................................................................................................................................................................................................................................................................................................................................",
"................................................................................................................................................................................................................................................................................................................................................................................................................................................................................................................................................................................................................................",
"................................................................................................................................................................................................................................................................................................................................................................................................................................................................................................................................................................................................................................",
"................................................................................................................................................................................................................................................................................................................................................................................................................................................................................................................................................................................................................................",
"                                                                                                                                     ...................                                                                                                                                     ...................                                                                                                                                     ...................                                                                                                                                     ...................",
"                                                                                                                                     ...................                                                                                                                                     ...................                                                                                                                                     ...................                                                                                                                                     ...................",
"                                                                                                                                     ...................                                                                                                                                     ...................                                                                                                                                     ...................                                                                                                                                     ...................",
"                                                                                                                                     ...................                                                                                                                                     ...................                                                                                                                                     ...................                                                                                                                                     ...................",
"                                                                                                                                     ...................                                                                                                                                     ...................                                                                                                                                     ...................                                                                                                                                     ...................",
"                                                                                                                                     ...................                                                                                                                                     ...................                                                                                                                                     ...................                                                                                                                                     ...................",
"                                                                                                                                     ...................                                                                                                                                     ...................                                                                                                                                     ...................                                                                                                                                     ...................",
"                                                                                                                                     ...................                                                                                                                                     ...................                                                                                                                                     ...................                                                                                                                                     ...................",
"                                                                                                                                     ...................                                                                                                                                     ...................                                                                                                                                     ...................                                                                                                                                     ...................",
"                                                                                                                                     ...................                                                                                                                                     ...................                                                                                                                                     ...................                                                                                                                                     ...................",
"                                                                                                                                     ...................                                                                                                                                     ...................                                                                                                                                     ...................                                                                                                                                     ...................",
"                                                                                                                                     ...................                                                                                                                                     ...................                                                                                                                                     ...................                                                                                                                                     ...................",
"                                                                                                                                     ...................                                                                                                                                     ...................                                                                                                                                     ...................                                                                                                                                     ...................",
"                                                                                                                                     ...................                                                                                                                                     ...................                                                                                                                                     ...................                                                                                                                                     ...................",
"                                                                                                                                     ...................                                                                                                                                     ...................                                                                                                                                     ...................                                                                                                                                     ...................",
"                                                                                                                                     ...................                                                                                                                                     ...................                                                                                                                                     ...................                                                                                                                                     ...................",
"                                                                                                                                     ...................                                                                                                                                     ...................                                                                                                                                     ...................                                                                                                                                     ...................",
"                                                                                                                                     ...................                                                                                                                                     ...................                                                                                                                                     ...................                                                                                                                                     ...................",
"                                                                                                                                     ...................                                                                                                                                     ...................                                                                                                                                     ...................                                                                                                                                     ...................",
"...................                                                                                                                                     ...................                                                                                                                                     ...................                                                                                                                                     ...................                                                                                                                                     ",
"...................                                                                                                                                     ...................                                                                                                                                     ...................                                                                                                                                     ...................                                                                                                                                     ",
"...................                                                                                                                                     ...................                                                                                                                                     ...................                                                                                                                                     ...................                                                                                                                                     ",
"...................                                                                                                                                     ...................                                                                                                                                     ...................                                                                                                                                     ...................                                                                                                                                     ",
"...................                                                                                                                                     ...................                                                                                                                                     ...................                                                                                                                                     ...................                                                                                                                                     ",
"...................                                                                                                                                     ...................                                                                                                                                     ...................                                                                                                                                     ...................                                                                                                                                     ",
"...................                                                                                                                                     ...................                                                                                                                                     ...................                                                                                                                                     ...................                                                                                                                                     ",
"...................                                                                                                                                     ...................                                                                                                                                     ...................                                                                                                                                     ...................                                                                                                                                     ",
"...................                                                                                                                                     ...................                                                                                                                                     ...................                                                                                                                                     ...................                                                                                                                                     ",
"...................                                                                                                                                     ...................                                                                                                                                     ...................                                                                                                                                     ...................                                                                                                                                     ",
"...................                                                                                                                                     ...................                                                                                                                                     ...................                                                                                                                                     ...................                                                                                                                                     ",
"...................                                                                                                                                     ...................                                                                                                                                     ...................                                                                                                                                     ...................                                                                                                                                     ",
"...................                                                                                                                                     ...................                                                                                                                                     ...................                                                                                                                                     ...................                                                                                                                                     ",
"...................                                                                                                                                     ...................                                                                                                                                     ...................                                                                                                                                     ...................                                                                                                                                     ",
"...................                                                                                                                                     ...................                                                                                                                                     ...................                                                                                                                                     ...................                                                                                                                                     ",
"...................                                                                                                                                     ...................                                                                                                                                     ...................                                                                                                                                     ...................                                                                                                                                     ",
"...................                                                                                                                                     ...................                                                                                                                                     ...................                                                                                                                                     ...................                                                                                                                                     ",
"...................                                                                                                                                     ...................                                                                                                                                     ...................                                                                                                                                     ...................                                                                                                                                     ",
"...................                                                                                                                                     ...................                                                                                                                                     ...................                                                                                                                                     ...................                                                                                                                                     ",
"...................                                                                                                                                     ...................                                                                                                                                     ...................                                                                                                                                     ...................                                                                                                                                     ",
"...................                                                                                                                                     ...................                                                                                                                                     ...................                                                                                                                                     ...................                                                                                                                                     ",
"...................                                                                                                                                     ...................                                                                                                                                     ...................                                                                                                                                     ...................                                                                                                                                     ",
"...................                                                                                                                                     ...................                                                                                                                                     ...................                                                                                                                                     ...................                                                                                                                                     ",
"...................                                                                                                                                     ...................                                                                                                                                     ...................                                                                                                                                     ...................                                                                                                                                     ",
"...................                                                                                                                                     ...................                                                                                                                                     ...................                                                                                                                                     ...................                                                                                                                                     ",
"...................                                                                                                                                     ...................                                                                                                                                     ...................                                                                                                                                     ...................                                                                                                                                     ",
"...................                                                                                                                                     ...................                                                                                                                                     ...................                                                                                                                                     ...................                                                                                                                                     ",
"...................                                                                                                                                     ...................                                                                                                                                     ...................                                                                                                                                     ...................                                                                                                                                     ",
"...................                                                                                                                                     ...................                                                                                                                                     ...................                                                                                                                                     ...................                                                                                                                                     ",
"...................                                                                                                                                     ...................                                                                                                                                     ...................                                                                                                                                     ...................                                                                                                                                     ",
"...................                                                                                                                                     ...................                                                                                                                                     ...................                                                                                                                                     ...................                                                                                                                                     ",
"...................                                                                                                                                     ...................                                                                                                                                     ...................                                                                                                                                     ...................                                                                                                                                     ",
"...................                                                                                                                                     ...................                                                                                                                                     ...................                                                                                                                                     ...................                                                                                                                                     ",
"...................                                                                                                                                     ...................                                                                                                                                     ...................                                                                                                                                     ...................                                                                                                                                     ",
"...................                                                                                                                                     ...................                                                                                                                                     ...................                                                                                                                                     ...................                                                                                                                                     ",
"...................                                                                                                                                     ...................                                                                                                                                     ...................                                                                                                                                     ...................                                                                                                                                     ",
"...................                                                                                                                                     ...................                                                                                                                                     ...................                                                                                                                                     ...................                                                                                                                                     ",
"...................                                                                                                                                     ...................                                                                                                                                     ...................                                                                                                                                     ...................                                                                                                                                     ",
"................................................................................................................................................................................................................................................................................................................................................................................................................................................................................................................................................................................................................................",
"................................................................................................................................................................................................................................................................................................................................................................................................................................................................................................................................................................................................................................",
"................................................................................................................................................................................................................................................................................................................................................................................................................................................................................................................................................................................................................................",
"................................................................................................................................................................................................................................................................................................................................................................................................................................................................................................................................................................................................................................",
"................................................................................................................................................................................................................................................................................................................................................................................................................................................................................................................................................................................................................................",
"................................................................................................................................................................................................................................................................................................................................................................................................................................................................................................................................................................................................................................",
"................................................................................................................................................................................................................................................................................................................................................................................................................................................................................................................................................................................................................................",
"................................................................................................................................................................................................................................................................................................................................................................................................................................................................................................................................................................................................................................",
"................................................................................................................................................................................................................................................................................................................................................................................................................................................................................................................................................................................................................................",
"................................................................................................................................................................................................................................................................................................................................................................................................................................................................................................................................................................................................................................",
"................................................................................................................................................................................................................................................................................................................................................................................................................................................................................................................................................................................................................................",
"................................................................................................................................................................................................................................................................................................................................................................................................................................................................................................................................................................................................................................",
"................................................................................................................................................................................................................................................................................................................................................................................................................................................................................................................................................................................................................................",
"................................................................................................................................................................................................................................................................................................................................................................................................................................................................................................................................................................................................................................",
"................................................................................................................................................................................................................................................................................................................................................................................................................................................................................................................................................................................................................................",
"................................................................................................................................................................................................................................................................................................................................................................................................................................................................................................................................................................................................................................",
"................................................................................................................................................................................................................................................................................................................................................................................................................................................................................................................................................................................................................................",
"................................................................................................................................................................................................................................................................................................................................................................................................................................................................................................................................................................................................................................",
"................................................................................................................................................................................................................................................................................................................................................................................................................................................................................................................................................................................................................................",
"                                                         ...................                                                                                                                                     ...................                                                                                                                                     ...................                                                                                                                                     ...................                                                                            ",
"                                                         ...................                                                                                                                                     ...................                                                                                                                                     ...................                                                                                                                                     ...................                                                                            ",
"                                                         ...................                                                                                                                                     ...................                                                                                                                                     ...................                                                                                                                                     ...................                                                                            ",
"                                                         ...................                                                                                                                                     ...................                                                                                                                                     ...................                                                                                                                                     ...................                                                                            ",
"                                                         ...................                                                                                                                                     ...................                                                                                                                                     ...................                                                                                                                                     ...................                                                                            ",
"                                                         ...................                                                                                                                                     ...................                                                                                                                                     ...................                                                                                                                                     ...................                                                                            ",
"                                                         ...................                                                                                                                                     ...................                                                                                                                                     ...................                                                                                                                                     ...................                                                                            ",
"                                                         ...................                                                                                                                                     ...................                                                                                                                                     ...................                                                                                                                                     ...................                                                                            ",
"                                                         ...................                                                                                                                                     ...................                                                                                                                                     ...................                                                                                                                                     ...................                                                                            ",
"                                                         ...................                                                                                                                                     ...................                                                                                                                                     ...................                                                                                                                                     ...................                                                                            ",
"                                                         ...................                                                                                                                                     ...................                                                                                                                                     ...................                                                                                                                                     ...................                                                                            ",
"                                                         ...................                                                                                                                                     ...................                                                                                                                                     ...................                                                                                                                                     ...................                                                                            ",
"                                                         ...................                                                                                                                                     ...................                                                                                                                                     ...................                                                                                                                                     ...................                                                                            ",
"                                                         ...................                                                                                                                                     ...................                                                                                                                                     ...................                                                                                                                                     ...................                                                                            ",
"                                                         ...................                                                                                                                                     ...................                                                                                                                                     ...................                                                                                                                                     ...................                                                                            ",
"                                                         ...................                                                                                                                                     ...................                                                                                                                                     ...................                                                                                                                                     ...................                                                                            ",
"                                                         ...................                                                                                                                                     ...................                                                                                                                                     ...................                                                                                                                                     ...................                                                                            ",
"                                                         ...................                                                                                                                                     ...................                                                                                                                                     ...................                                                                                                                                     ...................                                                                            ",
"                                                         ...................                                                                                                                                     ...................                                                                                                                                     ...................                                                                                                                                     ...................                                                                            ",
"                                                                            ...................                                                                                                                                     ...................                                                                                                                                     ...................                                                                                                                                     ...................                                                         ",
"                                                                            ...................                                                                                                                                     ...................                                                                                                                                     ...................                                                                                                                                     ...................                                                         ",
"                                                                            ...................                                                                                                                                     ...................                                                                                                                                     ...................                                                                                                                                     ...................                                                         ",
"                                                                            ...................                                                                                                                                     ...................                                                                                                                                     ...................                                                                                                                                     ...................                                                         ",
"                                                                            ...................                                                                                                                                     ...................                                                                                                                                     ...................                                                                                                                                     ...................                                                         ",
"                                                                            ...................                                                                                                                                     ...................                                                                                                                                     ...................                                                                                                                                     ...................                                                         ",
"                                                                            ...................                                                                                                                                     ...................                                                                                                                                     ...................                                                                                                                                     ...................                                                         ",
"                                                                            ...................                                                                                                                                     ...................                                                                                                                                     ...................                                                                                                                                     ...................                                                         ",
"                                                                            ...................                                                                                                                                     ...................                                                                                                                                     ...................                                                                                                                                     ...................                                                         ",
"                                                                            ...................                                                                                                                                     ...................                                                                                                                                     ...................                                                                                                                                     ...................                                                         ",
"                                                                            ...................                                                                                                                                     ...................                                                                                                                                     ...................                                                                                                                                     ...................                                                         ",
"                                                                            ...................                                                                                                                                     ...................                                                                                                                                     ...................                                                                                                                                     ...................                                                         ",
"                                                                            ...................                                                                                                                                     ...................                                                                                                                                     ...................                                                                                                                                     ...................                                                         ",
"                                                                            ...................                                                                                                                                     ...................                                                                                                                                     ...................                                                                                                                                     ...................                                                         ",
"                                                                            ...................                                                                                                                                     ...................                                                                                                                                     ...................                                                                                                                                     ...................                                                         ",
"                                                                            ...................                                                                                                                                     ...................                                                                                                                                     ...................                                                                                                                                     ...................                                                         ",
"                                                                            ...................                                                                                                                                     ...................                                                                                                                                     ...................                                                                                                                                     ...................                                                         ",
"                                                                            ...................                                                                                                                                     ...................                                                                                                                                     ...................                                                                                                                                     ...................                                                         ",
"                                                                            ...................                                                                                                                                     ...................                                                                                                                                     ...................                                                                                                                                     ...................                                                         ",
"                                                                            ...................                                                                                                                                     ...................                                                                                                                                     ...................                                                                                                                                     ...................                                                         ",
"                                                                            ...................                                                                                                                                     ...................                                                                                                                                     ...................                                                                                                                                     ...................                                                         ",
"                                                                            ...................                                                                                                                                     ...................                                                                                                                                     ...................                                                                                                                                     ...................                                                         ",
"                                                                            ...................                                                                                                                                     ...................                                                                                                                                     ...................                                                                                                                                     ...................                                                         ",
"                                                                            ...................                                                                                                                                     ...................                                                                                                                                     ...................                                                                                                                                     ...................                                                         ",
"                                                                            ...................                                                                                                                                     ...................                                                                                                                                     ...................                                                                                                                                     ...................                                                         ",
"                                                                            ...................                                                                                                                                     ...................                                                                                                                                     ...................                                                                                                                                     ...................                                                         ",
"                                                                            ...................                                                                                                                                     ...................                                                                                                                                     ...................                                                                                                                                     ...................                                                         ",
"                                                                            ...................                                                                                                                                     ...................                                                                                                                                     ...................                                                                                                                                     ...................                                                         ",
"                                                                            ...................                                                                                                                                     ...................                                                                                                                                     ...................                                                                                                                                     ...................                                                         ",
"                                                                            ...................                                                                                                                                     ...................                                                                                                                                     ...................                                                                                                                                     ...................                                                         ",
"                                                                            ...................                                                                                                                                     ...................                                                                                                                                     ...................                                                                                                                                     ...................                                                         ",
"                                                                            ...................                                                                                                                                     ...................                                                                                                                                     ...................                                                                                                                                     ...................                                                         ",
"                                                                            ...................                                                                                                                                     ...................                                                                                                                                     ...................                                                                                                                                     ...................                                                         ",
"                                                                            ...................                                                                                                                                     ...................                                                                                                                                     ...................                                                                                                                                     ...................                                                         ",
"                                                                            ...................                                                                                                                                     ...................                                                                                                                                     ...................                                                                                                                                     ...................                                                         ",
"                                                                            ...................                                                                                                                                     ...................                                                                                                                                     ...................                                                                                                                                     ...................                                                         ",
"                                                                            ...................                                                                                                                                     ...................                                                                                                                                     ...................                                                                                                                                     ...................                                                         ",
"                                                                            ...................                                                                                                                                     ...................                                                                                                                                     ...................                                                                                                                                     ...................                                                         ",
"................................................................................................................................................................................................................................................................................................................................................................................................................................................................................................................................................................................................................................",
"................................................................................................................................................................................................................................................................................................................................................................................................................................................................................................................................................................................................................................",
"................................................................................................................................................................................................................................................................................................................................................................................................................................................................................................................................................................................................................................",
"................................................................................................................................................................................................................................................................................................................................................................................................................................................................................................................................................................................................................................",
"................................................................................................................................................................................................................................................................................................................................................................................................................................................................................................................................................................................................................................",
"................................................................................................................................................................................................................................................................................................................................................................................................................................................................................................................................................................................................................................",
"................................................................................................................................................................................................................................................................................................................................................................................................................................................................................................................................................................................................................................",
"................................................................................................................................................................................................................................................................................................................................................................................................................................................................................................................................................................................................................................",
"................................................................................................................................................................................................................................................................................................................................................................................................................................................................................................................................................................................................................................",
"................................................................................................................................................................................................................................................................................................................................................................................................................................................................................................................................................................................................................................",
"................................................................................................................................................................................................................................................................................................................................................................................................................................................................................................................................................................................................................................",
"................................................................................................................................................................................................................................................................................................................................................................................................................................................................................................................................................................................................................................",
"................................................................................................................................................................................................................................................................................................................................................................................................................................................................................................................................................................................................................................",
"................................................................................................................................................................................................................................................................................................................................................................................................................................................................................................................................................................................................................................",
"................................................................................................................................................................................................................................................................................................................................................................................................................................................................................................................................................................................................................................",
"................................................................................................................................................................................................................................................................................................................................................................................................................................................................................................................................................................................................................................",
"................................................................................................................................................................................................................................................................................................................................................................................................................................................................................................................................................................................................................................",
"................................................................................................................................................................................................................................................................................................................................................................................................................................................................................................................................................................................................................................",
"................................................................................................................................................................................................................................................................................................................................................................................................................................................................................................................................................................................................................................",
"                                                                                                                                     ...................                                                                                                                                     ...................                                                                                                                                     ...................                                                                                                                                     ...................",
"                                                                                                                                     ...................                                                                                                                                     ...................                                                                                                                                     ...................                                                                                                                                     ...................",
"                                                                                                                                     ...................                                                                                                                                     ...................                                                                                                                                     ...................                                                                                                                                     ...................",
"                                                                                                                                     ...................                                                                                                                                     ...................                                                                                                                                     ...................                                                                                                                                     ...................",
"                                                                                                                                     ...................                                                                                                                                     ...................                                                                                                                                     ...................                                                                                                                                     ...................",
"                                                                                                                                     ...................                                                                                                                                     ...................                                                                                                                                     ...................                                                                                                                                     ...................",
"                                                                                                                                     ...................                                                                                                                                     ...................                                                                                                                                     ...................                                                                                                                                     ...................",
"                                                                                                                                     ...................                                                                                                                                     ...................                                                                                                                                     ...................                                                                                                                                     ...................",
"                                                                                                                                     ...................                                                                                                                                     ...................                                                                                                                                     ...................                                                                                                                                     ...................",
"                                                                                                                                     ...................                                                                                                                                     ...................                                                                                                                                     ...................                                                                                                                                     ...................",
"                                                                                                                                     ...................                                                                                                                                     ...................                                                                                                                                     ...................                                                                                                                                     ...................",
"                                                                                                                                     ...................                                                                                                                                     ...................                                                                                                                                     ...................                                                                                                                                     ...................",
"                                                                                                                                     ...................                                                                                                                                     ...................                                                                                                                                     ...................                                                                                                                                     ...................",
"                                                                                                                                     ...................                                                                                                                                     ...................                                                                                                                                     ...................                                                                                                                                     ...................",
"                                                                                                                                     ...................                                                                                                                                     ...................                                                                                                                                     ...................                                                                                                                                     ...................",
"                                                                                                                                     ...................                                                                                                                                     ...................                                                                                                                                     ...................                                                                                                                                     ...................",
"                                                                                                                                     ...................                                                                                                                                     ...................                                                                                                                                     ...................                                                                                                                                     ...................",
"                                                                                                                                     ...................                                                                                                                                     ...................                                                                                                                                     ...................                                                                                                                                     ...................",
"                                                                                                                                     ...................                                                                                                                                     ...................                                                                                                                                     ...................                                                                                                                                     ...................",
"...................                                                                                                                                     ...................                                                                                                                                     ...................                                                                                                                                     ...................                                                                                                                                     ",
"...................                                                                                                                                     ...................                                                                                                                                     ...................                                                                                                                                     ...................                                                                                                                                     ",
"...................                                                                                                                                     ...................                                                                                                                                     ...................                                                                                                                                     ...................                                                                                                                                     ",
"...................                                                                                                                                     ...................                                                                                                                                     ...................                                                                                                                                     ...................                                                                                                                                     ",
"...................                                                                                                                                     ...................                                                                                                                                     ...................                                                                                                                                     ...................                                                                                                                                     ",
"...................                                                                                                                                     ...................                                                                                                                                     ...................                                                                                                                                     ...................                                                                                                                                     ",
"...................                                                                                                                                     ...................                                                                                                                                     ...................                                                                                                                                     ...................                                                                                                                                     ",
"...................                                                                                                                                     ...................                                                                                                                                     ...................                                                                                                                                     ...................                                                                                                                                     ",
"...................                                                                                                                                     ...................                                                                                                                                     ...................                                                                                                                                     ...................                                                                                                                                     ",
"...................                                                                                                                                     ...................                                                                                                                                     ...................                                                                                                                                     ...................                                                                                                                                     ",
"...................                                                                                                                                     ...................                                                                                                                                     ...................                                                                                                                                     ...................                                                                                                                                     ",
"...................                                                                                                                                     ...................                                                                                                                                     ...................                                                                                                                                     ...................                                                                                                                                     ",
"...................                                                                                                                                     ...................                                                                                                                                     ...................                                                                                                                                     ...................                                                                                                                                     ",
"...................                                                                                                                                     ...................                                                                                                                                     ...................                                                                                                                                     ...................                                                                                                                                     ",
"...................                                                                                                                                     ...................                                                                                                                                     ...................                                                                                                                                     ...................                                                                                                                                     ",
"...................                                                                                                                                     ...................                                                                                                                                     ...................                                                                                                                                     ...................                                                                                                                                     ",
"...................                                                                                                                                     ...................                                                                                                                                     ...................                                                                                                                                     ...................                                                                                                                                     ",
"...................                                                                                                                                     ...................                                                                                                                                     ...................                                                                                                                                     ...................                                                                                                                                     ",
"...................                                                                                                                                     ...................                                                                                                                                     ...................                                                                                                                                     ...................                                                                                                                                     ",
"...................                                                                                                                                     ...................                                                                                                                                     ...................                                                                                                                                     ...................                                                                                                                                     ",
"...................                                                                                                                                     ...................                                                                                                                                     ...................                                                                                                                                     ...................                                                                                                                                     ",
"...................                                                                                                                                     ...................                                                                                                                                     ...................                                                                                                                                     ...................                                                                                                                                     ",
"...................                                                                                                                                     ...................                                                                                                                                     ...................                                                                                                                                     ...................                                                                                                                                     ",
"...................                                                                                                                                     ...................                                                                                                                                     ...................                                                                                                                                     ...................                                                                                                                                     ",
"...................                                                                                                                                     ...................                                                                                                                                     ...................                                                                                                                                     ...................                                                                                                                                     ",
"...................                                                                                                                                     ...................                                                                                                                                     ...................                                                                                                                                     ...................                                                                                                                                     ",
"...................                                                                                                                                     ...................                                                                                                                                     ...................                                                                                                                                     ...................                                                                                                                                     ",
"...................                                                                                                                                     ...................                                                                                                                                     ...................                                                                                                                                     ...................                                                                                                                                     ",
"...................                                                                                                                                     ...................                                                                                                                                     ...................                                                                                                                                     ...................                                                                                                                                     ",
"...................                                                                                                                                     ...................                                                                                                                                     ...................                                                                                                                                     ...................                                                                                                                                     ",
"...................                                                                                                                                     ...................                                                                                                                                     ...................                                                                                                                                     ...................                                                                                                                                     ",
"...................                                                                                                                                     ...................                                                                                                                                     ...................                                                                                                                                     ...................                                                                                                                                     ",
"...................                                                                                                                                     ...................                                                                                                                                     ...................                                                                                                                                     ...................                                                                                                                                     ",
"...................                                                                                                                                     ...................                                                                                                                                     ...................                                                                                                                                     ...................                                                                                                                                     ",
"...................                                                                                                                                     ...................                                                                                                                                     ...................                                                                                                                                     ...................                                                                                                                                     ",
"...................                                                                                                                                     ...................                                                                                                                                     ...................                                                                                                                                     ...................                                                                                                                                     ",
"...................                                                                                                                                     ...................                                                                                                                                     ...................                                                                                                                                     ...................                                                                                                                                     ",
"...................                                                                                                                                     ...................                                                                                                                                     ...................                                                                                                                                     ...................                                                                                                                                     ",
"................................................................................................................................................................................................................................................................................................................................................................................................................................................................................................................................................................................................................................",
"................................................................................................................................................................................................................................................................................................................................................................................................................................................................................................................................................................................................................................",
"................................................................................................................................................................................................................................................................................................................................................................................................................................................................................................................................................................................................................................",
"................................................................................................................................................................................................................................................................................................................................................................................................................................................................................................................................................................................................................................",
"................................................................................................................................................................................................................................................................................................................................................................................................................................................................................................................................................................................................................................",
"................................................................................................................................................................................................................................................................................................................................................................................................................................................................................................................................................................................................................................",
"................................................................................................................................................................................................................................................................................................................................................................................................................................................................................................................................................................................................................................",
"................................................................................................................................................................................................................................................................................................................................................................................................................................................................................................................................................................................................................................",
"................................................................................................................................................................................................................................................................................................................................................................................................................................................................................................................................................................................................................................",
"................................................................................................................................................................................................................................................................................................................................................................................................................................................................................................................................................................................................................................",
"................................................................................................................................................................................................................................................................................................................................................................................................................................................................................................................................................................................................................................",
"................................................................................................................................................................................................................................................................................................................................................................................................................................................................................................................................................................................................................................",
"................................................................................................................................................................................................................................................................................................................................................................................................................................................................................................................................................................................................................................",
"................................................................................................................................................................................................................................................................................................................................................................................................................................................................................................................................................................................................................................",
"................................................................................................................................................................................................................................................................................................................................................................................................................................................................................................................................................................................................................................",
"................................................................................................................................................................................................................................................................................................................................................................................................................................................................................................................................................................................................................................",
"................................................................................................................................................................................................................................................................................................................................................................................................................................................................................................................................................................................................................................",
"................................................................................................................................................................................................................................................................................................................................................................................................................................................................................................................................................................................................................................",
"................................................................................................................................................................................................................................................................................................................................................................................................................................................................................................................................................................................................................................",
"                                                         ...................                                                                                                                                     ...................                                                                                                                                     ...................                                                                                                                                     ...................                                                                            ",
"                                                         ...................                                                                                                                                     ...................                                                                                                                                     ...................                                                                                                                                     ...................                                                                            ",
"                                                         ...................                                                                                                                                     ...................                                                                                                                                     ...................                                                                                                                                     ...................                                                                            ",
"                                                         ...................                                                                                                                                     ...................                                                                                                                                     ...................                                                                                                                                     ...................                                                                            ",
"                                                         ...................                                                                                                                                     ...................                                                                                                                                     ...................                                                                                                                                     ...................                                                                            ",
"                                                         ...................                                                                                                                                     ...................                                                                                                                                     ...................                                                                                                                                     ...................                                                                            ",
"                                                         ...................                                                                                                                                     ...................                                                                                                                                     ...................                                                                                                                                     ...................                                                                            ",
"                                                         ...................                                                                                                                                     ...................                                                                                                                                     ...................                                                                                                                                     ...................                                                                            ",
"                                                         ...................                                                                                                                                     ...................                                                                                                                                     ...................                                                                                                                                     ...................                                                                            ",
"                                                         ...................                                                                                                                                     ...................                                                                                                                                     ...................                                                                                                                                     ...................                                                                            ",
"                                                         ...................                                                                                                                                     ...................                                                                                                                                     ...................                                                                                                                                     ...................                                                                            ",
"                                                         ...................                                                                                                                                     ...................                                                                                                                                     ...................                                                                                                                                     ...................                                                                            ",
"                                                         ...................                                                                                                                                     ...................                                                                                                                                     ...................                                                                                                                                     ...................                                                                            ",
"                                                         ...................                                                                                                                                     ...................                                                                                                                                     ...................                                                                                                                                     ...................                                                                            ",
"                                                         ...................                                                                                                                                     ...................                                                                                                                                     ...................                                                                                                                                     ...................                                                                            ",
"                                                         ...................                                                                                                                                     ...................                                                                                                                                     ...................                                                                                                                                     ...................                                                                            ",
"                                                         ...................                                                                                                                                     ...................                                                                                                                                     ...................                                                                                                                                     ...................                                                                            ",
"                                                         ...................                                                                                                                                     ...................                                                                                                                                     ...................                                                                                                                                     ...................                                                                            ",
"                                                         ...................                                                                                                                                     ...................                                                                                                                                     ...................                                                                                                                                     ...................                                                                            ",
"                                                                            ...................                                                                                                                                     ...................                                                                                                                                     ...................                                                                                                                                     ...................                                                         ",
"                                                                            ...................                                                                                                                                     ...................                                                                                                                                     ...................                                                                                                                                     ...................                                                         ",
"                                                                            ...................                                                                                                                                     ...................                                                                                                                                     ...................                                                                                                                                     ...................                                                         ",
"                                                                            ...................                                                                                                                                     ...................                                                                                                                                     ...................                                                                                                                                     ...................                                                         ",
"                                                                            ...................                                                                                                                                     ...................                                                                                                                                     ...................                                                                                                                                     ...................                                                         ",
"                                                                            ...................                                                                                                                                     ...................                                                                                                                                     ...................                                                                                                                                     ...................                                                         ",
"                                                                            ...................                                                                                                                                     ...................                                                                                                                                     ...................                                                                                                                                     ...................                                                         ",
"                                                                            ...................                                                                                                                                     ...................                                                                                                                                     ...................                                                                                                                                     ...................                                                         ",
"                                                                            ...................                                                                                                                                     ...................                                                                                                                                     ...................                                                                                                                                     ...................                                                         ",
"                                                                            ...................                                                                                                                                     ...................                                                                                                                                     ...................                                                                                                                                     ...................                                                         ",
"                                                                            ...................                                                                                                                                     ...................                                                                                                                                     ...................                                                                                                                                     ...................                                                         ",
"                                                                            ...................                                                                                                                                     ...................                                                                                                                                     ...................                                                                                                                                     ...................                                                         ",
"                                                                            ...................                                                                                                                                     ...................                                                                                                                                     ...................                                                                                                                                     ...................                                                         ",
"                                                                            ...................                                                                                                                                     ...................                                                                                                                                     ...................                                                                                                                                     ...................                                                         ",
"                                                                            ...................                                                                                                                                     ...................                                                                                                                                     ...................                                                                                                                                     ...................                                                         ",
"                                                                            ...................                                                                                                                                     ...................                                                                                                                                     ...................                                                                                                                                     ...................                                                         ",
"                                                                            ...................                                                                                                                                     ...................                                                                                                                                     ...................                                                                                                                                     ...................                                                         ",
"                                                                            ...................                                                                                                                                     ...................                                                                                                                                     ...................                                                                                                                                     ...................                                                         ",
"                                                                            ...................                                                                                                                                     ...................                                                                                                                                     ...................                                                                                                                                     ...................                                                         ",
"                                                                            ...................                                                                                                                                     ...................                                                                                                                                     ...................                                                                                                                                     ...................                                                         ",
"                                                                            ...................                                                                                                                                     ...................                                                                                                                                     ...................                                                                                                                                     ...................                                                         ",
"                                                                            ...................                                                                                                                                     ...................                                                                                                                                     ...................                                                                                                                                     ...................                                                         ",
"                                                                            ...................                                                                                                                                     ...................                                                                                                                                     ...................                                                                                                                                     ...................                                                         ",
"                                                                            ...................                                                                                                                                     ...................                                                                                                                                     ...................                                                                                                                                     ...................                                                         ",
"                                                                            ...................                                                                                                                                     ...................                                                                                                                                     ...................                                                                                                                                     ...................                                                         ",
"                                                                            ...................                                                                                                                                     ...................                                                                                                                                     ...................                                                                                                                                     ...................                                                         ",
"                                                                            ...................                                                                                                                                     ...................                                                                                                                                     ...................                                                                                                                                     ...................                                                         ",
"                                                                            ...................                                                                                                                                     ...................                                                                                                                                     ...................                                                                                                                                     ...................                                                         ",
"                                                                            ...................                                                                                                                                     ...................                                                                                                                                     ...................                                                                                                                                     ...................                                                         ",
"                                                                            ...................                                                                                                                                     ...................                                                                                                                                     ...................                                                                                                                                     ...................                                                         ",
"                                                                            ...................                                                                                                                                     ...................                                                                                                                                     ...................                                                                                                                                     ...................                                                         ",
"                                                                            ...................                                                                                                                                     ...................                                                                                                                                     ...................                                                                                                                                     ...................                                                         ",
"                                                                            ...................                                                                                                                                     ...................                                                                                                                                     ...................                                                                                                                                     ...................                                                         ",
"                                                                            ...................                                                                                                                                     ...................                                                                                                                                     ...................                                                                                                                                     ...................                                                         ",
"                                                                            ...................                                                                                                                                     ...................                                                                                                                                     ...................                                                                                                                                     ...................                                                         ",
"                                                                            ...................                                                                                                                                     ...................                                                                                                                                     ...................                                                                                                                                     ...................                                                         ",
"                                                                            ...................                                                                                                                                     ...................                                                                                                                                     ...................                                                                                                                                     ...................                                                         ",
"                                                                            ...................                                                                                                                                     ...................                                                                                                                                     ...................                                                                                                                                     ...................                                                         "
};
